; HEADER_BLOCK_START
; generated by OrcaSlicer 1.8.0-beta1 on 2024-06-08 at 20:37:43
; total layer number: 49
; HEADER_BLOCK_END


;
;
; external perimeters extrusion width = 0.40mm
; perimeters extrusion width = 0.45mm
; infill extrusion width = 0.45mm
; solid infill extrusion width = 0.40mm
; top infill extrusion width = 0.40mm
; first layer extrusion width = 0.50mm

; external perimeters extrusion width = 0.40mm
; perimeters extrusion width = 0.45mm
; infill extrusion width = 0.45mm
; solid infill extrusion width = 0.40mm
; top infill extrusion width = 0.40mm
; first layer extrusion width = 0.50mm

; EXECUTABLE_BLOCK_START
EXCLUDE_OBJECT_DEFINE NAME=40mm_fan.stl_id_0_copy_0 CENTER=150,170.837 POLYGON=[[130.163,153.54],[130.165,153.421],[130.173,153.312],[130.174,153.3],[130.189,153.178],[130.205,153.078],[130.209,153.055],[130.236,152.935],[130.261,152.841],[130.268,152.814],[130.308,152.694],[130.341,152.605],[130.353,152.575],[130.446,152.373],[130.577,152.15],[130.595,152.123],[130.731,151.939],[130.907,151.744],[130.925,151.725],[131.102,151.568],[131.313,151.414],[131.329,151.403],[131.536,151.284],[131.55,151.276],[131.664,151.222],[131.768,151.178],[131.779,151.174],[131.896,151.132],[132.004,151.098],[132.013,151.095],[132.13,151.065],[132.24,151.042],[132.246,151.041],[132.362,151.023],[132.474,151.01],[132.477,151.01],[132.591,151.002],[132.703,151],[167.297,151],[167.416,151.003],[167.526,151.01],[167.537,151.011],[167.659,151.026],[167.76,151.042],[167.783,151.047],[167.903,151.073],[167.996,151.098],[168.023,151.106],[168.143,151.145],[168.232,151.178],[168.262,151.19],[168.464,151.284],[168.687,151.414],[168.715,151.432],[168.898,151.568],[169.093,151.744],[169.112,151.763],[169.269,151.939],[169.423,152.15],[169.434,152.167],[169.554,152.373],[169.561,152.388],[169.615,152.502],[169.659,152.605],[169.664,152.617],[169.706,152.733],[169.739,152.841],[169.742,152.85],[169.772,152.967],[169.795,153.078],[169.796,153.084],[169.815,153.2],[169.827,153.312],[169.827,153.315],[169.835,153.428],[169.837,153.54],[169.837,188.135],[169.835,188.254],[169.827,188.363],[169.826,188.374],[169.811,188.497],[169.795,188.597],[169.791,188.62],[169.764,188.74],[169.739,188.834],[169.732,188.86],[169.692,188.98],[169.659,189.07],[169.647,189.1],[169.554,189.301],[169.423,189.525],[169.405,189.552],[169.269,189.736],[169.093,189.931],[169.075,189.949],[168.898,190.107],[168.687,190.261],[168.671,190.271],[168.464,190.391],[168.45,190.398],[168.336,190.453],[168.232,190.496],[168.221,190.501],[168.104,190.543],[167.996,190.577],[167.987,190.579],[167.87,190.609],[167.76,190.632],[167.754,190.633],[167.638,190.652],[167.526,190.665],[167.523,190.665],[167.409,190.672],[167.297,190.675],[132.703,190.675],[132.584,190.672],[132.474,190.665],[132.463,190.663],[132.341,190.649],[132.24,190.632],[132.217,190.628],[132.097,190.602],[132.004,190.577],[131.977,190.569],[131.857,190.53],[131.768,190.496],[131.738,190.484],[131.536,190.391],[131.313,190.261],[131.285,190.243],[131.102,190.107],[130.907,189.931],[130.888,189.912],[130.731,189.736],[130.577,189.525],[130.566,189.508],[130.446,189.301],[130.439,189.287],[130.385,189.173],[130.341,189.07],[130.336,189.058],[130.294,188.942],[130.261,188.834],[130.258,188.825],[130.228,188.708],[130.205,188.597],[130.204,188.591],[130.185,188.475],[130.173,188.363],[130.173,188.36],[130.165,188.247],[130.163,188.135],[130.163,153.54]]
EXCLUDE_OBJECT_DEFINE NAME=40mm_fan.stl_id_1_copy_0 CENTER=150,129.163 POLYGON=[[130.163,111.865],[130.165,111.746],[130.173,111.637],[130.174,111.626],[130.189,111.503],[130.205,111.403],[130.209,111.38],[130.236,111.26],[130.261,111.166],[130.268,111.14],[130.308,111.02],[130.341,110.93],[130.353,110.9],[130.446,110.699],[130.577,110.475],[130.595,110.448],[130.731,110.264],[130.907,110.069],[130.925,110.051],[131.102,109.893],[131.313,109.739],[131.329,109.729],[131.536,109.609],[131.55,109.602],[131.664,109.547],[131.768,109.504],[131.779,109.499],[131.896,109.457],[132.004,109.423],[132.013,109.421],[132.13,109.391],[132.24,109.368],[132.246,109.367],[132.362,109.348],[132.474,109.335],[132.477,109.335],[132.591,109.328],[132.703,109.325],[167.297,109.325],[167.416,109.328],[167.526,109.335],[167.537,109.337],[167.659,109.351],[167.76,109.368],[167.783,109.372],[167.903,109.398],[167.996,109.423],[168.023,109.431],[168.143,109.47],[168.232,109.504],[168.262,109.516],[168.464,109.609],[168.687,109.739],[168.715,109.757],[168.898,109.893],[169.093,110.069],[169.112,110.088],[169.269,110.264],[169.423,110.475],[169.434,110.492],[169.554,110.699],[169.561,110.713],[169.615,110.827],[169.659,110.93],[169.664,110.942],[169.706,111.058],[169.739,111.166],[169.742,111.175],[169.772,111.292],[169.795,111.403],[169.796,111.409],[169.815,111.525],[169.827,111.637],[169.827,111.64],[169.835,111.753],[169.837,111.865],[169.837,146.46],[169.835,146.579],[169.827,146.688],[169.826,146.7],[169.811,146.822],[169.795,146.922],[169.791,146.945],[169.764,147.065],[169.739,147.159],[169.732,147.186],[169.692,147.306],[169.659,147.395],[169.647,147.425],[169.554,147.627],[169.423,147.85],[169.405,147.877],[169.269,148.061],[169.093,148.256],[169.075,148.275],[168.898,148.432],[168.687,148.586],[168.671,148.597],[168.464,148.716],[168.45,148.724],[168.336,148.778],[168.232,148.822],[168.221,148.826],[168.104,148.868],[167.996,148.902],[167.987,148.905],[167.87,148.935],[167.76,148.958],[167.754,148.959],[167.638,148.977],[167.526,148.99],[167.523,148.99],[167.409,148.998],[167.297,149],[132.703,149],[132.584,148.997],[132.474,148.99],[132.463,148.989],[132.341,148.974],[132.24,148.958],[132.217,148.953],[132.097,148.927],[132.004,148.902],[131.977,148.894],[131.857,148.855],[131.768,148.822],[131.738,148.81],[131.536,148.716],[131.313,148.586],[131.285,148.568],[131.102,148.432],[130.907,148.256],[130.888,148.237],[130.731,148.061],[130.577,147.85],[130.566,147.833],[130.446,147.627],[130.439,147.612],[130.385,147.498],[130.341,147.395],[130.336,147.383],[130.294,147.267],[130.261,147.159],[130.258,147.15],[130.228,147.033],[130.205,146.922],[130.204,146.916],[130.185,146.8],[130.173,146.688],[130.173,146.685],[130.165,146.572],[130.163,146.46],[130.163,111.865]]
M73 P0 R25
;TYPE:Custom
M190 S70
M109 S220
PRINT_START EXTRUDER=220 BED=70
G90
G21
M83 ; use relative distances for extrusion
; filament start gcode
M106 S0
;LAYER_CHANGE
;Z:0.2
;HEIGHT:0.2
;BEFORE_LAYER_CHANGE
;0.2
G92 E0

G1 E-.8 F1800
;AFTER_LAYER_CHANGE
;0.2
;_SET_FAN_SPEED_CHANGING_LAYER
SET_VELOCITY_LIMIT ACCEL=500 ACCEL_TO_DECEL=250
; printing object 40mm_fan.stl id:0 copy 0
EXCLUDE_OBJECT_START NAME=40mm_fan.stl_id_0_copy_0
G1 Z.4 F21000
G1 X132.192 Y169.867
G1 Z.4
G1 Z.2
G1 E.8 F1800
;TYPE:Inner wall
;WIDTH:0.471794
G1 F3000
G1 X131.878 Y169.913 E.01107
;WIDTH:0.471945
G1 X131.634 Y170.017 E.00928
G1 X131.313 Y170.573 E.02245
G1 X131.313 Y169.831 E.02594
G1 X131.295 Y169.532 E.0105
;WIDTH:0.436502
G1 X131.277 Y169.232 E.00963
;WIDTH:0.401058
G1 X131.26 Y168.932 E.00876
;WIDTH:0.403196
G1 X131.283 Y169.071 E.00413
;WIDTH:0.440778
G1 X131.307 Y169.21 E.00456
;WIDTH:0.471945
G1 X131.654 Y169.658 E.01982
G1 X131.885 Y169.788 E.00928
;WIDTH:0.471794
G1 X132.153 Y169.857 E.00968
G1 E-.56 F1800
;WIPE_START
G1 F3000
G1 X131.878 Y169.913 E-.0673
G1 X131.634 Y170.017 E-.0637
G1 X131.407 Y170.41 E-.109
;WIPE_END
G1 E0 F1800
G1 Z.6 F21000
G1 X134.62 Y181.879 Z.6
G1 Z.2
G1 E.8 F1800
;WIDTH:0.499999
G1 F3000
G1 X135.169 Y182.628 E.0346
G1 X135.497 Y182.929 E.01659
G1 X135.905 Y183.081 E.01622
G1 X136.268 Y183.082 E.01351
;WIDTH:0.502624
G1 X136.783 Y182.864 E.02093
G1 X136.516 Y183.355 E.02093
;WIDTH:0.499999
G1 X136.484 Y183.743 E.0145
;WIDTH:0.541154
G1 X136.495 Y183.844 E.00414
;WIDTH:0.582309
G1 X136.505 Y183.946 E.00448
;WIDTH:0.623463
G1 X136.515 Y184.047 E.00482
;WIDTH:0.664618
G1 X136.526 Y184.149 E.00517
;WIDTH:0.705772
G1 X136.536 Y184.25 E.00551
G1 X136.912 Y184.678 E.03075
;WIDTH:0.70196
G1 X137.007 Y184.732 E.00589
;WIDTH:0.653496
G1 X137.102 Y184.787 E.00545
;WIDTH:0.605032
G1 X137.197 Y184.842 E.00502
;WIDTH:0.556568
G1 X137.319 Y184.934 E.00644
;WIDTH:0.528284
G1 X137.442 Y185.027 E.00608
;WIDTH:0.499999
G1 X138.319 Y185.752 E.04236
G1 X139.405 Y186.536 E.04991
G1 X140.478 Y187.203 E.04705
G1 X141.568 Y187.788 E.04609
G1 X142.716 Y188.31 E.04697
G1 X143.847 Y188.741 E.04506
G1 X145.017 Y189.105 E.04566
;WIDTH:0.542402
G1 X145.602 Y189.268 E.02472
;WIDTH:0.584805
G1 X146.187 Y189.432 E.02682
;WIDTH:0.6054
G1 X146.261 Y189.458 E.00357
G1 X146.183 Y189.468 E.00359
;WIDTH:0.584805
G1 X145.576 Y189.489 E.02682
;WIDTH:0.542402
G1 X144.969 Y189.511 E.02472
;WIDTH:0.499999
G1 X135.057 Y189.511 E.36919
G1 X135.649 Y189.193 E.02504
G1 X136.091 Y188.81 E.02177
G1 X136.447 Y188.347 E.02176
G1 X136.681 Y187.867 E.0199
G1 X136.839 Y187.281 E.0226
G1 X136.872 Y186.736 E.02032
G1 X136.805 Y186.216 E.01955
G1 X136.628 Y185.68 E.02103
;WIDTH:0.540392
G1 X136.589 Y185.569 E.00477
;WIDTH:0.580784
G1 X136.549 Y185.458 E.00516
;WIDTH:0.621176
G1 X136.51 Y185.347 E.00555
;WIDTH:0.661568
G1 X136.47 Y185.236 E.00593
;WIDTH:0.70196
G1 X136.431 Y185.125 E.00632
;WIDTH:0.705772
G1 X136.035 Y184.667 E.0327
G1 X135.921 Y184.608 E.00691
;WIDTH:0.664618
G1 X135.808 Y184.549 E.00648
;WIDTH:0.623463
G1 X135.695 Y184.489 E.00605
;WIDTH:0.582309
G1 X135.581 Y184.43 E.00563
;WIDTH:0.541154
G1 X135.468 Y184.371 E.0052
;WIDTH:0.499999
G1 X134.97 Y184.134 E.02051
G1 X134.4 Y183.994 E.02186
G1 X133.867 Y183.967 E.01989
G1 X133.374 Y184.032 E.01851
G1 X132.848 Y184.204 E.02063
G1 X132.347 Y184.486 E.0214
G1 X131.905 Y184.868 E.02178
G1 X131.549 Y185.332 E.02176
G1 X131.327 Y185.784 E.01875
G1 X131.327 Y175.675 E.3765
;WIDTH:0.529365
G1 X131.341 Y175.067 E.02412
;WIDTH:0.55873
G1 X131.356 Y174.459 E.02557
;WIDTH:0.569944
G1 X131.362 Y174.395 E.00275
G1 X131.38 Y174.456 E.00274
;WIDTH:0.55873
G1 X131.531 Y175.045 E.02557
;WIDTH:0.529365
G1 X131.683 Y175.634 E.02412
;WIDTH:0.499999
G1 X132.056 Y176.873 E.04818
G1 X132.511 Y178.083 E.04816
G1 X133.045 Y179.26 E.04815
G1 X133.692 Y180.458 E.05069
G1 X134.388 Y181.562 E.04862
G1 X134.596 Y181.846 E.01312
G1 E-.56 F1800
;WIPE_START
G1 F3000
G1 X135.169 Y182.628 E-.23256
G1 X135.192 Y182.649 E-.00744
;WIPE_END
G1 Z.6 F21000
G1 X133.151 Y189.546 Z.6
G1 Z.2
G1 E.8 F1800
;WIDTH:0.430008
G1 F3000
G1 X132.449 Y189.516 E.02219
G1 X132.186 Y189.44 E.00862
G1 X131.937 Y189.311 E.00884
G1 X131.592 Y188.985 E.01499
;WIDTH:0.428152
G1 X131.399 Y188.658 E.0119
G1 X131.315 Y188.349 E.01006
G1 X131.291 Y187.684 E.0209
G1 X131.316 Y187.772 E.00288
G1 X131.561 Y188.299 E.01825
G1 X131.893 Y188.745 E.01742
;WIDTH:0.430008
G1 X132.339 Y189.147 E.01896
G1 X132.794 Y189.41 E.01659
G1 X133.114 Y189.531 E.01079
G1 E-.56 F1800
;WIPE_START
G1 F3000
G1 X132.449 Y189.516 E-.15978
G1 X132.186 Y189.44 E-.06558
G1 X132.132 Y189.412 E-.01463
;WIPE_END
G1 Z.6 F21000
G1 X136.004 Y185.502 Z.6
G1 Z.2
G1 E.8 F1800
;WIDTH:0.499999
G1 F3000
G1 X136.069 Y185.589 E.00404
G1 X136.275 Y186.021 E.01783
G1 X136.389 Y186.466 E.01708
G1 X136.417 Y186.905 E.01641
G1 X136.356 Y187.378 E.01774
G1 X136.196 Y187.846 E.01844
G1 X135.966 Y188.246 E.0172
G1 X135.64 Y188.616 E.01833
G1 X135.248 Y188.911 E.01827
;WIDTH:0.535474
G1 X135.003 Y189.026 E.0109
;WIDTH:0.570949
G1 X134.757 Y189.142 E.01168
;WIDTH:0.606424
G1 X134.511 Y189.258 E.01247
;WIDTH:0.641051
G1 X134.378 Y189.3 E.00682
G1 X133.915 Y189.32 E.02258
;WIDTH:0.647783
G1 X133.557 Y189.291 E.0177
G1 X133.377 Y189.211 E.00975
;WIDTH:0.598522
G1 X133.196 Y189.13 E.00895
;WIDTH:0.549261
G1 X133.015 Y189.05 E.00816
;WIDTH:0.499999
G1 X132.591 Y188.807 E.01821
G1 X132.162 Y188.407 E.02185
G1 X131.927 Y188.09 E.01471
;WIDTH:0.535476
G1 X131.811 Y187.844 E.0109
;WIDTH:0.570953
G1 X131.695 Y187.598 E.01168
;WIDTH:0.60643
G1 X131.579 Y187.353 E.01247
;WIDTH:0.641056
G1 X131.537 Y187.219 E.00682
G1 X131.516 Y186.767 E.02206
;WIDTH:0.641975
G1 X131.538 Y186.461 E.01501
G1 X131.603 Y186.305 E.00825
;WIDTH:0.59465
G1 X131.668 Y186.148 E.0076
;WIDTH:0.547325
G1 X131.733 Y185.992 E.00695
;WIDTH:0.499999
G1 X132.03 Y185.432 E.02362
G1 X132.356 Y185.063 E.01834
G1 X132.748 Y184.768 E.01827
G1 X133.18 Y184.562 E.01783
G1 X133.622 Y184.449 E.01699
G1 X134.033 Y184.421 E.01536
G1 X134.492 Y184.473 E.01719
G1 X134.981 Y184.629 E.01911
G1 X135.405 Y184.872 E.01822
G1 X135.774 Y185.197 E.01834
G1 X135.98 Y185.47 E.01273
G1 X135.643 Y185.773 F21000
;TYPE:Outer wall
G1 F3000
G1 X135.662 Y185.797 E.00113
G1 X135.835 Y186.146 E.01452
G1 X135.933 Y186.507 E.01393
G1 X135.962 Y186.861 E.01324
G1 X135.92 Y187.24 E.01419
G1 X135.793 Y187.631 E.0153
G1 X135.614 Y187.954 E.01376
G1 X135.355 Y188.258 E.01488
G1 X135.041 Y188.503 E.01485
G1 X134.691 Y188.677 E.01452
G1 X134.331 Y188.775 E.01393
G1 X133.973 Y188.803 E.01337
G1 X133.575 Y188.755 E.0149
G1 X133.209 Y188.635 E.01437
G1 X132.883 Y188.456 E.01384
G1 X132.519 Y188.122 E.01839
G1 X132.334 Y187.882 E.0113
G1 X132.161 Y187.533 E.01452
G1 X132.063 Y187.172 E.01393
G1 X132.034 Y186.817 E.01324
G1 X132.072 Y186.471 E.01299
G1 X132.19 Y186.072 E.01549
G1 X132.382 Y185.725 E.01478
G1 X132.641 Y185.42 E.01488
G1 X132.955 Y185.175 E.01485
G1 X133.305 Y185.002 E.01452
G1 X133.665 Y184.904 E.0139
G1 X133.994 Y184.877 E.01231
G1 X134.367 Y184.913 E.01395
G1 X134.79 Y185.045 E.01653
G1 X135.113 Y185.223 E.01372
G1 X135.417 Y185.482 E.01488
G1 X135.619 Y185.741 E.01224
G1 E-.56 F1800
;WIPE_START
G1 F3000
G1 X135.662 Y185.797 E-.01686
G1 X135.835 Y186.146 E-.09357
G1 X135.933 Y186.507 E-.08976
G1 X135.947 Y186.672 E-.03982
;WIPE_END
G1 Z.6 F21000
G1 X149.137 Y188.687 Z.6
G1 Z.2
G1 E.8 F1800
;TYPE:Inner wall
;WIDTH:0.545856
G1 F3000
G1 X149.22 Y188.937 E.01079
;WIDTH:0.517445
G1 X149.303 Y189.187 E.01018
;WIDTH:0.489033
G1 X149.613 Y189.516 E.01645
G1 X148.52 Y189.516 E.03974
G1 X148.922 Y189.167 E.01937
;WIDTH:0.517445
G1 X149.03 Y188.927 E.01018
;WIDTH:0.545856
G1 X149.121 Y188.723 E.00915
G1 E-.56 F1800
;WIPE_START
G1 F3000
G1 X149.22 Y188.937 E-.05645
G1 X149.303 Y189.187 E-.06317
G1 X149.613 Y189.516 E-.10857
G1 X149.563 Y189.516 E-.01181
;WIPE_END
G1 E0 F1800
G1 Z.6 F21000
G1 X161.11 Y186.165 Z.6
G1 Z.2
G1 E.8 F1800
;WIDTH:0.499999
G1 F3000
G1 X161.577 Y185.833 E.02135
G1 X161.861 Y185.562 E.01461
G1 X162.056 Y185.141 E.01732
G1 X162.074 Y184.716 E.01582
;WIDTH:0.536555
G1 X161.982 Y184.448 E.01141
;WIDTH:0.57311
G1 X161.89 Y184.179 E.01226
G1 X162.146 Y184.302 E.01226
;WIDTH:0.536555
G1 X162.402 Y184.425 E.01141
;WIDTH:0.499999
G1 X162.907 Y184.447 E.01884
;WIDTH:0.544645
G1 X163.043 Y184.41 E.00576
;WIDTH:0.589291
G1 X163.179 Y184.373 E.00627
;WIDTH:0.633937
G1 X163.315 Y184.337 E.00678
;WIDTH:0.678583
G1 X163.451 Y184.3 E.0073
;WIDTH:0.70285
G1 X163.84 Y183.924 E.02908
G1 X163.879 Y183.851 E.00445
;WIDTH:0.661867
G1 X163.919 Y183.779 E.00417
;WIDTH:0.620884
G1 X163.958 Y183.706 E.0039
;WIDTH:0.579901
G1 X163.998 Y183.633 E.00362
;WIDTH:0.538917
G1 X164.246 Y183.334 E.01572
;WIDTH:0.499999
G1 X165.012 Y182.395 E.04512
G1 X165.748 Y181.365 E.04713
G1 X166.374 Y180.355 E.04429
G1 X166.959 Y179.264 E.04611
G1 X167.472 Y178.138 E.04606
G1 X167.921 Y176.957 E.04706
G1 X168.313 Y175.663 E.05036
;WIDTH:0.5382
G1 X168.459 Y175.127 E.02244
;WIDTH:0.5764
G1 X168.605 Y174.59 E.02417
;WIDTH:0.592358
G1 X168.627 Y174.525 E.00308
G1 X168.635 Y174.594 E.0031
;WIDTH:0.5764
G1 X168.654 Y175.149 E.02417
;WIDTH:0.5382
G1 X168.673 Y175.705 E.02244
;WIDTH:0.499999
G1 X168.673 Y185.781 E.37528
G1 X168.356 Y185.188 E.02504
G1 X167.973 Y184.746 E.02178
G1 X167.509 Y184.391 E.02176
G1 X166.974 Y184.134 E.0221
G1 X166.406 Y183.994 E.0218
G1 X165.893 Y183.965 E.01913
G1 X165.378 Y184.032 E.01935
G1 X164.829 Y184.216 E.02158
;WIDTH:0.54057
G1 X164.721 Y184.254 E.00465
;WIDTH:0.58114
G1 X164.612 Y184.292 E.00503
;WIDTH:0.62171
G1 X164.504 Y184.33 E.00541
;WIDTH:0.66228
G1 X164.396 Y184.368 E.00579
;WIDTH:0.70285
G1 X164.288 Y184.406 E.00617
G1 X164.035 Y184.624 E.01791
;WIDTH:0.677787
G1 X163.853 Y184.822 E.01393
;WIDTH:0.645181
G1 X163.753 Y184.992 E.00968
;WIDTH:0.596787
