; HEADER_BLOCK_START
; generated by OrcaSlicer 1.8.0-beta1 on 2024-05-26 at 17:41:49
; total layer number: 20
; HEADER_BLOCK_END


;
;
; external perimeters extrusion width = 0.40mm
; perimeters extrusion width = 0.45mm
; infill extrusion width = 0.45mm
; solid infill extrusion width = 0.40mm
; top infill extrusion width = 0.40mm
; first layer extrusion width = 0.50mm

; EXECUTABLE_BLOCK_START
EXCLUDE_OBJECT_DEFINE NAME=Body1.stl_id_0_copy_0 CENTER=150,150 POLYGON=[[32.5048,92.3913],[32.5805,91.3618],[32.7619,90.3457],[33.0471,89.3536],[33.433,88.3962],[33.9156,87.4837],[34.4896,86.6258],[35.1491,85.8317],[35.8869,85.1097],[36.6952,84.4677],[37.5653,83.9124],[38.4881,83.4498],[39.4537,83.0848],[40.4517,82.8212],[41.4716,82.662],[42.5024,82.6087],[257.495,82.6087],[258.475,82.6568],[259.446,82.8008],[260.398,83.0393],[261.322,83.3699],[262.209,83.7895],[263.051,84.294],[263.839,84.8786],[264.566,85.5376],[265.225,86.2647],[265.81,87.053],[266.314,87.8947],[266.734,88.7818],[267.065,89.7058],[267.303,90.6578],[267.447,91.6285],[267.495,92.6087],[267.495,217.391],[32.5048,217.391],[32.5048,92.3913]]
M73 P0 R101
;TYPE:Custom
M190 S70
M109 S220
PRINT_START EXTRUDER=220 BED=70
G90
G21
M83 ; use relative distances for extrusion
; filament start gcode
M106 S0
;LAYER_CHANGE
;Z:0.2
;HEIGHT:0.2
;BEFORE_LAYER_CHANGE
;0.2
G92 E0

G1 E-.8 F1800
;AFTER_LAYER_CHANGE
;0.2
;_SET_FAN_SPEED_CHANGING_LAYER
SET_VELOCITY_LIMIT ACCEL=500 ACCEL_TO_DECEL=250
; printing object Body1.stl id:0 copy 0
EXCLUDE_OBJECT_START NAME=Body1.stl_id_0_copy_0
G1 Z.4 F21000
G1 X33.669 Y216.227
G1 Z.4
G1 Z.2
G1 E.8 F1800
;TYPE:Inner wall
;WIDTH:0.499999
G1 F3000
G1 X33.669 Y213.724 E.09322
;WIDTH:0.544527
G1 X33.691 Y213.406 E.01304
;WIDTH:0.589055
G1 X33.713 Y213.088 E.0142
;WIDTH:0.610079
G1 X33.724 Y212.473 E.02844
;WIDTH:0.625464
G1 X33.732 Y211.862 E.02899
G1 X33.711 Y211.657 E.00979
;WIDTH:0.583643
G1 X33.69 Y211.452 E.00908
;WIDTH:0.541821
G1 X33.669 Y211.247 E.00838
;WIDTH:0.499999
G1 X33.669 Y93.488 E4.38606
;WIDTH:0.541821
G1 X33.69 Y93.283 E.00838
;WIDTH:0.583643
G1 X33.711 Y93.078 E.00908
;WIDTH:0.625465
G1 X33.732 Y92.873 E.00979
G1 X33.735 Y92.242 E.02993
;WIDTH:0.628516
G1 X33.804 Y91.502 E.0355
;WIDTH:0.6615
G1 X33.912 Y90.997 E.02601
G1 X33.909 Y90.877 E.00604
;WIDTH:0.61368
G1 X33.907 Y90.757 E.00558
;WIDTH:0.565859
G1 X33.904 Y90.637 E.00511
;WIDTH:0.518038
G1 X33.979 Y90.325 E.01246
;WIDTH:0.499999
G1 X34.149 Y89.733 E.02293
G1 X34.49 Y88.887 E.03397
G1 X34.917 Y88.081 E.03396
G1 X35.424 Y87.323 E.03397
G1 X36.006 Y86.622 E.03397
G1 X36.658 Y85.984 E.03397
G1 X37.372 Y85.417 E.03396
G1 X38.14 Y84.927 E.03391
G1 X38.979 Y84.509 E.03492
G1 X39.809 Y84.195 E.03306
G1 X40.691 Y83.962 E.03397
G1 X41.592 Y83.821 E.03397
G1 X42.532 Y83.773 E.03509
G1 X146.745 Y83.773 E3.88152
;WIDTH:0.523119
G1 X147.921 Y83.777 E.046
;WIDTH:0.544579
G1 X148.532 Y83.796 E.02502
G1 X149.144 Y83.773 E.025
;WIDTH:0.499999
G1 X257.491 Y83.774 E4.03552
G1 X258.361 Y83.817 E.03244
G1 X259.219 Y83.944 E.03229
G1 X260.06 Y84.155 E.03229
G1 X260.876 Y84.447 E.03229
G1 X261.66 Y84.817 E.03229
G1 X262.403 Y85.263 E.03229
G1 X263.1 Y85.78 E.03229
G1 X263.742 Y86.362 E.03229
G1 X264.324 Y87.004 E.03229
G1 X264.841 Y87.701 E.03229
G1 X265.286 Y88.444 E.03229
G1 X265.643 Y89.197 E.03104
G1 X265.816 Y89.673 E.01886
G1 X266.024 Y90.341 E.02605
;WIDTH:0.514889
G1 X266.148 Y90.868 E.02081
;WIDTH:0.555861
G1 X266.147 Y91 E.00555
;WIDTH:0.596832
G1 X266.147 Y91.133 E.00599
;WIDTH:0.637803
G1 X266.147 Y91.266 E.00643
G1 X266.24 Y91.883 E.03025
;WIDTH:0.615551
G1 X266.273 Y92.646 E.03564
;WIDTH:0.625459
G1 X266.268 Y92.873 E.01078
G1 X266.289 Y93.078 E.00979
;WIDTH:0.583639
G1 X266.31 Y93.283 E.00908
;WIDTH:0.541819
G1 X266.331 Y93.488 E.00838
;WIDTH:0.499999
G1 X266.331 Y211.314 E4.38857
;WIDTH:0.542292
G1 X266.31 Y211.514 E.00819
;WIDTH:0.584585
G1 X266.289 Y211.715 E.00888
;WIDTH:0.626878
G1 X266.268 Y211.915 E.00958
G1 X266.276 Y212.276 E.01718
;WIDTH:0.625459
G1 X266.268 Y212.893 E.02928
G1 X266.289 Y213.098 E.00979
;WIDTH:0.583639
G1 X266.31 Y213.303 E.00908
;WIDTH:0.541819
G1 X266.331 Y213.508 E.00838
;WIDTH:0.499999
G1 X266.331 Y216.227 E.10128
G1 X263.865 Y216.227 E.09186
;WIDTH:0.541344
G1 X263.551 Y216.206 E.01278
;WIDTH:0.582689
G1 X263.237 Y216.186 E.01384
;WIDTH:0.600145
G1 X262.623 Y216.177 E.02786
;WIDTH:0.615528
G1 X262.015 Y216.169 E.02841
G1 X261.81 Y216.189 E.00958
;WIDTH:0.577019
G1 X261.606 Y216.208 E.00894
;WIDTH:0.538509
G1 X261.401 Y216.227 E.0083
;WIDTH:0.499999
G1 X38.889 Y216.227 E8.2877
;WIDTH:0.534742
G1 X38.678 Y216.21 E.0085
;WIDTH:0.569485
G1 X38.467 Y216.192 E.0091
;WIDTH:0.604228
G1 X38.255 Y216.175 E.0097
;WIDTH:0.634038
G1 X37.636 Y216.16 E.02984
;WIDTH:0.64943
G1 X37.021 Y216.152 E.03039
G1 X36.815 Y216.177 E.01028
;WIDTH:0.59962
G1 X36.608 Y216.202 E.00943
;WIDTH:0.54981
G1 X36.402 Y216.227 E.00859
;WIDTH:0.499999
G1 X33.709 Y216.227 E.1003
G1 X33.212 Y216.684 F21000
G1 F3000
G1 X33.212 Y92.417 E4.62847
G1 X33.283 Y91.451 E.03609
G1 X33.458 Y90.482 E.03668
G1 X33.717 Y89.584 E.0348
G1 X34.075 Y88.694 E.03573
G1 X34.524 Y87.847 E.03572
G1 X35.057 Y87.049 E.03573
G1 X35.67 Y86.312 E.03572
G1 X36.355 Y85.641 E.03573
G1 X37.106 Y85.044 E.03572
G1 X37.914 Y84.529 E.03569
G1 X38.796 Y84.089 E.03668
G1 X39.67 Y83.759 E.0348
G1 X40.597 Y83.514 E.03573
G1 X41.545 Y83.366 E.03572
G1 X42.521 Y83.316 E.03641
G1 X257.502 Y83.317 E8.00723
G1 X258.406 Y83.361 E.0337
G1 X259.308 Y83.495 E.03396
G1 X260.192 Y83.717 E.03396
G1 X261.051 Y84.024 E.03396
G1 X261.875 Y84.414 E.03396
G1 X262.658 Y84.883 E.03396
G1 X263.39 Y85.426 E.03396
G1 X264.066 Y86.038 E.03396
G1 X264.678 Y86.714 E.03396
G1 X265.221 Y87.446 E.03396
G1 X265.69 Y88.228 E.03397
G1 X266.08 Y89.053 E.03396
G1 X266.387 Y89.911 E.03396
G1 X266.534 Y90.499 E.02258
G1 X266.667 Y91.188 E.02613
G1 X266.75 Y91.858 E.02512
G1 X266.788 Y92.646 E.02939
G1 X266.788 Y216.684 E4.61996
G1 X33.252 Y216.684 E8.69833
M73 P0 R100
G1 X32.755 Y217.141 F21000
;TYPE:Outer wall
G1 F3000
G1 X32.755 Y92.4 E4.64612
G1 X32.829 Y91.393 E.03761
G1 X33.013 Y90.378 E.03844
G1 X33.284 Y89.435 E.03654
G1 X33.66 Y88.502 E.03748
G1 X34.131 Y87.612 E.03748
G1 X34.69 Y86.776 E.03749
G1 X35.333 Y86.001 E.03748
G1 X36.052 Y85.297 E.03749
G1 X36.841 Y84.672 E.03748
G1 X37.689 Y84.13 E.03747
G1 X38.612 Y83.67 E.03844
G1 X39.53 Y83.323 E.03653
G1 X40.503 Y83.066 E.03749
G1 X41.497 Y82.911 E.03748
G1 X42.509 Y82.859 E.03773
G1 X257.513 Y82.86 E8.00809
G1 X258.451 Y82.906 E.03495
G1 X259.397 Y83.046 E.03564
G1 X260.325 Y83.279 E.03564
G1 X261.226 Y83.601 E.03564
G1 X262.091 Y84.01 E.03564
G1 X262.912 Y84.502 E.03564
G1 X263.68 Y85.072 E.03564
G1 X264.389 Y85.715 E.03564
G1 X265.032 Y86.424 E.03564
G1 X265.602 Y87.192 E.03564
G1 X266.094 Y88.013 E.03564
G1 X266.503 Y88.878 E.03564
G1 X266.825 Y89.779 E.03564
G1 X266.978 Y90.388 E.02342
G1 X267.119 Y91.121 E.02781
G1 X267.207 Y91.835 E.02679
G1 X267.245 Y92.646 E.03022
G1 X267.245 Y217.141 E4.63698
G1 X32.795 Y217.141 E8.73237
G1 E-.56 F1800
;WIPE_START
G1 F3000
G1 X32.794 Y216.141 E-.24
;WIPE_END
G1 Z.6 F21000
G1 X261.353 Y95.328 Z.6
G1 Z.2
G1 E.8 F1800
;TYPE:Inner wall
G1 F3000
G1 X261.002 Y95.178 E.01425
G1 X260.54 Y94.876 E.02053
G1 X260.145 Y94.505 E.0202
G1 X259.811 Y94.062 E.02067
G1 X259.56 Y93.566 E.02071
G1 X259.401 Y93.038 E.02052
G1 X259.335 Y92.491 E.02053
G1 X259.366 Y91.941 E.02053
G1 X259.492 Y91.404 E.02053
G1 X259.709 Y90.898 E.02052
G1 X260.011 Y90.436 E.02053
G1 X260.388 Y90.035 E.02053
G1 X260.829 Y89.705 E.02052
G1 X261.321 Y89.456 E.02053
G1 X261.848 Y89.297 E.02052
G1 X262.387 Y89.232 E.0202
G1 X262.941 Y89.262 E.02067
G1 X263.482 Y89.388 E.02071
G1 X263.989 Y89.605 E.02053
G1 X264.45 Y89.907 E.02053
G1 X264.852 Y90.284 E.02053
G1 X265.182 Y90.725 E.02052
;WIDTH:0.545927
G1 X265.451 Y91.207 E.02264
;WIDTH:0.591865
G1 X265.508 Y91.297 E.00474
;WIDTH:0.637803
G1 X265.565 Y91.386 E.00514
G1 X265.676 Y91.922 E.02654
;WIDTH:0.608443
G1 X265.708 Y92.333 E.01896
;WIDTH:0.625459
G1 X265.687 Y92.847 E.02445
G1 X265.624 Y93.024 E.00892
;WIDTH:0.583639
G1 X265.561 Y93.201 E.00828
;WIDTH:0.541819
G1 X265.499 Y93.378 E.00764
;WIDTH:0.499999
G1 X265.282 Y93.885 E.02052
G1 X264.98 Y94.346 E.02053
G1 X264.609 Y94.742 E.0202
G1 X264.165 Y95.075 E.02067
G1 X263.67 Y95.327 E.02071
G1 X263.142 Y95.486 E.02053
G1 X262.595 Y95.551 E.02052
G1 X262.045 Y95.52 E.02053
G1 X261.508 Y95.395 E.02053
G1 X261.39 Y95.344 E.00479
G1 X261.587 Y94.934 F21000
G1 F3000
G1 X261.514 Y94.912 E.00282
G1 X261.091 Y94.704 E.01756
G1 X260.711 Y94.425 E.01756
G1 X260.393 Y94.093 E.01713
G1 X260.123 Y93.692 E.01799
G1 X259.933 Y93.26 E.01756
G1 X259.821 Y92.802 E.01756
G1 X259.791 Y92.332 E.01756
G1 X259.842 Y91.863 E.01756
G1 X259.974 Y91.41 E.01756
G1 X260.183 Y90.987 E.01756
G1 X260.462 Y90.607 E.01756
G1 X260.803 Y90.281 E.01756
G1 X261.195 Y90.019 E.01756
G1 X261.626 Y89.829 E.01756
G1 X262.084 Y89.717 E.01756
G1 X262.543 Y89.687 E.01713
G1 X263.024 Y89.738 E.01799
G1 X263.476 Y89.87 E.01757
G1 X263.899 Y90.079 E.01756
G1 X264.279 Y90.358 E.01756
G1 X264.647 Y90.758 E.02022
G1 X264.867 Y91.091 E.01488
G1 X265.057 Y91.522 E.01756
G1 X265.167 Y91.969 E.01713
G1 X265.202 Y92.358 E.01453
G1 X265.161 Y92.861 E.0188
G1 X265.016 Y93.372 E.01981
G1 X264.808 Y93.795 E.01756
G1 X264.529 Y94.176 E.01756
G1 X264.196 Y94.494 E.01713
G1 X263.796 Y94.763 E.01799
G1 X263.364 Y94.953 E.01757
G1 X262.906 Y95.065 E.01756
G1 X262.435 Y95.096 E.01756
G1 X261.967 Y95.044 E.01756
G1 X261.625 Y94.945 E.01325
G1 X261.714 Y94.5 F21000
;TYPE:Outer wall
G1 F3000
G1 X261.707 Y94.498 E.00025
G1 X261.353 Y94.329 E.0146
G1 X261.034 Y94.101 E.0146
G1 X260.766 Y93.829 E.01424
G1 X260.537 Y93.499 E.01496
G1 X260.375 Y93.142 E.0146
G1 X260.277 Y92.762 E.0146
G1 X260.246 Y92.371 E.0146
G1 X260.284 Y91.981 E.0146
G1 X260.388 Y91.603 E.0146
G1 X260.557 Y91.249 E.0146
G1 X260.785 Y90.93 E.0146
G1 X261.065 Y90.656 E.0146
G1 X261.388 Y90.433 E.0146
G1 X261.745 Y90.271 E.0146
G1 X262.124 Y90.173 E.0146
G1 X262.505 Y90.143 E.01424
G1 X262.905 Y90.18 E.01496
G1 X263.283 Y90.285 E.01461
G1 X263.637 Y90.453 E.0146
G1 X263.956 Y90.681 E.0146
G1 X264.272 Y91.02 E.01726
G1 X264.453 Y91.284 E.01192
G1 X264.616 Y91.641 E.0146
G1 X264.711 Y92.011 E.01424
G1 X264.745 Y92.38 E.0138
G1 X264.707 Y92.801 E.01576
G1 X264.602 Y93.179 E.0146
G1 X264.433 Y93.533 E.0146
G1 X264.205 Y93.852 E.0146
G1 X263.933 Y94.12 E.01424
G1 X263.603 Y94.349 E.01496
G1 X263.246 Y94.512 E.01461
G1 X262.866 Y94.61 E.0146
G1 X262.475 Y94.641 E.0146
G1 X262.085 Y94.603 E.0146
G1 X261.752 Y94.511 E.01286
G1 E-.56 F1800
;WIPE_START
G1 F3000
G1 X261.707 Y94.498 E-.01123
G1 X261.353 Y94.329 E-.0941
G1 X261.034 Y94.101 E-.0941
G1 X260.916 Y93.981 E-.04058
;WIPE_END
G1 Z.6 F21000
G1 X210.644 Y112.579 Z.6
G1 Z.2
G1 E.8 F1800
;TYPE:Inner wall
G1 F3000
G1 X210.793 Y112.604 E.00562
G1 X211.17 Y112.741 E.01491
G1 X211.627 Y113.005 E.01968
G1 X211.931 Y113.26 E.01478
G1 X212.271 Y113.665 E.01968
G1 X212.469 Y114.009 E.01478
G1 X212.65 Y114.505 E.01968
G1 X212.719 Y114.896 E.01478
G1 X212.719 Y115.424 E.01968
G1 X212.65 Y115.816 E.01481
G1 X212.469 Y116.312 E.01966
G1 X212.272 Y116.655 E.01473
G1 X211.937 Y117.055 E.01944
G1 X211.635 Y117.309 E.01469
G1 X211.173 Y117.578 E.01992
G1 X210.797 Y117.715 E.01491
G1 X210.276 Y117.807 E.01968
G1 X209.788 Y117.791 E.01821
G1 X209.359 Y117.715 E.01621
G1 X208.986 Y117.58 E.01478
G1 X208.529 Y117.315 E.01968
G1 X208.225 Y117.06 E.01478
G1 X207.885 Y116.656 E.01968
G1 X207.687 Y116.312 E.01478
G1 X207.506 Y115.815 E.01968
G1 X207.437 Y115.424 E.01478
G1 X207.437 Y114.896 E.01968
G1 X207.506 Y114.505 E.01478
G1 X207.686 Y114.009 E.01968
G1 X207.885 Y113.665 E.01478
G1 X208.225 Y113.26 E.01968
G1 X208.505 Y113.019 E.01377
G1 X208.986 Y112.741 E.0207
G1 X209.358 Y112.605 E.01474
G1 X209.874 Y112.514 E.01952
G1 X210.266 Y112.513 E.01461
G1 X210.605 Y112.572 E.01281
G1 X210.567 Y113.029 F21000
G1 F3000
G1 X210.715 Y113.055 E.00562
G1 X210.941 Y113.137 E.00895
G1 X211.399 Y113.401 E.01968
G1 X211.581 Y113.554 E.00887
G1 X211.921 Y113.959 E.01968
G1 X212.04 Y114.165 E.00887
G1 X212.221 Y114.661 E.01968
G1 X212.262 Y114.896 E.00887
G1 X212.262 Y115.424 E.01968
G1 X212.22 Y115.66 E.00889
G1 X212.04 Y116.155 E.01966
G1 X211.921 Y116.361 E.00884
G1 X211.586 Y116.761 E.01944
G1 X211.312 Y116.968 E.01281
G1 X210.775 Y117.252 E.02262
G1 X210.197 Y117.357 E.02188
G1 X209.867 Y117.341 E.0123
G1 X209.439 Y117.265 E.01621
G1 X208.958 Y117.035 E.01984
G1 X208.615 Y116.811 E.01527
G1 X208.235 Y116.362 E.02191
G1 X208.116 Y116.155 E.00887
G1 X207.935 Y115.659 E.01968
G1 X207.894 Y115.424 E.00887
G1 X207.894 Y114.896 E.01968
G1 X207.935 Y114.662 E.00887
G1 X208.116 Y114.165 E.01968
G1 X208.235 Y113.959 E.00887
G1 X208.575 Y113.554 E.01968
G1 X208.743 Y113.409 E.00826
G1 X209.215 Y113.137 E.02029
G1 X209.438 Y113.055 E.00884
G1 X209.953 Y112.964 E.01949
G1 X210.188 Y112.964 E.00877
G1 X210.527 Y113.022 E.01281
G1 X210.488 Y113.483 F21000
;TYPE:Outer wall
G1 F3000
G1 X210.637 Y113.505 E.00564
G1 X211.17 Y113.797 E.02262
G1 X211.571 Y114.253 E.0226
G1 X211.791 Y114.818 E.0226
G1 X211.805 Y115.424 E.0226
G1 X211.61 Y115.999 E.0226
G1 X211.236 Y116.468 E.02235
G1 X210.713 Y116.788 E.02282
G1 X210.118 Y116.907 E.02262
G1 X209.518 Y116.815 E.0226
G1 X209.058 Y116.565 E.01949
G1 X208.925 Y116.473 E.00605
G1 X208.585 Y116.068 E.01968
G1 X208.365 Y115.503 E.0226
G1 X208.351 Y114.896 E.0226
G1 X208.546 Y114.321 E.0226
G1 X208.925 Y113.848 E.0226
G1 X208.981 Y113.8 E.00275
G1 X209.443 Y113.532 E.01989
G1 X210.032 Y113.414 E.02235
G1 X210.448 Y113.477 E.01569
G1 E-.56 F1800
;WIPE_START
G1 F3000
G1 X210.637 Y113.505 E-.04596
G1 X211.17 Y113.797 E-.14579
G1 X211.303 Y113.948 E-.04825
;WIPE_END
G1 Z.6 F21000
G1 X176.259 Y112.571 Z.6
G1 Z.2
G1 E.8 F1800
;TYPE:Inner wall
G1 F3000
G1 X176.45 Y112.604 E.00721
G1 X176.827 Y112.741 E.01492
G1 X177.284 Y113.005 E.01968
G1 X177.588 Y113.26 E.01478
G1 X177.928 Y113.665 E.01968
G1 X178.126 Y114.009 E.01478
G1 X178.31 Y114.513 E.01998
G1 X178.376 Y114.896 E.01449
G1 X178.376 Y115.424 E.01968
G1 X178.307 Y115.815 E.01478
G1 X178.126 Y116.312 E.01968
G1 X177.928 Y116.655 E.01478
G1 X177.588 Y117.06 E.01968
G1 X177.284 Y117.315 E.01478
G1 X176.827 Y117.58 E.01968
G1 X176.454 Y117.715 E.01478
G1 X175.933 Y117.807 E.01968
G1 X175.536 Y117.807 E.01478
G1 X175.016 Y117.715 E.01968
G1 X174.643 Y117.58 E.01478
G1 X174.185 Y117.315 E.01968
G1 X173.881 Y117.06 E.01478
G1 X173.542 Y116.655 E.01968
G1 X173.343 Y116.312 E.01478
G1 X173.163 Y115.815 E.01968
G1 X173.094 Y115.424 E.01478
G1 X173.094 Y114.896 E.01968
G1 X173.163 Y114.505 E.01478
G1 X173.343 Y114.009 E.01968
G1 X173.542 Y113.665 E.01478
G1 X173.881 Y113.26 E.01968
G1 X174.185 Y113.005 E.01478
G1 X174.643 Y112.741 E.01968
G1 X175.015 Y112.605 E.01474
G1 X175.531 Y112.514 E.01952
G1 X175.923 Y112.513 E.01461
G1 X176.22 Y112.565 E.01122
G1 X176.182 Y113.022 F21000
G1 F3000
G1 X176.372 Y113.055 E.00721
G1 X176.598 Y113.137 E.00895
G1 X177.056 Y113.401 E.01968
G1 X177.238 Y113.554 E.00887
G1 X177.578 Y113.959 E.01968
G1 X177.697 Y114.165 E.00887
G1 X177.879 Y114.666 E.01986
G1 X177.919 Y114.896 E.00869
G1 X177.919 Y115.424 E.01968
G1 X177.878 Y115.659 E.00887
G1 X177.697 Y116.155 E.01968
G1 X177.578 Y116.362 E.00887
G1 X177.238 Y116.766 E.01968
G1 X176.983 Y116.961 E.01195
G1 X176.598 Y117.184 E.01657
G1 X176.374 Y117.265 E.00887
G1 X175.854 Y117.357 E.01968
G1 X175.616 Y117.357 E.00887
G1 X175.095 Y117.265 E.01968
G1 X174.872 Y117.184 E.00887
G1 X174.414 Y116.92 E.01968
G1 X174.232 Y116.766 E.00887
G1 X173.892 Y116.362 E.01968
G1 X173.773 Y116.155 E.00887
G1 X173.592 Y115.659 E.01968
G1 X173.551 Y115.424 E.00887
G1 X173.551 Y114.896 E.01968
G1 X173.592 Y114.661 E.00887
G1 X173.773 Y114.165 E.01968
G1 X173.968 Y113.869 E.01321
G1 X174.301 Y113.482 E.01901
G1 X174.872 Y113.137 E.02485
G1 X175.095 Y113.055 E.00884
G1 X175.61 Y112.964 E.01949
G1 X175.845 Y112.964 E.00877
G1 X176.142 Y113.015 E.01122
G1 X176.102 Y113.476 F21000
;TYPE:Outer wall
G1 F3000
G1 X176.294 Y113.505 E.00722
