; HEADER_BLOCK_START
; generated by OrcaSlicer 1.8.0-beta1 on 2024-02-27 at 21:14:42
; total layer number: 197
; HEADER_BLOCK_END


;
;
; external perimeters extrusion width = 0.40mm
; perimeters extrusion width = 0.45mm
; infill extrusion width = 0.45mm
; solid infill extrusion width = 0.40mm
; top infill extrusion width = 0.40mm
; first layer extrusion width = 0.50mm

; EXECUTABLE_BLOCK_START
EXCLUDE_OBJECT_DEFINE NAME=casse_cable_starlink_v3.stl_id_0_copy_0 CENTER=150,150 POLYGON=[[104,123],[196,123],[196,174],[137.344,177],[107,177],[104,174],[104,123]]
M73 P0 R42
;TYPE:Custom
M190 S70
M109 S220
PRINT_START EXTRUDER=220 BED=70
G90
G21
M83 ; use relative distances for extrusion
; filament start gcode
M106 S0
;LAYER_CHANGE
;Z:0.2
;HEIGHT:0.2
;BEFORE_LAYER_CHANGE
;0.2
G92 E0

G1 E-.8 F1800
;AFTER_LAYER_CHANGE
;0.2
;_SET_FAN_SPEED_CHANGING_LAYER
SET_VELOCITY_LIMIT ACCEL=500 ACCEL_TO_DECEL=250
; printing object casse_cable_starlink v3.stl id:0 copy 0
EXCLUDE_OBJECT_START NAME=casse_cable_starlink_v3.stl_id_0_copy_0
G1 Z.4 F21000
G1 X136.538 Y173.158
G1 Z.4
G1 Z.2
G1 E.8 F1800
;TYPE:Inner wall
;WIDTH:0.499999
G1 F3000
G1 X136.5 Y173.185 E.00173
G1 X136.279 Y173.512 E.01472
G1 X136.18 Y173.979 E.01776
G1 X136.18 Y175.836 E.06918
G1 X108.164 Y175.836 E1.04347
G1 X108.164 Y173.979 E.06918
G1 X108.13 Y173.7 E.01047
G1 X108.058 Y173.498 E.00797
G1 X107.9 Y173.248 E.01101
G1 X107.647 Y173.022 E.01265
G1 X107.3 Y172.87 E.01409
G1 X107.021 Y172.836 E.01047
G1 X105.164 Y172.836 E.06918
G1 X105.164 Y124.164 E1.81283
G1 X194.836 Y124.164 E3.33992
G1 X194.836 Y148.5 E.90642
G1 X194.836 Y172.836 E.90642
G1 X137.213 Y172.841 E2.14621
G1 X136.822 Y172.951 E.01515
G1 X136.57 Y173.134 E.01158
G1 X136.828 Y173.518 F21000
G1 F3000
G1 X136.696 Y173.699 E.00832
G1 X136.637 Y173.979 E.01066
G1 X136.637 Y176.293 E.0862
G1 X107.707 Y176.293 E1.07752
G1 X107.707 Y173.979 E.0862
G1 X107.686 Y173.811 E.00628
G1 X107.549 Y173.54 E.01132
G1 X107.31 Y173.356 E.01123
G1 X107.021 Y173.293 E.011
G1 X104.707 Y173.293 E.0862
G1 X104.707 Y123.707 E1.84688
G1 X195.293 Y123.707 E3.37397
G1 X195.293 Y148.5 E.92344
G1 X195.293 Y173.293 E.92344
G1 X137.322 Y173.293 E2.15918
M73 P0 R41
G1 X137.13 Y173.32 E.00724
G1 X136.866 Y173.466 E.01122
G1 X136.852 Y173.486 E.00091
G1 X137.158 Y173.82 F21000
;TYPE:Outer wall
G1 F3000
G1 X137.094 Y173.979 E.00638
G1 X137.094 Y176.75 E.10323
G1 X107.25 Y176.75 E1.11156
G1 X107.25 Y173.979 E.10323
G1 X107.183 Y173.817 E.00651
G1 X107.021 Y173.75 E.00651
G1 X104.25 Y173.75 E.10323
G1 X104.25 Y123.25 E1.88093
G1 X195.75 Y123.25 E3.40802
G1 X195.75 Y148.5 E.94047
G1 X195.75 Y173.75 E.94047
G1 X137.322 Y173.75 E2.17621
G1 X137.195 Y173.804 E.00516
G1 E-.56 F1800
;WIPE_START
G1 F3000
G1 X137.094 Y173.979 E-.04836
G1 X137.094 Y174.777 E-.19164
;WIPE_END
G1 Z.6 F21000
G1 X193.773 Y124.301 Z.6
G1 Z.2
G1 E.8 F1800
;TYPE:Bottom surface
;WIDTH:0.500668
G1 F6300
G1 X194.493 Y125.021 E.03797
G1 X194.493 Y125.668 E.02415
G1 X193.332 Y124.507 E.06126
G1 X192.684 Y124.507 E.02415
G1 X194.493 Y126.316 E.09541
G1 X194.493 Y126.963 E.02415
G1 X192.037 Y124.507 E.12956
G1 X191.39 Y124.507 E.02415
G1 X194.493 Y127.61 E.16371
G1 X194.493 Y128.258 E.02415
G1 X190.742 Y124.507 E.19786
G1 X190.095 Y124.507 E.02415
G1 X194.493 Y128.905 E.23201
G1 X194.493 Y129.552 E.02415
G1 X189.448 Y124.507 E.26616
G1 X188.8 Y124.507 E.02415
G1 X194.493 Y130.2 E.3003
G1 X194.493 Y130.847 E.02415
G1 X188.153 Y124.507 E.33445
G1 X187.505 Y124.507 E.02415
G1 X194.493 Y131.495 E.3686
G1 X194.493 Y132.142 E.02415
G1 X186.858 Y124.507 E.40275
G1 X186.211 Y124.507 E.02415
G1 X194.493 Y132.789 E.4369
G1 X194.493 Y133.437 E.02415
G1 X185.563 Y124.507 E.47105
G1 X184.916 Y124.507 E.02415
G1 X194.493 Y134.084 E.5052
G1 X194.493 Y134.731 E.02415
G1 X184.269 Y124.507 E.53934
G1 X183.621 Y124.507 E.02415
M73 P1 R41
G1 X194.493 Y135.379 E.57349
G1 X194.493 Y136.026 E.02415
G1 X182.974 Y124.507 E.60764
G1 X182.327 Y124.507 E.02415
G1 X194.493 Y136.673 E.64179
G1 X194.493 Y137.321 E.02415
G1 X181.679 Y124.507 E.67594
G1 X181.032 Y124.507 E.02415
G1 X194.493 Y137.968 E.71009
G1 X194.493 Y138.615 E.02415
G1 X180.385 Y124.507 E.74424
G1 X179.737 Y124.507 E.02415
G1 X194.493 Y139.263 E.77838
G1 X194.493 Y139.91 E.02415
G1 X179.09 Y124.507 E.81253
G1 X178.443 Y124.507 E.02415
G1 X194.493 Y140.557 E.84668
G1 X194.493 Y141.205 E.02415
G1 X177.795 Y124.507 E.88083
G1 X177.148 Y124.507 E.02415
G1 X194.493 Y141.852 E.91498
G1 X194.493 Y142.5 E.02415
G1 X176.5 Y124.507 E.94913
G1 X175.853 Y124.507 E.02415
G1 X194.493 Y143.147 E.98328
G1 X194.493 Y143.794 E.02415
G1 X175.206 Y124.507 E1.01742
G1 X174.558 Y124.507 E.02415
G1 X194.493 Y144.442 E1.05157
G1 X194.493 Y145.089 E.02415
G1 X173.911 Y124.507 E1.08572
G1 X173.264 Y124.507 E.02415
G1 X194.493 Y145.736 E1.11987
G1 X194.493 Y146.384 E.02415
G1 X172.616 Y124.507 E1.15402
G1 X171.969 Y124.507 E.02415
G1 X194.493 Y147.031 E1.18817
G1 X194.493 Y147.678 E.02415
G1 X171.322 Y124.507 E1.22232
G1 X170.674 Y124.507 E.02415
G1 X194.493 Y148.326 E1.25647
G1 X194.493 Y148.973 E.02415
G1 X170.027 Y124.507 E1.29061
G1 X169.38 Y124.507 E.02415
G1 X194.493 Y149.62 E1.32476
G1 X194.493 Y150.268 E.02415
G1 X168.732 Y124.507 E1.35891
G1 X168.085 Y124.507 E.02415
G1 X194.493 Y150.915 E1.39306
G1 X194.493 Y151.562 E.02415
G1 X167.438 Y124.507 E1.42721
G1 X166.79 Y124.507 E.02415
G1 X194.493 Y152.21 E1.46136
G1 X194.493 Y152.857 E.02415
G1 X166.143 Y124.507 E1.49551
G1 X165.495 Y124.507 E.02415
G1 X194.493 Y153.505 E1.52965
G1 X194.493 Y154.152 E.02415
G1 X164.848 Y124.507 E1.5638
G1 X164.201 Y124.507 E.02415
G1 X194.493 Y154.799 E1.59795
G1 X194.493 Y155.447 E.02415
G1 X163.553 Y124.507 E1.6321
G1 X162.906 Y124.507 E.02415
G1 X194.493 Y156.094 E1.66625
G1 X194.493 Y156.741 E.02415
G1 X162.259 Y124.507 E1.7004
G1 X161.611 Y124.507 E.02415
G1 X194.493 Y157.389 E1.73455
G1 X194.493 Y158.036 E.02415
G1 X160.964 Y124.507 E1.76869
G1 X160.317 Y124.507 E.02415
G1 X194.493 Y158.683 E1.80284
G1 X194.493 Y159.331 E.02415
G1 X159.669 Y124.507 E1.83699
G1 X159.022 Y124.507 E.02415
G1 X194.493 Y159.978 E1.87114
G1 X194.493 Y160.625 E.02415
G1 X158.375 Y124.507 E1.90529
G1 X157.727 Y124.507 E.02415
G1 X194.493 Y161.273 E1.93944
G1 X194.493 Y161.92 E.02415
G1 X157.08 Y124.507 E1.97359
G1 X156.433 Y124.507 E.02415
G1 X194.493 Y162.567 E2.00773
G1 X194.493 Y163.215 E.02415
G1 X155.785 Y124.507 E2.04188
G1 X155.138 Y124.507 E.02415
G1 X194.493 Y163.862 E2.07603
G1 X194.493 Y164.51 E.02415
G1 X154.49 Y124.507 E2.11018
M73 P2 R41
G1 X153.843 Y124.507 E.02415
G1 X194.493 Y165.157 E2.14433
G1 X194.493 Y165.804 E.02415
G1 X153.196 Y124.507 E2.17848
G1 X152.548 Y124.507 E.02415
G1 X194.493 Y166.452 E2.21263
G1 X194.493 Y167.099 E.02415
G1 X151.901 Y124.507 E2.24677
G1 X151.254 Y124.507 E.02415
G1 X194.493 Y167.746 E2.28092
G1 X194.493 Y168.394 E.02415
G1 X150.606 Y124.507 E2.31507
G1 X149.959 Y124.507 E.02415
G1 X194.493 Y169.041 E2.34922
G1 X194.493 Y169.688 E.02415
G1 X149.312 Y124.507 E2.38337
G1 X148.664 Y124.507 E.02415
G1 X194.493 Y170.336 E2.41752
G1 X194.493 Y170.983 E.02415
G1 X148.017 Y124.507 E2.45167
G1 X147.37 Y124.507 E.02415
G1 X194.493 Y171.63 E2.48581
G1 X194.493 Y172.278 E.02415
G1 X146.722 Y124.507 E2.51996
G1 X146.075 Y124.507 E.02415
G1 X194.061 Y172.493 E2.53132
G1 X193.414 Y172.493 E.02415
G1 X145.428 Y124.507 E2.53132
G1 X144.78 Y124.507 E.02415
G1 X192.766 Y172.493 E2.53132
G1 X192.119 Y172.493 E.02415
G1 X144.133 Y124.507 E2.53132
G1 X143.485 Y124.507 E.02415
G1 X191.472 Y172.493 E2.53132
G1 X190.824 Y172.493 E.02415
G1 X142.838 Y124.507 E2.53132
G1 X142.191 Y124.507 E.02415
G1 X190.177 Y172.493 E2.53132
G1 X189.53 Y172.493 E.02415
G1 X141.543 Y124.507 E2.53132
G1 X140.896 Y124.507 E.02415
G1 X188.882 Y172.493 E2.53132
G1 X188.235 Y172.493 E.02415
G1 X140.249 Y124.507 E2.53132
G1 X139.601 Y124.507 E.02415
G1 X187.587 Y172.493 E2.53132
G1 X186.94 Y172.493 E.02415
G1 X138.954 Y124.507 E2.53132
G1 X138.307 Y124.507 E.02415
G1 X186.293 Y172.493 E2.53132
G1 X185.645 Y172.493 E.02415
G1 X137.659 Y124.507 E2.53132
M73 P2 R40
G1 X137.012 Y124.507 E.02415
G1 X184.998 Y172.493 E2.53132
G1 X184.351 Y172.493 E.02415
G1 X136.365 Y124.507 E2.53132
G1 X135.717 Y124.507 E.02415
G1 X183.703 Y172.493 E2.53132
G1 X183.056 Y172.493 E.02415
G1 X135.07 Y124.507 E2.53133
M73 P3 R40
G1 X134.422 Y124.507 E.02415
G1 X182.409 Y172.493 E2.53133
G1 X181.761 Y172.493 E.02415
G1 X133.775 Y124.507 E2.53133
G1 X133.128 Y124.507 E.02415
G1 X181.114 Y172.493 E2.53133
G1 X180.467 Y172.493 E.02415
G1 X132.48 Y124.507 E2.53133
G1 X131.833 Y124.507 E.02415
G1 X179.819 Y172.493 E2.53133
G1 X179.172 Y172.493 E.02415
G1 X131.186 Y124.507 E2.53133
G1 X130.538 Y124.507 E.02415
G1 X178.525 Y172.493 E2.53133
G1 X177.877 Y172.493 E.02415
G1 X129.891 Y124.507 E2.53133
G1 X129.244 Y124.507 E.02415
G1 X177.23 Y172.493 E2.53133
G1 X176.583 Y172.493 E.02415
G1 X128.596 Y124.507 E2.53133
G1 X127.949 Y124.507 E.02415
G1 X175.935 Y172.493 E2.53133
G1 X175.288 Y172.493 E.02415
G1 X127.302 Y124.507 E2.53133
G1 X126.654 Y124.507 E.02415
G1 X174.641 Y172.493 E2.53133
G1 X173.993 Y172.493 E.02415
G1 X126.007 Y124.507 E2.53133
G1 X125.36 Y124.507 E.02415
G1 X173.346 Y172.493 E2.53133
G1 X172.699 Y172.493 E.02415
G1 X124.712 Y124.507 E2.53133
G1 X124.065 Y124.507 E.02415
G1 X172.051 Y172.493 E2.53133
G1 X171.404 Y172.493 E.02415
G1 X123.417 Y124.507 E2.53133
G1 X122.77 Y124.507 E.02415
G1 X170.756 Y172.493 E2.53133
G1 X170.109 Y172.493 E.02415
G1 X122.123 Y124.507 E2.53133
G1 X121.475 Y124.507 E.02415
G1 X169.462 Y172.493 E2.53133
G1 X168.814 Y172.493 E.02415
G1 X120.828 Y124.507 E2.53133
G1 X120.181 Y124.507 E.02415
G1 X168.167 Y172.493 E2.53133
G1 X167.52 Y172.493 E.02415
G1 X119.533 Y124.507 E2.53134
G1 X118.886 Y124.507 E.02415
G1 X166.872 Y172.493 E2.53134
G1 X166.225 Y172.493 E.02415
G1 X118.239 Y124.507 E2.53134
G1 X117.591 Y124.507 E.02415
G1 X165.578 Y172.493 E2.53134
G1 X164.93 Y172.493 E.02415
G1 X116.944 Y124.507 E2.53134
G1 X116.297 Y124.507 E.02415
G1 X164.283 Y172.493 E2.53134
M73 P4 R40
G1 X163.636 Y172.493 E.02415
G1 X115.649 Y124.507 E2.53134
G1 X115.002 Y124.507 E.02415
G1 X162.988 Y172.493 E2.53134
G1 X162.341 Y172.493 E.02415
G1 X114.355 Y124.507 E2.53134
G1 X113.707 Y124.507 E.02415
G1 X161.694 Y172.493 E2.53134
G1 X161.046 Y172.493 E.02415
G1 X113.06 Y124.507 E2.53134
G1 X112.412 Y124.507 E.02415
G1 X160.399 Y172.493 E2.53134
G1 X159.752 Y172.493 E.02415
G1 X111.765 Y124.507 E2.53134
G1 X111.118 Y124.507 E.02415
G1 X159.104 Y172.493 E2.53134
G1 X158.457 Y172.493 E.02415
G1 X110.47 Y124.507 E2.53134
G1 X109.823 Y124.507 E.02415
G1 X157.81 Y172.493 E2.53134
G1 X157.162 Y172.493 E.02415
G1 X109.176 Y124.507 E2.53134
G1 X108.528 Y124.507 E.02415
G1 X156.515 Y172.493 E2.53134
G1 X155.868 Y172.494 E.02415
G1 X107.881 Y124.507 E2.53134
G1 X107.234 Y124.507 E.02415
G1 X155.22 Y172.494 E2.53134
G1 X154.573 Y172.494 E.02415
G1 X106.586 Y124.507 E2.53134
G1 X105.939 Y124.507 E.02415
G1 X153.926 Y172.494 E2.53134
G1 X153.278 Y172.494 E.02415
G1 X105.507 Y124.722 E2.51998
G1 X105.507 Y125.37 E.02415
G1 X152.631 Y172.494 E2.48584
G1 X151.983 Y172.494 E.02415
G1 X105.507 Y126.017 E2.45169
G1 X105.507 Y126.664 E.02415
G1 X151.336 Y172.494 E2.41754
G1 X150.689 Y172.494 E.02415
G1 X105.507 Y127.312 E2.38339
G1 X105.507 Y127.959 E.02415
G1 X150.041 Y172.494 E2.34924
G1 X149.394 Y172.494 E.02415
G1 X105.507 Y128.606 E2.31509
G1 X105.507 Y129.254 E.02415
G1 X148.747 Y172.494 E2.28095
G1 X148.099 Y172.494 E.02415
G1 X105.507 Y129.901 E2.2468
G1 X105.507 Y130.549 E.02415
G1 X147.452 Y172.494 E2.21265
G1 X146.805 Y172.494 E.02415
G1 X105.507 Y131.196 E2.1785
G1 X105.507 Y131.843 E.02415
G1 X146.157 Y172.494 E2.14435
G1 X145.51 Y172.494 E.02415
G1 X105.507 Y132.491 E2.11021
G1 X105.507 Y133.138 E.02415
G1 X144.863 Y172.494 E2.07606
M73 P5 R40
G1 X144.215 Y172.494 E.02415
G1 X105.507 Y133.785 E2.04191
G1 X105.507 Y134.433 E.02415
G1 X143.568 Y172.494 E2.00776
G1 X142.921 Y172.494 E.02415
G1 X105.507 Y135.08 E1.97361
G1 X105.507 Y135.727 E.02415
G1 X142.273 Y172.494 E1.93946
G1 X141.626 Y172.494 E.02415
G1 X105.507 Y136.375 E1.90532
G1 X105.507 Y137.022 E.02415
G1 X140.979 Y172.494 E1.87117
G1 X140.331 Y172.494 E.02415
G1 X105.507 Y137.669 E1.83702
G1 X105.507 Y138.317 E.02415
G1 X139.684 Y172.494 E1.80287
G1 X139.037 Y172.494 E.02415
G1 X105.507 Y138.964 E1.76872
M73 P5 R39
G1 X105.507 Y139.611 E.02415
G1 X138.389 Y172.494 E1.73457
G1 X137.742 Y172.494 E.02415
G1 X105.507 Y140.259 E1.70043
G1 X105.507 Y140.906 E.02415
G1 X137.111 Y172.51 E1.66716
G1 X136.86 Y172.567 E.00961
G1 X136.624 Y172.671 E.00961
G1 X105.507 Y141.554 E1.64146
G1 X105.507 Y142.201 E.02415
G1 X136.257 Y172.95 E1.62207
G1 X136.162 Y173.05 E.00514
G1 X135.99 Y173.331 E.01228
G1 X105.507 Y142.848 E1.60802
G1 X105.507 Y143.496 E.02415
G1 X135.852 Y173.841 E1.60075
G1 X135.837 Y173.972 E.00491
G1 X135.837 Y174.473 E.01869
G1 X105.507 Y144.143 E1.59993
G1 X105.507 Y144.79 E.02415
G1 X135.837 Y175.12 E1.59993
G1 X135.837 Y175.493 E.01391
G1 X135.562 Y175.493 E.01024
G1 X105.507 Y145.438 E1.58545
G1 X105.507 Y146.085 E.02415
G1 X134.915 Y175.493 E1.55131
G1 X134.268 Y175.493 E.02415
G1 X105.507 Y146.732 E1.51716
G1 X105.507 Y147.38 E.02415
G1 X133.62 Y175.493 E1.48301
G1 X132.973 Y175.493 E.02415
G1 X105.507 Y148.027 E1.44886
G1 X105.507 Y148.674 E.02415
G1 X132.326 Y175.493 E1.41471
G1 X131.678 Y175.493 E.02415
G1 X105.507 Y149.322 E1.38056
G1 X105.507 Y149.969 E.02415
G1 X131.031 Y175.493 E1.34641
G1 X130.384 Y175.493 E.02415
G1 X105.507 Y150.616 E1.31227
G1 X105.507 Y151.264 E.02415
G1 X129.736 Y175.493 E1.27812
G1 X129.089 Y175.493 E.02415
G1 X105.507 Y151.911 E1.24397
G1 X105.507 Y152.559 E.02415
G1 X128.441 Y175.493 E1.20982
G1 X127.794 Y175.493 E.02415
G1 X105.507 Y153.206 E1.17567
G1 X105.507 Y153.853 E.02415
G1 X127.147 Y175.493 E1.14152
G1 X126.499 Y175.493 E.02415
G1 X105.507 Y154.501 E1.10737
G1 X105.507 Y155.148 E.02415
G1 X125.852 Y175.493 E1.07323
G1 X125.205 Y175.493 E.02415
G1 X105.507 Y155.795 E1.03908
G1 X105.507 Y156.443 E.02415
G1 X124.557 Y175.493 E1.00493
G1 X123.91 Y175.493 E.02415
G1 X105.507 Y157.09 E.97078
G1 X105.507 Y157.737 E.02415
G1 X123.263 Y175.493 E.93663
G1 X122.615 Y175.493 E.02415
G1 X105.507 Y158.385 E.90248
G1 X105.507 Y159.032 E.02415
G1 X121.968 Y175.493 E.86833
G1 X121.321 Y175.493 E.02415
G1 X105.507 Y159.679 E.83419
G1 X105.507 Y160.327 E.02415
G1 X120.673 Y175.493 E.80004
G1 X120.026 Y175.493 E.02415
G1 X105.507 Y160.974 E.76589
M73 P6 R39
G1 X105.507 Y161.621 E.02415
G1 X119.379 Y175.493 E.73174
G1 X118.731 Y175.493 E.02415
G1 X105.507 Y162.269 E.69759
G1 X105.507 Y162.916 E.02415
G1 X118.084 Y175.493 E.66344
G1 X117.436 Y175.493 E.02415
G1 X105.507 Y163.564 E.62929
G1 X105.507 Y164.211 E.02415
G1 X116.789 Y175.493 E.59515
G1 X116.142 Y175.493 E.02415
G1 X105.507 Y164.858 E.561
G1 X105.507 Y165.506 E.02415
G1 X115.494 Y175.493 E.52685
G1 X114.847 Y175.493 E.02415
G1 X105.507 Y166.153 E.4927
G1 X105.507 Y166.8 E.02415
G1 X114.2 Y175.493 E.45855
G1 X113.552 Y175.493 E.02415
G1 X105.507 Y167.448 E.4244
G1 X105.507 Y168.095 E.02415
G1 X112.905 Y175.493 E.39025
G1 X112.258 Y175.493 E.02415
G1 X105.507 Y168.742 E.3561
G1 X105.507 Y169.39 E.02415
G1 X111.61 Y175.493 E.32196
G1 X110.963 Y175.493 E.02415
G1 X105.507 Y170.037 E.28781
G1 X105.507 Y170.684 E.02415
G1 X107.356 Y172.534 E.09755
G1 X107.645 Y172.63 E.01136
G1 X107.836 Y172.736 E.00814
G1 X108.072 Y172.928 E.01135
G1 X108.264 Y173.164 E.01135
G1 X108.37 Y173.355 E.00814
G1 X108.466 Y173.644 E.01136
G1 X110.316 Y175.493 E.09755
G1 X109.668 Y175.493 E.02415
G1 X108.507 Y174.332 E.06126
G1 X108.507 Y174.979 E.02415
G1 X109.227 Y175.699 E.03796
G1 E-.56 F1800
;WIPE_START
G1 F6300
G1 X108.519 Y174.992 E-.24
;WIPE_END
G1 Z.6 F21000
G1 X106.874 Y172.699 Z.6
G1 Z.2
G1 E.8 F1800
G1 F6300
G1 X105.507 Y171.332 E.07211
G1 X105.507 Y171.979 E.02415
G1 X106.227 Y172.699 E.03796
; stop printing object casse_cable_starlink v3.stl id:0 copy 0
M106 S255
;LAYER_CHANGE
;Z:0.4
;HEIGHT:0.2
;BEFORE_LAYER_CHANGE
;0.4
G92 E0

G1 E-.56 F1800
;WIPE_START
G1 F6300
