; HEADER_BLOCK_START
; generated by OrcaSlicer 1.8.0-beta1 on 2024-02-27 at 19:12:55
; total layer number: 159
; HEADER_BLOCK_END


;
;
; external perimeters extrusion width = 0.40mm
; perimeters extrusion width = 0.45mm
; infill extrusion width = 0.45mm
; solid infill extrusion width = 0.40mm
; top infill extrusion width = 0.45mm
; first layer extrusion width = 0.50mm

; EXECUTABLE_BLOCK_START
EXCLUDE_OBJECT_DEFINE NAME=casse_cable_starlink_v2.stl_id_0_copy_0 CENTER=150,150 POLYGON=[[104,124.5],[196,124.5],[196,175.5],[104,175.5],[104,124.5]]
M73 P0 R61
;TYPE:Custom
M190 S70
M109 S220
PRINT_START EXTRUDER=220 BED=70
G90
G21
M83 ; use relative distances for extrusion
; filament start gcode
M106 S0
;LAYER_CHANGE
;Z:0.2
;HEIGHT:0.2
;BEFORE_LAYER_CHANGE
;0.2
G92 E0

G1 E-.8 F1800
;AFTER_LAYER_CHANGE
;0.2
;_SET_FAN_SPEED_CHANGING_LAYER
SET_VELOCITY_LIMIT ACCEL=500 ACCEL_TO_DECEL=250
; printing object casse_cable_starlink v2.stl id:0 copy 0
EXCLUDE_OBJECT_START NAME=casse_cable_starlink_v2.stl_id_0_copy_0
G1 Z.4 F21000
G1 X194.836 Y125.664
G1 Z.4
G1 Z.2
G1 E.8 F1800
;TYPE:Inner wall
;WIDTH:0.499999
G1 F3000
G1 X194.836 Y150 E.90642
G1 X194.836 Y174.336 E.90642
G1 X105.164 Y174.336 E3.33992
G1 X105.164 Y125.664 E1.81283
G1 X194.796 Y125.664 E3.33844
G1 X195.293 Y125.207 F21000
G1 F3000
G1 X195.293 Y150 E.92344
G1 X195.293 Y174.793 E.92344
G1 X104.707 Y174.793 E3.37397
G1 X104.707 Y125.207 E1.84688
G1 X195.253 Y125.207 E3.37248
G1 X195.75 Y124.75 F21000
;TYPE:Outer wall
G1 F3000
G1 X195.75 Y150 E.94047
G1 X195.75 Y175.25 E.94047
G1 X104.25 Y175.25 E3.40802
G1 X104.25 Y124.75 E1.88093
G1 X195.71 Y124.75 E3.40653
G1 E-.56 F1800
;WIPE_START
G1 F3000
G1 X195.712 Y125.75 E-.24
;WIPE_END
G1 Z.6 F21000
G1 X193.773 Y125.801 Z.6
G1 Z.2
G1 E.8 F1800
;TYPE:Bottom surface
;WIDTH:0.500668
G1 F6300
G1 X194.493 Y126.521 E.03797
G1 X194.493 Y127.168 E.02415
G1 X193.332 Y126.007 E.06126
G1 X192.684 Y126.007 E.02415
G1 X194.493 Y127.816 E.09541
G1 X194.493 Y128.463 E.02415
G1 X192.037 Y126.007 E.12956
G1 X191.39 Y126.007 E.02415
G1 X194.493 Y129.11 E.16371
G1 X194.493 Y129.758 E.02415
G1 X190.742 Y126.007 E.19786
G1 X190.095 Y126.007 E.02415
G1 X194.493 Y130.405 E.23201
G1 X194.493 Y131.052 E.02415
G1 X189.448 Y126.007 E.26616
G1 X188.8 Y126.007 E.02415
G1 X194.493 Y131.7 E.3003
G1 X194.493 Y132.347 E.02415
G1 X188.153 Y126.007 E.33445
G1 X187.505 Y126.007 E.02415
G1 X194.493 Y132.995 E.3686
G1 X194.493 Y133.642 E.02415
G1 X186.858 Y126.007 E.40275
G1 X186.211 Y126.007 E.02415
G1 X194.493 Y134.289 E.4369
G1 X194.493 Y134.937 E.02415
G1 X185.563 Y126.007 E.47105
G1 X184.916 Y126.007 E.02415
G1 X194.493 Y135.584 E.5052
G1 X194.493 Y136.231 E.02415
G1 X184.269 Y126.007 E.53934
G1 X183.621 Y126.007 E.02415
G1 X194.493 Y136.879 E.57349
G1 X194.493 Y137.526 E.02415
G1 X182.974 Y126.007 E.60764
G1 X182.327 Y126.007 E.02415
G1 X194.493 Y138.173 E.64179
G1 X194.493 Y138.821 E.02415
G1 X181.679 Y126.007 E.67594
G1 X181.032 Y126.007 E.02415
G1 X194.493 Y139.468 E.71009
G1 X194.493 Y140.115 E.02415
G1 X180.385 Y126.007 E.74424
G1 X179.737 Y126.007 E.02415
G1 X194.493 Y140.763 E.77838
G1 X194.493 Y141.41 E.02415
G1 X179.09 Y126.007 E.81253
G1 X178.443 Y126.007 E.02415
G1 X194.493 Y142.057 E.84668
G1 X194.493 Y142.705 E.02415
G1 X177.795 Y126.007 E.88083
G1 X177.148 Y126.007 E.02415
G1 X194.493 Y143.352 E.91498
G1 X194.493 Y144 E.02415
G1 X176.5 Y126.007 E.94913
G1 X175.853 Y126.007 E.02415
G1 X194.493 Y144.647 E.98328
G1 X194.493 Y145.294 E.02415
G1 X175.206 Y126.007 E1.01742
G1 X174.558 Y126.007 E.02415
G1 X194.493 Y145.942 E1.05157
G1 X194.493 Y146.589 E.02415
G1 X173.911 Y126.007 E1.08572
G1 X173.264 Y126.007 E.02415
G1 X194.493 Y147.236 E1.11987
G1 X194.493 Y147.884 E.02415
G1 X172.616 Y126.007 E1.15402
G1 X171.969 Y126.007 E.02415
G1 X194.493 Y148.531 E1.18817
G1 X194.493 Y149.178 E.02415
G1 X171.322 Y126.007 E1.22232
G1 X170.674 Y126.007 E.02415
G1 X194.493 Y149.826 E1.25647
G1 X194.493 Y150.473 E.02415
G1 X170.027 Y126.007 E1.29061
G1 X169.38 Y126.007 E.02415
G1 X194.493 Y151.12 E1.32476
G1 X194.493 Y151.768 E.02415
G1 X168.732 Y126.007 E1.35891
G1 X168.085 Y126.007 E.02415
G1 X194.493 Y152.415 E1.39306
G1 X194.493 Y153.062 E.02415
G1 X167.438 Y126.007 E1.42721
G1 X166.79 Y126.007 E.02415
G1 X194.493 Y153.71 E1.46136
G1 X194.493 Y154.357 E.02415
G1 X166.143 Y126.007 E1.49551
M73 P1 R61
G1 X165.495 Y126.007 E.02415
G1 X194.493 Y155.005 E1.52965
G1 X194.493 Y155.652 E.02415
G1 X164.848 Y126.007 E1.5638
G1 X164.201 Y126.007 E.02415
G1 X194.493 Y156.299 E1.59795
G1 X194.493 Y156.947 E.02415
G1 X163.553 Y126.007 E1.6321
G1 X162.906 Y126.007 E.02415
G1 X194.493 Y157.594 E1.66625
G1 X194.493 Y158.241 E.02415
G1 X162.259 Y126.007 E1.7004
G1 X161.611 Y126.007 E.02415
G1 X194.493 Y158.889 E1.73455
G1 X194.493 Y159.536 E.02415
G1 X160.964 Y126.007 E1.76869
G1 X160.317 Y126.007 E.02415
G1 X194.493 Y160.183 E1.80284
G1 X194.493 Y160.831 E.02415
G1 X159.669 Y126.007 E1.83699
G1 X159.022 Y126.007 E.02415
G1 X194.493 Y161.478 E1.87114
G1 X194.493 Y162.125 E.02415
G1 X158.375 Y126.007 E1.90529
G1 X157.727 Y126.007 E.02415
G1 X194.493 Y162.773 E1.93944
G1 X194.493 Y163.42 E.02415
G1 X157.08 Y126.007 E1.97359
M73 P1 R60
G1 X156.433 Y126.007 E.02415
G1 X194.493 Y164.067 E2.00773
G1 X194.493 Y164.715 E.02415
G1 X155.785 Y126.007 E2.04188
G1 X155.138 Y126.007 E.02415
G1 X194.493 Y165.362 E2.07603
G1 X194.493 Y166.01 E.02415
G1 X154.49 Y126.007 E2.11018
G1 X153.843 Y126.007 E.02415
G1 X194.493 Y166.657 E2.14433
G1 X194.493 Y167.304 E.02415
G1 X153.196 Y126.007 E2.17848
G1 X152.548 Y126.007 E.02415
G1 X194.493 Y167.952 E2.21263
G1 X194.493 Y168.599 E.02415
G1 X151.901 Y126.007 E2.24677
G1 X151.254 Y126.007 E.02415
G1 X194.493 Y169.246 E2.28092
G1 X194.493 Y169.894 E.02415
G1 X150.606 Y126.007 E2.31507
G1 X149.959 Y126.007 E.02415
G1 X194.493 Y170.541 E2.34922
G1 X194.493 Y171.188 E.02415
G1 X149.312 Y126.007 E2.38337
G1 X148.664 Y126.007 E.02415
G1 X194.493 Y171.836 E2.41752
G1 X194.493 Y172.483 E.02415
G1 X148.017 Y126.007 E2.45167
G1 X147.37 Y126.007 E.02415
G1 X194.493 Y173.13 E2.48581
G1 X194.493 Y173.778 E.02415
G1 X146.722 Y126.007 E2.51996
G1 X146.075 Y126.007 E.02415
G1 X194.061 Y173.993 E2.53132
G1 X193.414 Y173.993 E.02415
G1 X145.428 Y126.007 E2.53132
G1 X144.78 Y126.007 E.02415
G1 X192.766 Y173.993 E2.53132
G1 X192.119 Y173.993 E.02415
G1 X144.133 Y126.007 E2.53132
G1 X143.485 Y126.007 E.02415
G1 X191.472 Y173.993 E2.53132
G1 X190.824 Y173.993 E.02415
G1 X142.838 Y126.007 E2.53132
G1 X142.191 Y126.007 E.02415
G1 X190.177 Y173.993 E2.53132
G1 X189.529 Y173.993 E.02415
G1 X141.543 Y126.007 E2.53132
G1 X140.896 Y126.007 E.02415
G1 X188.882 Y173.993 E2.53132
G1 X188.235 Y173.993 E.02415
G1 X140.249 Y126.007 E2.53132
G1 X139.601 Y126.007 E.02415
G1 X187.587 Y173.993 E2.53132
G1 X186.94 Y173.993 E.02415
G1 X138.954 Y126.007 E2.53132
G1 X138.307 Y126.007 E.02415
G1 X186.293 Y173.993 E2.53132
G1 X185.645 Y173.993 E.02415
G1 X137.659 Y126.007 E2.53132
G1 X137.012 Y126.007 E.02415
G1 X184.998 Y173.993 E2.53132
G1 X184.351 Y173.993 E.02415
G1 X136.365 Y126.007 E2.53132
G1 X135.717 Y126.007 E.02415
G1 X183.703 Y173.993 E2.53132
G1 X183.056 Y173.993 E.02415
G1 X135.07 Y126.007 E2.53132
M73 P2 R60
G1 X134.422 Y126.007 E.02415
G1 X182.409 Y173.993 E2.53132
G1 X181.761 Y173.993 E.02415
G1 X133.775 Y126.007 E2.53132
G1 X133.128 Y126.007 E.02415
G1 X181.114 Y173.993 E2.53132
G1 X180.467 Y173.993 E.02415
G1 X132.48 Y126.007 E2.53132
G1 X131.833 Y126.007 E.02415
G1 X179.819 Y173.993 E2.53132
G1 X179.172 Y173.993 E.02415
G1 X131.186 Y126.007 E2.53132
G1 X130.538 Y126.007 E.02415
G1 X178.524 Y173.993 E2.53132
G1 X177.877 Y173.993 E.02415
G1 X129.891 Y126.007 E2.53132
G1 X129.244 Y126.007 E.02415
G1 X177.23 Y173.993 E2.53132
G1 X176.582 Y173.993 E.02415
G1 X128.596 Y126.007 E2.53132
G1 X127.949 Y126.007 E.02415
G1 X175.935 Y173.993 E2.53132
G1 X175.288 Y173.993 E.02415
G1 X127.302 Y126.007 E2.53132
G1 X126.654 Y126.007 E.02415
G1 X174.64 Y173.993 E2.53132
G1 X173.993 Y173.993 E.02415
G1 X126.007 Y126.007 E2.53132
G1 X125.36 Y126.007 E.02415
G1 X173.346 Y173.993 E2.53132
G1 X172.698 Y173.993 E.02415
G1 X124.712 Y126.007 E2.53132
G1 X124.065 Y126.007 E.02415
G1 X172.051 Y173.993 E2.53132
G1 X171.404 Y173.993 E.02415
G1 X123.417 Y126.007 E2.53132
G1 X122.77 Y126.007 E.02415
G1 X170.756 Y173.993 E2.53132
G1 X170.109 Y173.993 E.02415
G1 X122.123 Y126.007 E2.53132
G1 X121.475 Y126.007 E.02415
G1 X169.461 Y173.993 E2.53132
G1 X168.814 Y173.993 E.02415
G1 X120.828 Y126.007 E2.53132
G1 X120.181 Y126.007 E.02415
G1 X168.167 Y173.993 E2.53132
G1 X167.519 Y173.993 E.02415
G1 X119.533 Y126.007 E2.53132
G1 X118.886 Y126.007 E.02415
G1 X166.872 Y173.993 E2.53132
G1 X166.225 Y173.993 E.02415
G1 X118.239 Y126.007 E2.53132
G1 X117.591 Y126.007 E.02415
G1 X165.577 Y173.993 E2.53132
G1 X164.93 Y173.993 E.02415
G1 X116.944 Y126.007 E2.53132
G1 X116.297 Y126.007 E.02415
G1 X164.283 Y173.993 E2.53132
G1 X163.635 Y173.993 E.02415
G1 X115.649 Y126.007 E2.53132
G1 X115.002 Y126.007 E.02415
G1 X162.988 Y173.993 E2.53132
G1 X162.341 Y173.993 E.02415
G1 X114.355 Y126.007 E2.53132
G1 X113.707 Y126.007 E.02415
G1 X161.693 Y173.993 E2.53132
G1 X161.046 Y173.993 E.02415
G1 X113.06 Y126.007 E2.53132
G1 X112.412 Y126.007 E.02415
G1 X160.399 Y173.993 E2.53132
G1 X159.751 Y173.993 E.02415
G1 X111.765 Y126.007 E2.53132
M73 P2 R59
G1 X111.118 Y126.007 E.02415
G1 X159.104 Y173.993 E2.53132
G1 X158.456 Y173.993 E.02415
G1 X110.47 Y126.007 E2.53132
G1 X109.823 Y126.007 E.02415
G1 X157.809 Y173.993 E2.53132
G1 X157.162 Y173.993 E.02415
G1 X109.176 Y126.007 E2.53132
G1 X108.528 Y126.007 E.02415
G1 X156.514 Y173.993 E2.53132
G1 X155.867 Y173.993 E.02415
G1 X107.881 Y126.007 E2.53132
M73 P3 R59
G1 X107.234 Y126.007 E.02415
G1 X155.22 Y173.993 E2.53132
G1 X154.572 Y173.993 E.02415
G1 X106.586 Y126.007 E2.53132
G1 X105.939 Y126.007 E.02415
G1 X153.925 Y173.993 E2.53132
G1 X153.278 Y173.993 E.02415
G1 X105.507 Y126.222 E2.51996
G1 X105.507 Y126.87 E.02415
G1 X152.63 Y173.993 E2.48581
G1 X151.983 Y173.993 E.02415
G1 X105.507 Y127.517 E2.45166
G1 X105.507 Y128.164 E.02415
G1 X151.336 Y173.993 E2.41751
G1 X150.688 Y173.993 E.02415
G1 X105.507 Y128.812 E2.38336
G1 X105.507 Y129.459 E.02415
G1 X150.041 Y173.993 E2.34921
G1 X149.394 Y173.993 E.02415
G1 X105.507 Y130.106 E2.31507
G1 X105.507 Y130.754 E.02415
G1 X148.746 Y173.993 E2.28092
G1 X148.099 Y173.993 E.02415
G1 X105.507 Y131.401 E2.24677
G1 X105.507 Y132.049 E.02415
G1 X147.451 Y173.993 E2.21262
G1 X146.804 Y173.993 E.02415
G1 X105.507 Y132.696 E2.17847
G1 X105.507 Y133.343 E.02415
G1 X146.157 Y173.993 E2.14432
G1 X145.509 Y173.993 E.02415
G1 X105.507 Y133.991 E2.11017
G1 X105.507 Y134.638 E.02415
G1 X144.862 Y173.993 E2.07603
G1 X144.215 Y173.993 E.02415
G1 X105.507 Y135.285 E2.04188
G1 X105.507 Y135.933 E.02415
G1 X143.567 Y173.993 E2.00773
G1 X142.92 Y173.993 E.02415
G1 X105.507 Y136.58 E1.97358
G1 X105.507 Y137.227 E.02415
G1 X142.273 Y173.993 E1.93943
G1 X141.625 Y173.993 E.02415
G1 X105.507 Y137.875 E1.90528
G1 X105.507 Y138.522 E.02415
G1 X140.978 Y173.993 E1.87113
G1 X140.331 Y173.993 E.02415
G1 X105.507 Y139.169 E1.83698
G1 X105.507 Y139.817 E.02415
G1 X139.683 Y173.993 E1.80284
G1 X139.036 Y173.993 E.02415
G1 X105.507 Y140.464 E1.76869
G1 X105.507 Y141.111 E.02415
G1 X138.389 Y173.993 E1.73454
G1 X137.741 Y173.993 E.02415
G1 X105.507 Y141.759 E1.70039
G1 X105.507 Y142.406 E.02415
G1 X137.094 Y173.993 E1.66624
G1 X136.446 Y173.993 E.02415
G1 X105.507 Y143.054 E1.63209
G1 X105.507 Y143.701 E.02415
G1 X135.799 Y173.993 E1.59794
G1 X135.152 Y173.993 E.02415
G1 X105.507 Y144.348 E1.5638
G1 X105.507 Y144.996 E.02415
G1 X134.504 Y173.993 E1.52965
G1 X133.857 Y173.993 E.02415
G1 X105.507 Y145.643 E1.4955
G1 X105.507 Y146.29 E.02415
G1 X133.21 Y173.993 E1.46135
G1 X132.562 Y173.993 E.02415
G1 X105.507 Y146.938 E1.4272
G1 X105.507 Y147.585 E.02415
G1 X131.915 Y173.993 E1.39305
G1 X131.268 Y173.993 E.02415
G1 X105.507 Y148.232 E1.3589
G1 X105.507 Y148.88 E.02415
G1 X130.62 Y173.993 E1.32476
G1 X129.973 Y173.993 E.02415
G1 X105.507 Y149.527 E1.29061
G1 X105.507 Y150.174 E.02415
G1 X129.326 Y173.993 E1.25646
G1 X128.678 Y173.993 E.02415
G1 X105.507 Y150.822 E1.22231
G1 X105.507 Y151.469 E.02415
G1 X128.031 Y173.993 E1.18816
G1 X127.384 Y173.993 E.02415
G1 X105.507 Y152.116 E1.15401
G1 X105.507 Y152.764 E.02415
G1 X126.736 Y173.993 E1.11986
G1 X126.089 Y173.993 E.02415
G1 X105.507 Y153.411 E1.08572
G1 X105.507 Y154.059 E.02415
G1 X125.441 Y173.993 E1.05157
G1 X124.794 Y173.993 E.02415
G1 X105.507 Y154.706 E1.01742
G1 X105.507 Y155.353 E.02415
G1 X124.147 Y173.993 E.98327
G1 X123.499 Y173.993 E.02415
G1 X105.507 Y156.001 E.94912
G1 X105.507 Y156.648 E.02415
G1 X122.852 Y173.993 E.91497
G1 X122.205 Y173.993 E.02415
G1 X105.507 Y157.295 E.88082
G1 X105.507 Y157.943 E.02415
G1 X121.557 Y173.993 E.84668
G1 X120.91 Y173.993 E.02415
G1 X105.507 Y158.59 E.81253
G1 X105.507 Y159.237 E.02415
G1 X120.263 Y173.993 E.77838
G1 X119.615 Y173.993 E.02415
G1 X105.507 Y159.885 E.74423
G1 X105.507 Y160.532 E.02415
G1 X118.968 Y173.993 E.71008
G1 X118.321 Y173.993 E.02415
M73 P4 R59
G1 X105.507 Y161.179 E.67593
G1 X105.507 Y161.827 E.02415
G1 X117.673 Y173.993 E.64178
G1 X117.026 Y173.993 E.02415
G1 X105.507 Y162.474 E.60763
G1 X105.507 Y163.121 E.02415
G1 X116.379 Y173.993 E.57349
G1 X115.731 Y173.993 E.02415
G1 X105.507 Y163.769 E.53934
G1 X105.507 Y164.416 E.02415
G1 X115.084 Y173.993 E.50519
G1 X114.436 Y173.993 E.02415
G1 X105.507 Y165.064 E.47104
G1 X105.507 Y165.711 E.02415
G1 X113.789 Y173.993 E.43689
G1 X113.142 Y173.993 E.02415
G1 X105.507 Y166.358 E.40274
G1 X105.507 Y167.006 E.02415
G1 X112.494 Y173.993 E.36859
G1 X111.847 Y173.993 E.02415
G1 X105.507 Y167.653 E.33445
G1 X105.507 Y168.3 E.02415
G1 X111.2 Y173.993 E.3003
G1 X110.552 Y173.993 E.02415
G1 X105.507 Y168.948 E.26615
G1 X105.507 Y169.595 E.02415
G1 X109.905 Y173.993 E.232
G1 X109.258 Y173.993 E.02415
G1 X105.507 Y170.242 E.19785
G1 X105.507 Y170.89 E.02415
G1 X108.61 Y173.993 E.1637
G1 X107.963 Y173.993 E.02415
G1 X105.507 Y171.537 E.12955
G1 X105.507 Y172.184 E.02415
G1 X107.316 Y173.993 E.09541
G1 X106.668 Y173.993 E.02415
G1 X105.507 Y172.832 E.06126
G1 X105.507 Y173.479 E.02415
G1 X106.227 Y174.199 E.03796
; stop printing object casse_cable_starlink v2.stl id:0 copy 0
M106 S255
;LAYER_CHANGE
;Z:0.44
;HEIGHT:0.24
;BEFORE_LAYER_CHANGE
;0.44
G92 E0

G1 E-.56 F1800
;WIPE_START
G1 F6300
G1 X105.519 Y173.492 E-.24
;WIPE_END
EXCLUDE_OBJECT_END NAME=casse_cable_starlink_v2.stl_id_0_copy_0
;AFTER_LAYER_CHANGE
;0.44
;_SET_FAN_SPEED_CHANGING_LAYER
SET_VELOCITY_LIMIT ACCEL=5000 ACCEL_TO_DECEL=2500
M140 S70 ; set bed temperature
; printing object casse_cable_starlink v2.stl id:0 copy 0
SET_VELOCITY_LIMIT ACCEL=7000 ACCEL_TO_DECEL=3500
EXCLUDE_OBJECT_START NAME=casse_cable_starlink_v2.stl_id_0_copy_0
G1 Z.6 F21000
G1 X195.028 Y125.472 Z.6
G1 Z.44
G1 E.8 F1800
SET_VELOCITY_LIMIT ACCEL=5000 ACCEL_TO_DECEL=2500
;TYPE:Inner wall
;WIDTH:0.449999
G1 F12000
G1 X195.028 Y174.528 E1.91155
G1 X104.972 Y174.528 E3.50919
G1 X104.972 Y125.472 E1.91155
G1 X129.5 Y125.472 E.95578
G1 X194.988 Y125.472 E2.55186
SET_VELOCITY_LIMIT ACCEL=7000 ACCEL_TO_DECEL=3500
G1 X195.427 Y125.073 F21000
SET_VELOCITY_LIMIT ACCEL=5000 ACCEL_TO_DECEL=2500
G1 F12000
G1 X195.427 Y174.927 E1.94261
G1 X104.573 Y174.927 E3.54025
G1 X104.573 Y125.073 E1.94261
G1 X129.5 Y125.073 E.9713
G1 X195.387 Y125.073 E2.56738
SET_VELOCITY_LIMIT ACCEL=7000 ACCEL_TO_DECEL=3500
G1 X195.8 Y124.7 F21000
SET_VELOCITY_LIMIT ACCEL=3000 ACCEL_TO_DECEL=1500
;TYPE:Outer wall
;WIDTH:0.399999
G1 F7200
G1 X195.8 Y175.3 E1.72432
G1 X104.2 Y175.3 E3.1215
G1 X104.2 Y124.7 E1.72432
G1 X129.5 Y124.7 E.86216
G1 X195.76 Y124.7 E2.25798
SET_VELOCITY_LIMIT ACCEL=7000 ACCEL_TO_DECEL=3500
G1 E-.56 F1800
;WIPE_START
G1 F7200
G1 X195.761 Y125.7 E-.24
;WIPE_END
G1 Z.84 F21000
G1 X194.206 Y174.411 Z.84
G1 Z.44
G1 E.8 F1800
SET_VELOCITY_LIMIT ACCEL=5000 ACCEL_TO_DECEL=2500
;TYPE:Internal solid infill
;WIDTH:0.400066
G1 F12000
G1 X194.754 Y173.863 E.02641
G1 X194.754 Y173.37 E.0168
