; HEADER_BLOCK_START
; generated by OrcaSlicer 1.8.0-beta1 on 2024-04-12 at 17:51:58
; total layer number: 252
; HEADER_BLOCK_END


;
;
; external perimeters extrusion width = 0.40mm
; perimeters extrusion width = 0.45mm
; infill extrusion width = 0.45mm
; solid infill extrusion width = 0.40mm
; top infill extrusion width = 0.40mm
; support material extrusion width = 0.40mm
; first layer extrusion width = 0.50mm

; external perimeters extrusion width = 0.40mm
; perimeters extrusion width = 0.45mm
; infill extrusion width = 0.45mm
; solid infill extrusion width = 0.40mm
; top infill extrusion width = 0.40mm
; support material extrusion width = 0.40mm
; first layer extrusion width = 0.50mm

; EXECUTABLE_BLOCK_START
EXCLUDE_OBJECT_DEFINE NAME=david.stl_id_0_copy_0 CENTER=155.994,150.193 POLYGON=[[150.994,150.193],[151.005,149.872],[151.035,149.553],[151.087,149.237],[151.158,148.924],[151.249,148.617],[151.36,148.316],[151.489,148.023],[151.638,147.739],[151.804,147.465],[151.987,147.202],[152.187,146.951],[152.403,146.714],[152.633,146.491],[152.877,146.283],[153.134,146.092],[153.402,145.917],[153.682,145.76],[153.97,145.621],[154.268,145.5],[154.572,145.399],[154.882,145.318],[155.196,145.257],[155.514,145.216],[155.834,145.195],[156.155,145.195],[156.474,145.216],[156.792,145.257],[157.107,145.318],[157.417,145.399],[157.721,145.5],[158.018,145.621],[158.307,145.76],[158.586,145.917],[158.855,146.092],[159.112,146.283],[159.356,146.491],[159.586,146.714],[159.802,146.951],[160.001,147.202],[160.185,147.465],[160.351,147.739],[160.499,148.023],[160.629,148.316],[160.74,148.617],[160.831,148.924],[160.902,149.237],[160.953,149.553],[160.984,149.872],[160.994,150.193],[160.984,150.513],[160.953,150.832],[160.902,151.148],[160.831,151.461],[160.74,151.768],[160.629,152.069],[160.499,152.362],[160.351,152.646],[160.185,152.92],[160.001,153.183],[159.802,153.434],[159.586,153.671],[159.356,153.894],[159.112,154.102],[158.855,154.293],[158.586,154.468],[158.307,154.626],[158.018,154.765],[157.721,154.885],[157.417,154.986],[157.107,155.067],[156.792,155.128],[156.474,155.169],[156.155,155.19],[155.834,155.19],[155.514,155.169],[155.196,155.128],[154.882,155.067],[154.572,154.986],[154.268,154.885],[153.97,154.765],[153.682,154.626],[153.402,154.468],[153.134,154.293],[152.877,154.102],[152.633,153.894],[152.403,153.671],[152.187,153.434],[151.987,153.183],[151.804,152.92],[151.638,152.646],[151.489,152.362],[151.36,152.069],[151.249,151.768],[151.158,151.461],[151.087,151.148],[151.035,150.832],[151.005,150.513],[150.994,150.193]]
EXCLUDE_OBJECT_DEFINE NAME=david.stl_id_1_copy_0 CENTER=144.006,149.807 POLYGON=[[139.006,149.807],[139.016,149.487],[139.047,149.168],[139.098,148.852],[139.169,148.539],[139.26,148.232],[139.371,147.931],[139.501,147.638],[139.649,147.354],[139.815,147.08],[139.999,146.817],[140.198,146.566],[140.414,146.329],[140.644,146.106],[140.888,145.898],[141.145,145.707],[141.414,145.532],[141.693,145.374],[141.982,145.235],[142.279,145.115],[142.583,145.014],[142.893,144.933],[143.208,144.872],[143.526,144.831],[143.845,144.81],[144.166,144.81],[144.486,144.831],[144.804,144.872],[145.118,144.933],[145.428,145.014],[145.732,145.115],[146.03,145.235],[146.318,145.374],[146.598,145.532],[146.866,145.707],[147.123,145.898],[147.367,146.106],[147.597,146.329],[147.813,146.566],[148.013,146.817],[148.196,147.08],[148.362,147.354],[148.511,147.638],[148.64,147.931],[148.751,148.232],[148.842,148.539],[148.913,148.852],[148.965,149.168],[148.995,149.487],[149.006,149.807],[148.995,150.128],[148.965,150.447],[148.913,150.763],[148.842,151.076],[148.751,151.383],[148.64,151.684],[148.511,151.977],[148.362,152.261],[148.196,152.535],[148.013,152.798],[147.813,153.049],[147.597,153.286],[147.367,153.509],[147.123,153.717],[146.866,153.908],[146.598,154.083],[146.318,154.24],[146.03,154.379],[145.732,154.5],[145.428,154.601],[145.118,154.682],[144.804,154.743],[144.486,154.784],[144.166,154.805],[143.845,154.805],[143.526,154.784],[143.208,154.743],[142.893,154.682],[142.583,154.601],[142.279,154.5],[141.982,154.379],[141.693,154.24],[141.414,154.083],[141.145,153.908],[140.888,153.717],[140.644,153.509],[140.414,153.286],[140.198,153.049],[139.999,152.798],[139.815,152.535],[139.649,152.261],[139.501,151.977],[139.371,151.684],[139.26,151.383],[139.169,151.076],[139.098,150.763],[139.047,150.447],[139.016,150.128],[139.006,149.807]]
M73 P0 R36
;TYPE:Custom
M190 S70
M109 S220
PRINT_START EXTRUDER=220 BED=70
G90
G21
M83 ; use relative distances for extrusion
; filament start gcode
M106 S0
;LAYER_CHANGE
;Z:0.2
;HEIGHT:0.2
;BEFORE_LAYER_CHANGE
;0.2
G92 E0

G1 E-.8 F1800
;AFTER_LAYER_CHANGE
;0.2
;_SET_FAN_SPEED_CHANGING_LAYER
SET_VELOCITY_LIMIT ACCEL=500 ACCEL_TO_DECEL=250
; printing object david.stl id:0 copy 0
EXCLUDE_OBJECT_START NAME=david.stl_id_0_copy_0
G1 Z.4 F21000
G1 X163.637 Y140.718
G1 Z.4
G1 Z.2
G1 E.8 F1800
;TYPE:Support
;WIDTH:0.5
G1 F3000
G1 X163.637 Y142.55 E.06823
G1 X165.469 Y142.55 E.06823
G1 X166.494 Y143.575 E.054
G1 X166.494 Y156.81 E.49296
G1 X165.469 Y157.835 E.054
G1 X163.637 Y157.835 E.06823
G1 X163.637 Y159.667 E.06823
G1 X162.612 Y160.692 E.054
G1 X149.377 Y160.692 E.49296
G1 X148.352 Y159.667 E.054
G1 X148.352 Y157.835 E.06823
G1 X146.52 Y157.835 E.06823
G1 X145.495 Y156.81 E.054
G1 X145.495 Y143.575 E.49296
G1 X146.52 Y142.55 E.054
G1 X148.352 Y142.55 E.06823
G1 X148.352 Y140.718 E.06823
G1 X149.377 Y139.693 E.054
G1 X162.612 Y139.693 E.49296
G1 X163.589 Y140.669 E.05144
G1 E-.56 F1800
;WIPE_START
G1 F3000
G1 X162.881 Y139.962 E-.24
;WIPE_END
G1 Z.6 F21000
G1 X163.226 Y142.575 Z.6
G1 Z.2
G1 E.8 F1800
G1 F3000
G1 X148.763 Y142.575 E.53868
G1 X148.763 Y142.067 E.01892
G1 X163.226 Y142.067 E.53868
G1 X163.226 Y141.559 E.01892
G1 X148.763 Y141.559 E.53868
G1 X148.763 Y141.051 E.01892
G1 X163.226 Y141.051 E.53868
G1 X163.226 Y140.888 E.00606
G1 X162.88 Y140.543 E.01818
G1 X149.108 Y140.543 E.51297
G1 X149.547 Y140.104 E.02312
G1 X162.442 Y140.104 E.48027
G1 X162.719 Y140.382 E.01461
G1 E-.56 F1800
;WIPE_START
G1 F3000
G1 X162.442 Y140.104 E-.09414
G1 X161.834 Y140.104 E-.14586
;WIPE_END
G1 Z.6 F21000
G1 X165.42 Y157.303 Z.6
G1 Z.2
G1 E.8 F1800
G1 F3000
G1 X146.569 Y157.303 E.70213
G1 X146.061 Y156.795 E.02675
G1 X165.928 Y156.795 E.73996
G1 X166.083 Y156.64 E.00817
G1 X166.083 Y156.287 E.01314
G1 X145.906 Y156.287 E.75151
G1 X145.906 Y155.779 E.01892
G1 X166.083 Y155.779 E.75151
G1 X166.083 Y155.271 E.01892
G1 X145.906 Y155.271 E.75151
G1 X145.906 Y154.763 E.01892
G1 X166.083 Y154.763 E.75151
G1 X166.083 Y154.256 E.01892
G1 X145.906 Y154.256 E.75151
G1 X145.906 Y153.748 E.01892
G1 X166.083 Y153.748 E.75151
G1 X166.083 Y153.24 E.01892
G1 X145.906 Y153.24 E.75151
G1 X145.906 Y152.732 E.01892
G1 X166.083 Y152.732 E.75151
G1 X166.083 Y152.224 E.01892
G1 X145.906 Y152.224 E.75151
G1 X145.906 Y151.716 E.01892
G1 X166.083 Y151.716 E.75151
G1 X166.083 Y151.208 E.01892
G1 X145.906 Y151.208 E.75151
G1 X145.906 Y150.7 E.01892
G1 X166.083 Y150.7 E.75151
G1 X166.083 Y150.193 E.01892
G1 X145.906 Y150.193 E.75151
G1 X145.906 Y149.685 E.01892
G1 X166.083 Y149.685 E.75151
G1 X166.083 Y149.177 E.01892
G1 X145.906 Y149.177 E.75151
G1 X145.906 Y148.669 E.01892
G1 X166.083 Y148.669 E.75151
G1 X166.083 Y148.161 E.01892
G1 X145.906 Y148.161 E.75151
G1 X145.906 Y147.653 E.01892
G1 X166.083 Y147.653 E.75151
G1 X166.083 Y147.145 E.01892
G1 X145.906 Y147.145 E.75151
G1 X145.906 Y146.638 E.01892
G1 X166.083 Y146.638 E.75151
G1 X166.083 Y146.13 E.01892
G1 X145.906 Y146.13 E.75151
G1 X145.906 Y145.622 E.01892
G1 X166.083 Y145.622 E.75151
G1 X166.083 Y145.114 E.01892
G1 X145.906 Y145.114 E.75151
G1 X145.906 Y144.606 E.01892
G1 X166.083 Y144.606 E.75151
G1 X166.083 Y144.098 E.01892
G1 X145.906 Y144.098 E.75151
G1 X145.906 Y143.745 E.01314
G1 X146.061 Y143.59 E.00817
G1 X165.928 Y143.59 E.73996
G1 X165.42 Y143.082 E.02675
G1 X146.569 Y143.082 E.70213
G1 E-.56 F1800
;WIPE_START
G1 F3000
G1 X147.569 Y143.082 E-.24
;WIPE_END
M73 P1 R36
G1 Z.6 F21000
G1 X149.27 Y160.004 Z.6
G1 Z.2
G1 E.8 F1800
G1 F3000
G1 X149.547 Y160.281 E.01461
G1 X162.442 Y160.281 E.48027
G1 X162.88 Y159.842 E.02312
G1 X149.108 Y159.842 E.51297
G1 X148.763 Y159.497 E.01818
G1 X148.763 Y159.334 E.00606
G1 X163.226 Y159.334 E.53868
G1 X163.226 Y158.826 E.01892
G1 X148.763 Y158.826 E.53868
G1 X148.763 Y158.318 E.01892
G1 X163.226 Y158.318 E.53868
G1 X163.226 Y157.811 E.01892
G1 X148.763 Y157.811 E.53868
; stop printing object david.stl id:0 copy 0
; printing object david.stl id:1 copy 0
G1 E-.56 F1800
;WIPE_START
G1 F3000
G1 X149.763 Y157.811 E-.24
;WIPE_END
EXCLUDE_OBJECT_END NAME=david.stl_id_0_copy_0
EXCLUDE_OBJECT_START NAME=david.stl_id_1_copy_0
G1 Z.6 F21000
G1 X151.648 Y140.333 Z.6
G1 Z.2
G1 E.8 F1800
G1 F3000
G1 X151.648 Y142.165 E.06823
G1 X153.48 Y142.165 E.06823
G1 X154.505 Y143.19 E.054
G1 X154.505 Y156.425 E.49296
G1 X153.48 Y157.45 E.054
G1 X151.648 Y157.45 E.06823
G1 X151.648 Y159.282 E.06823
G1 X150.623 Y160.307 E.054
G1 X137.388 Y160.307 E.49296
G1 X136.363 Y159.282 E.054
G1 X136.363 Y157.45 E.06823
G1 X134.531 Y157.45 E.06823
G1 X133.506 Y156.425 E.054
G1 X133.506 Y143.19 E.49296
G1 X134.531 Y142.165 E.054
G1 X136.363 Y142.165 E.06823
G1 X136.363 Y140.333 E.06823
G1 X137.388 Y139.308 E.054
G1 X150.623 Y139.308 E.49296
G1 X151.6 Y140.284 E.05144
G1 E-.56 F1800
;WIPE_START
G1 F3000
G1 X150.893 Y139.577 E-.24
;WIPE_END
G1 Z.6 F21000
G1 X151.237 Y142.189 Z.6
G1 Z.2
G1 E.8 F1800
G1 F3000
G1 X136.774 Y142.189 E.53868
G1 X136.774 Y141.682 E.01892
G1 X151.237 Y141.682 E.53868
G1 X151.237 Y141.174 E.01892
G1 X136.774 Y141.174 E.53868
G1 X136.774 Y140.666 E.01892
G1 X151.237 Y140.666 E.53868
G1 X151.237 Y140.503 E.00606
G1 X150.892 Y140.158 E.01818
G1 X137.12 Y140.158 E.51297
G1 X137.558 Y139.719 E.02312
G1 X150.453 Y139.719 E.48027
G1 X150.73 Y139.996 E.01461
G1 E-.56 F1800
;WIPE_START
G1 F3000
G1 X150.453 Y139.719 E-.09414
G1 X149.845 Y139.719 E-.14586
;WIPE_END
G1 Z.6 F21000
G1 X153.431 Y156.918 Z.6
G1 Z.2
G1 E.8 F1800
G1 F3000
G1 X134.58 Y156.918 E.70213
G1 X134.072 Y156.41 E.02675
G1 X153.939 Y156.41 E.73996
G1 X154.094 Y156.255 E.00817
G1 X154.094 Y155.902 E.01314
G1 X133.917 Y155.902 E.75151
G1 X133.917 Y155.394 E.01892
G1 X154.094 Y155.394 E.75151
G1 X154.094 Y154.886 E.01892
G1 X133.917 Y154.886 E.75151
G1 X133.917 Y154.378 E.01892
G1 X154.094 Y154.378 E.75151
G1 X154.094 Y153.87 E.01892
G1 X133.917 Y153.87 E.75151
G1 X133.917 Y153.362 E.01892
G1 X154.094 Y153.362 E.75151
G1 X154.094 Y152.855 E.01892
G1 X133.917 Y152.855 E.75151
G1 X133.917 Y152.347 E.01892
G1 X154.094 Y152.347 E.75151
G1 X154.094 Y151.839 E.01892
G1 X133.917 Y151.839 E.75151
G1 X133.917 Y151.331 E.01892
G1 X154.094 Y151.331 E.75151
G1 X154.094 Y150.823 E.01892
G1 X133.917 Y150.823 E.75151
G1 X133.917 Y150.315 E.01892
G1 X154.094 Y150.315 E.75151
G1 X154.094 Y149.807 E.01892
G1 X133.917 Y149.807 E.75151
G1 X133.917 Y149.3 E.01892
G1 X154.094 Y149.3 E.75151
G1 X154.094 Y148.792 E.01892
G1 X133.917 Y148.792 E.75151
G1 X133.917 Y148.284 E.01892
G1 X154.094 Y148.284 E.75151
G1 X154.094 Y147.776 E.01892
G1 X133.917 Y147.776 E.75151
G1 X133.917 Y147.268 E.01892
G1 X154.094 Y147.268 E.75151
G1 X154.094 Y146.76 E.01892
G1 X133.917 Y146.76 E.75151
G1 X133.917 Y146.252 E.01892
G1 X154.094 Y146.252 E.75151
G1 X154.094 Y145.744 E.01892
G1 X133.917 Y145.744 E.75151
G1 X133.917 Y145.237 E.01892
G1 X154.094 Y145.237 E.75151
M73 P1 R35
G1 X154.094 Y144.729 E.01892
G1 X133.917 Y144.729 E.75151
M73 P2 R35
G1 X133.917 Y144.221 E.01892
G1 X154.094 Y144.221 E.75151
G1 X154.094 Y143.713 E.01892
G1 X133.917 Y143.713 E.75151
G1 X133.917 Y143.36 E.01314
G1 X134.072 Y143.205 E.00817
G1 X153.939 Y143.205 E.73996
G1 X153.431 Y142.697 E.02675
G1 X134.58 Y142.697 E.70213
G1 E-.56 F1800
;WIPE_START
G1 F3000
G1 X135.58 Y142.697 E-.24
;WIPE_END
G1 Z.6 F21000
G1 X137.281 Y159.618 Z.6
G1 Z.2
G1 E.8 F1800
G1 F3000
G1 X137.558 Y159.896 E.01461
G1 X150.453 Y159.896 E.48027
G1 X150.892 Y159.457 E.02312
G1 X137.12 Y159.457 E.51297
G1 X136.774 Y159.112 E.01818
G1 X136.774 Y158.949 E.00606
G1 X151.237 Y158.949 E.53868
G1 X151.237 Y158.441 E.01892
G1 X136.774 Y158.441 E.53868
G1 X136.774 Y157.933 E.01892
G1 X151.237 Y157.933 E.53868
G1 X151.237 Y157.425 E.01892
G1 X136.774 Y157.425 E.53868
; stop printing object david.stl id:1 copy 0
M106 S255
;LAYER_CHANGE
;Z:0.5
;HEIGHT:0.3
;BEFORE_LAYER_CHANGE
;0.5
G92 E0

G1 E-.56 F1800
;WIPE_START
G1 F3000
G1 X137.774 Y157.425 E-.24
;WIPE_END
EXCLUDE_OBJECT_END NAME=david.stl_id_1_copy_0
;AFTER_LAYER_CHANGE
;0.5
;_SET_FAN_SPEED_CHANGING_LAYER
SET_VELOCITY_LIMIT ACCEL=5000 ACCEL_TO_DECEL=2500
M140 S70 ; set bed temperature
; printing object david.stl id:0 copy 0
SET_VELOCITY_LIMIT ACCEL=7000 ACCEL_TO_DECEL=3500
EXCLUDE_OBJECT_START NAME=david.stl_id_0_copy_0
G1 Z.6 F21000
G1 X147.424 Y155.907 Z.6
G1 Z.5
G1 E.8 F1800
SET_VELOCITY_LIMIT ACCEL=5000 ACCEL_TO_DECEL=2500
;TYPE:Support interface
;WIDTH:0.4
G1 F4800
G1 X147.424 Y144.478 E.46883
G1 X148.281 Y144.478 E.03516
G1 X148.281 Y155.907 E.46883
G1 X149.138 Y155.907 E.03516
G1 X149.138 Y144.478 E.46883
G1 X149.995 Y144.478 E.03516
G1 X149.995 Y155.907 E.46883
G1 X150.28 Y155.907 E.01171
G1 X150.28 Y158.764 E.11721
G1 X150.852 Y158.764 E.02345
G1 X150.852 Y141.621 E.70324
G1 X151.709 Y141.621 E.03516
G1 X151.709 Y158.764 E.70324
G1 X152.566 Y158.764 E.03516
G1 X152.566 Y141.621 E.70324
G1 X153.423 Y141.621 E.03516
G1 X153.423 Y158.764 E.70324
G1 X154.28 Y158.764 E.03516
G1 X154.28 Y141.621 E.70324
G1 X155.137 Y141.621 E.03516
G1 X155.137 Y158.764 E.70324
G1 X155.994 Y158.764 E.03516
G1 X155.994 Y141.621 E.70324
G1 X156.851 Y141.621 E.03516
G1 X156.851 Y158.764 E.70324
G1 X157.708 Y158.764 E.03516
G1 X157.708 Y141.621 E.70324
G1 X158.566 Y141.621 E.03516
G1 X158.566 Y158.764 E.70324
G1 X159.423 Y158.764 E.03516
G1 X159.423 Y141.621 E.70324
G1 X160.28 Y141.621 E.03516
G1 X160.28 Y158.764 E.70324
G1 X161.137 Y158.764 E.03516
G1 X161.137 Y141.621 E.70324
G1 X161.709 Y141.621 E.02345
G1 X161.709 Y144.478 E.11721
G1 X161.994 Y144.478 E.01171
G1 X161.994 Y155.907 E.46883
G1 X162.851 Y155.907 E.03516
G1 X162.851 Y144.478 E.46883
G1 X163.708 Y144.478 E.03516
G1 X163.708 Y155.907 E.46883
G1 X164.565 Y155.907 E.03516
G1 X164.565 Y144.478 E.46883
; stop printing object david.stl id:0 copy 0
; printing object david.stl id:1 copy 0
SET_VELOCITY_LIMIT ACCEL=7000 ACCEL_TO_DECEL=3500
G1 E-.56 F1800
;WIPE_START
G1 F4800
G1 X164.565 Y145.478 E-.24
;WIPE_END
EXCLUDE_OBJECT_END NAME=david.stl_id_0_copy_0
EXCLUDE_OBJECT_START NAME=david.stl_id_1_copy_0
G1 Z.9 F21000
G1 X152.576 Y144.093 Z.9
G1 Z.5
G1 E.8 F1800
SET_VELOCITY_LIMIT ACCEL=5000 ACCEL_TO_DECEL=2500
G1 F4800
G1 X152.576 Y155.522 E.46883
G1 X151.719 Y155.522 E.03516
G1 X151.719 Y144.093 E.46883
G1 X150.862 Y144.093 E.03516
G1 X150.862 Y155.522 E.46883
G1 X150.005 Y155.522 E.03516
G1 X150.005 Y144.093 E.46883
G1 X149.72 Y144.093 E.01171
G1 X149.72 Y141.236 E.11721
G1 X149.148 Y141.236 E.02345
G1 X149.148 Y158.379 E.70324
G1 X148.291 Y158.379 E.03516
G1 X148.291 Y141.236 E.70324
G1 X147.434 Y141.236 E.03516
G1 X147.434 Y158.379 E.70324
G1 X146.577 Y158.379 E.03516
G1 X146.577 Y141.236 E.70324
G1 X145.72 Y141.236 E.03516
G1 X145.72 Y158.379 E.70324
G1 X144.863 Y158.379 E.03516
G1 X144.863 Y141.236 E.70324
G1 X144.006 Y141.236 E.03516
G1 X144.006 Y158.379 E.70324
G1 X143.149 Y158.379 E.03516
G1 X143.149 Y141.236 E.70324
G1 X142.292 Y141.236 E.03516
G1 X142.292 Y158.379 E.70324
G1 X141.434 Y158.379 E.03516
G1 X141.434 Y141.236 E.70324
G1 X140.577 Y141.236 E.03516
G1 X140.577 Y158.379 E.70324
G1 X139.72 Y158.379 E.03516
G1 X139.72 Y141.236 E.70324
G1 X138.863 Y141.236 E.03516
G1 X138.863 Y158.379 E.70324
G1 X138.291 Y158.379 E.02345
G1 X138.291 Y155.522 E.11721
G1 X138.006 Y155.522 E.01171
G1 X138.006 Y144.093 E.46883
G1 X137.149 Y144.093 E.03516
G1 X137.149 Y155.522 E.46883
G1 X136.292 Y155.522 E.03516
G1 X136.292 Y144.093 E.46883
G1 X135.435 Y144.093 E.03516
G1 X135.435 Y155.522 E.46883
; stop printing object david.stl id:1 copy 0
;LAYER_CHANGE
;Z:0.8
;HEIGHT:0.3
