; HEADER_BLOCK_START
; generated by OrcaSlicer 1.8.0-beta1 on 2024-02-04 at 16:15:46
; total layer number: 200
; HEADER_BLOCK_END


;
;
; external perimeters extrusion width = 0.40mm
; perimeters extrusion width = 0.45mm
; infill extrusion width = 0.45mm
; solid infill extrusion width = 0.40mm
; top infill extrusion width = 0.40mm
; support material extrusion width = 0.40mm
; first layer extrusion width = 0.50mm

; EXECUTABLE_BLOCK_START
EXCLUDE_OBJECT_DEFINE NAME=door_1_v1.stl_id_0_copy_0 CENTER=150,150 POLYGON=[[25.3724,272.86],[272.86,25.3724],[274.628,27.1402],[27.1402,274.628],[25.3724,272.86]]
M73 P0 R56
;TYPE:Custom
M190 S70
M109 S220
PRINT_START EXTRUDER=220 BED=70
G90
G21
M83 ; use relative distances for extrusion
; filament start gcode
M106 S0
;LAYER_CHANGE
;Z:0.2
;HEIGHT:0.2
;BEFORE_LAYER_CHANGE
;0.2
G92 E0

G1 E-.8 F1800
;AFTER_LAYER_CHANGE
;0.2
;_SET_FAN_SPEED_CHANGING_LAYER
SET_VELOCITY_LIMIT ACCEL=500 ACCEL_TO_DECEL=250
; printing object door_1 v1.stl id:0 copy 0
EXCLUDE_OBJECT_START NAME=door_1_v1.stl_id_0_copy_0
G1 Z.4 F21000
G1 X133.252 Y154.256
G1 Z.4
G1 Z.2
G1 E.8 F1800
;TYPE:Support
;WIDTH:0.5
G1 F3000
G1 X133.616 Y154.272 E.01355
G1 X134.543 Y154.484 E.03543
G1 X135.418 Y154.858 E.03543
G1 X136.212 Y155.382 E.03543
G1 X136.9 Y156.04 E.03543
G1 X137.459 Y156.809 E.03543
G1 X137.872 Y157.666 E.03543
G1 X138.125 Y158.583 E.03543
G1 X138.18 Y159.203 E.02318
G1 X132.566 Y164.818 E.29576
G1 X131.723 Y164.704 E.03168
G1 X130.818 Y164.41 E.03543
G1 X129.98 Y163.959 E.03543
G1 X129.236 Y163.366 E.03543
G1 X128.611 Y162.65 E.03543
G1 X128.123 Y161.833 E.03543
G1 X127.788 Y160.943 E.03543
G1 X127.618 Y160.007 E.03543
G1 X127.618 Y159.055 E.03543
G1 X127.788 Y158.119 E.03543
G1 X128.122 Y157.228 E.03543
G1 X128.61 Y156.412 E.03543
G1 X129.236 Y155.695 E.03543
G1 X129.98 Y155.102 E.03543
G1 X130.818 Y154.651 E.03543
G1 X131.723 Y154.357 E.03543
G1 X132.665 Y154.23 E.03543
G1 X133.184 Y154.253 E.01933
G1 X137.303 Y159.789 F21000
G1 F3000
G1 X137.303 Y157.435 E.08771
G1 X137.104 Y157.021 E.0171
G1 X136.795 Y156.596 E.01956
G1 X136.795 Y160.006 E.12702
G1 X136.288 Y160.514 E.02675
G1 X136.288 Y156.024 E.16726
G1 X135.955 Y155.705 E.01717
G1 X135.78 Y155.59 E.0078
G1 X135.78 Y161.022 E.20234
G1 X135.272 Y161.53 E.02675
G1 X135.272 Y155.254 E.23374
G1 X134.764 Y155.026 E.02074
G1 X134.764 Y162.038 E.26117
G1 X134.256 Y162.546 E.02675
G1 X134.256 Y154.84 E.28699
G1 X133.748 Y154.725 E.0194
G1 X133.748 Y163.054 E.31023
G1 X133.24 Y163.562 E.02675
G1 X133.24 Y154.667 E.33128
G1 X132.733 Y154.644 E.01894
G1 X132.733 Y164.069 E.35104
G1 X132.419 Y164.383 E.01653
G1 X132.225 Y164.357 E.00729
G1 X132.225 Y154.704 E.35952
G1 X131.815 Y154.76 E.01541
G1 X131.717 Y154.792 E.00383
G1 X131.717 Y164.27 E.35302
G1 X131.209 Y164.105 E.01989
G1 X131.209 Y154.957 E.34072
G1 X130.98 Y155.031 E.00896
G1 X130.701 Y155.181 E.01181
G1 X130.701 Y163.88 E.324
G1 X130.193 Y163.603 E.02155
G1 X130.193 Y155.458 E.30336
G1 X129.685 Y155.863 E.02419
G1 X129.685 Y163.198 E.27319
G1 X129.522 Y163.068 E.00779
G1 X129.177 Y162.674 E.0195
G1 X129.177 Y156.388 E.23412
G1 X128.945 Y156.655 E.01319
G1 X128.67 Y157.115 E.01996
G1 X128.67 Y161.947 E.17998
G1 X128.495 Y161.654 E.0127
G1 X128.186 Y160.833 E.03268
G1 X128.162 Y160.697 E.00514
G1 X128.162 Y157.709 E.11129
G1 E-.56 F1800
;WIPE_START
G1 F3000
G1 X128.162 Y158.709 E-.24
;WIPE_END
G1 Z.6 F21000
G1 X140.733 Y162.286 Z.6
G1 Z.2
G1 E.8 F1800
G1 F3000
G1 X141.66 Y162.497 E.03543
G1 X142.535 Y162.871 E.03543
G1 X143.329 Y163.395 E.03543
G1 X144.016 Y164.052 E.03543
G1 X144.576 Y164.822 E.03543
G1 X144.989 Y165.679 E.03543
G1 X145.242 Y166.596 E.03543
G1 X145.327 Y167.544 E.03544
G1 X145.242 Y168.491 E.03544
G1 X144.989 Y169.408 E.03544
G1 X144.576 Y170.266 E.03544
G1 X144.017 Y171.035 E.03544
G1 X143.329 Y171.693 E.03544
G1 X142.535 Y172.217 E.03544
G1 X141.66 Y172.591 E.03544
G1 X140.733 Y172.803 E.03544
G1 X139.782 Y172.845 E.03544
G1 X138.839 Y172.717 E.03544
G1 X137.935 Y172.423 E.03544
G1 X137.097 Y171.972 E.03544
G1 X136.353 Y171.379 E.03544
G1 X135.727 Y170.663 E.03543
G1 X135.24 Y169.846 E.03543
G1 X134.905 Y168.955 E.03543
G1 X134.736 Y168.019 E.03543
G1 X134.736 Y167.881 E.00516
G1 X140.348 Y162.268 E.29562
G1 X140.664 Y162.283 E.01179
G1 X144.413 Y170.129 F21000
G1 F3000
G1 X144.413 Y165.433 E.17492
G1 X144.221 Y165.034 E.01651
G1 X143.906 Y164.6 E.01999
G1 X143.906 Y170.489 E.21935
G1 X143.706 Y170.764 E.01265
G1 X143.398 Y171.058 E.01588
G1 X143.398 Y164.03 E.26177
G1 X143.071 Y163.718 E.01682
G1 X142.89 Y163.598 E.00809
G1 X142.89 Y171.49 E.29394
G1 X142.382 Y171.825 E.02267
G1 X142.382 Y163.263 E.31891
G1 X141.874 Y163.036 E.02072
G1 X141.874 Y172.052 E.33581
G1 X141.533 Y172.198 E.01383
G1 X141.366 Y172.236 E.00636
G1 X141.366 Y162.852 E.34951
G1 X140.858 Y162.736 E.0194
G1 X140.858 Y172.352 E.35815
G1 X140.677 Y172.393 E.00692
G1 X140.351 Y172.408 E.01218
G1 X140.351 Y162.848 E.35609
G1 X139.843 Y163.355 E.02675
G1 X139.843 Y172.431 E.33802
G1 X139.335 Y172.369 E.01905
G1 X139.335 Y163.863 E.31682
G1 X138.827 Y164.371 E.02675
G1 X138.827 Y172.281 E.29461
G1 X138.319 Y172.116 E.01989
G1 X138.319 Y164.879 E.26954
G1 X137.811 Y165.387 E.02675
G1 X137.811 Y171.89 E.24221
G1 X137.303 Y171.611 E.02158
G1 X137.303 Y165.895 E.21291
G1 X136.795 Y166.403 E.02675
G1 X136.795 Y171.206 E.1789
G1 X136.639 Y171.081 E.00747
G1 X136.288 Y170.679 E.01987
G1 X136.288 Y166.91 E.14035
G1 X135.78 Y167.418 E.02675
G1 X135.78 Y169.948 E.09423
G1 X135.612 Y169.667 E.01221
G1 X135.304 Y168.845 E.03267
G1 X135.272 Y168.671 E.00661
G1 X135.272 Y167.635 E.03857
G1 E-.56 F1800
;WIPE_START
G1 F3000
G1 X135.272 Y168.635 E-.24
;WIPE_END
G1 Z.6 F21000
G1 X200.861 Y102.157 Z.6
G1 Z.2
G1 E.8 F1800
G1 F3000
G1 X201.789 Y102.369 E.03543
G1 X202.664 Y102.743 E.03543
G1 X203.458 Y103.267 E.03543
G1 X204.145 Y103.924 E.03543
G1 X204.704 Y104.694 E.03543
G1 X205.117 Y105.551 E.03543
G1 X205.371 Y106.468 E.03543
G1 X205.456 Y107.415 E.03543
G1 X205.371 Y108.363 E.03544
G1 X205.118 Y109.28 E.03544
G1 X204.705 Y110.137 E.03544
G1 X204.146 Y110.907 E.03544
G1 X203.458 Y111.565 E.03544
G1 X202.664 Y112.089 E.03544
G1 X201.789 Y112.463 E.03544
G1 X200.862 Y112.674 E.03544
G1 X199.911 Y112.717 E.03544
G1 X198.968 Y112.589 E.03544
G1 X198.064 Y112.295 E.03544
G1 X197.226 Y111.844 E.03544
G1 X196.482 Y111.251 E.03543
G1 X195.856 Y110.534 E.03543
G1 X195.368 Y109.718 E.03543
G1 X195.034 Y108.827 E.03543
G1 X194.864 Y107.891 E.03543
G1 X194.864 Y107.752 E.00518
G1 X200.476 Y102.14 E.29559
G1 X200.793 Y102.154 E.01181
G1 X204.85 Y109.363 F21000
G1 F3000
G1 X204.85 Y106.127 E.12054
G1 X204.731 Y105.696 E.01664
G1 X204.342 Y104.894 E.03319
G1 X204.342 Y109.937 E.18784
G1 X203.834 Y110.636 E.03217
G1 X203.834 Y104.196 E.23989
G1 X203.326 Y103.71 E.02617
G1 X203.326 Y111.122 E.27605
G1 X203.201 Y111.242 E.00646
G1 X202.818 Y111.494 E.01707
G1 X202.818 Y103.338 E.3038
G1 X202.468 Y103.107 E.01563
G1 X202.31 Y103.039 E.00639
G1 X202.31 Y111.793 E.32603
G1 X201.802 Y112.01 E.02057
G1 X201.802 Y102.822 E.3422
G1 X201.661 Y102.762 E.00571
G1 X201.294 Y102.678 E.01401
G1 X201.294 Y112.154 E.35292
G1 X200.787 Y112.266 E.01937
G1 X200.787 Y102.566 E.36129
G1 X200.639 Y102.559 E.00551
G1 X200.279 Y102.919 E.01897
G1 X200.279 Y112.289 E.34897
G1 X199.93 Y112.304 E.01302
G1 X199.771 Y112.283 E.00597
G1 X199.771 Y103.427 E.32984
G1 X199.263 Y103.935 E.02675
G1 X199.263 Y112.214 E.30836
G1 X199.06 Y112.187 E.00762
G1 X198.755 Y112.087 E.01195
G1 X198.755 Y104.443 E.28473
G1 X198.247 Y104.951 E.02675
G1 X198.247 Y111.922 E.25966
G1 X197.739 Y111.654 E.0214
G1 X197.739 Y105.459 E.23073
G1 X197.232 Y105.967 E.02675
G1 X197.232 Y111.323 E.19949
G1 X196.724 Y110.902 E.02455
G1 X196.724 Y106.474 E.16492
G1 X196.216 Y106.982 E.02675
G1 X196.216 Y110.321 E.12435
G1 X195.74 Y109.539 E.03409
G1 X195.708 Y109.452 E.00345
G1 X195.708 Y107.199 E.0839
G1 E-.56 F1800
;WIPE_START
G1 F3000
G1 X195.708 Y108.199 E-.24
;WIPE_END
G1 Z.6 F21000
G1 X192.923 Y94.585 Z.6
G1 Z.2
G1 E.8 F1800
G1 F3000
G1 X193.286 Y94.602 E.01353
G1 X194.214 Y94.813 E.03543
G1 X195.089 Y95.187 E.03543
G1 X195.883 Y95.711 E.03543
G1 X196.57 Y96.369 E.03543
G1 X197.129 Y97.138 E.03543
G1 X197.542 Y97.995 E.03543
G1 X197.795 Y98.913 E.03543
G1 X197.851 Y99.533 E.02319
G1 X192.236 Y105.147 E.29575
G1 X191.393 Y105.033 E.03169
G1 X190.489 Y104.739 E.03543
G1 X189.651 Y104.289 E.03543
G1 X188.907 Y103.695 E.03543
G1 X188.281 Y102.979 E.03543
G1 X187.793 Y102.162 E.03543
G1 X187.459 Y101.272 E.03543
G1 X187.289 Y100.336 E.03543
G1 X187.289 Y99.384 E.03543
G1 X187.459 Y98.448 E.03543
G1 X187.793 Y97.558 E.03543
G1 X188.281 Y96.741 E.03543
G1 X188.907 Y96.024 E.03543
G1 X189.651 Y95.431 E.03543
G1 X190.489 Y94.981 E.03543
G1 X191.393 Y94.687 E.03543
G1 X192.336 Y94.559 E.03543
G1 X192.855 Y94.582 E.01935
G1 X197.232 Y99.861 F21000
G1 F3000
G1 X197.232 Y98.416 E.05381
G1 X197.155 Y98.141 E.01066
G1 X196.775 Y97.35 E.03268
G1 X196.724 Y97.28 E.00324
G1 X196.724 Y100.078 E.10423
G1 X196.216 Y100.586 E.02675
G1 X196.216 Y96.599 E.1485
G1 X195.708 Y96.113 E.02617
G1 X195.708 Y101.094 E.18551
G1 X195.2 Y101.602 E.02675
G1 X195.2 Y95.754 E.21782
G1 X194.893 Y95.551 E.01371
G1 X194.692 Y95.465 E.00813
G1 X194.692 Y102.11 E.24749
G1 X194.184 Y102.618 E.02675
G1 X194.184 Y95.248 E.27449
G1 X194.086 Y95.206 E.00397
G1 X193.676 Y95.113 E.01565
G1 X193.676 Y103.125 E.29845
G1 X193.169 Y103.633 E.02675
G1 X193.169 Y95.008 E.32126
G1 X192.661 Y94.985 E.01894
G1 X192.661 Y104.141 E.34102
G1 X192.153 Y104.649 E.02675
G1 X192.153 Y94.999 E.35944
G1 X191.645 Y95.068 E.01909
G1 X191.645 Y104.652 E.35699
G1 X191.485 Y104.631 E.00601
G1 X191.137 Y104.518 E.01363
G1 X191.137 Y95.202 E.34696
G1 X190.629 Y95.372 E.01994
G1 X190.629 Y104.348 E.33432
G1 X190.121 Y104.075 E.02148
G1 X190.121 Y95.645 E.31397
G1 X189.878 Y95.776 E.01028
G1 X189.614 Y95.987 E.01261
G1 X189.614 Y103.733 E.28849
G1 X189.192 Y103.397 E.02006
G1 X189.106 Y103.298 E.00491
G1 X189.106 Y96.422 E.25608
G1 X188.598 Y97.013 E.02901
G1 X188.598 Y102.707 E.21209
G1 X188.165 Y101.983 E.03141
G1 X188.09 Y101.783 E.00798
G1 X188.09 Y97.462 E.16093
G1 E-.56 F1800
;WIPE_START
G1 F3000
G1 X188.09 Y98.462 E-.24
;WIPE_END
G1 Z.6 F21000
G1 X240.149 Y47.36 Z.6
M73 P0 R55
G1 Z.2
G1 E.8 F1800
G1 F3000
G1 X240.512 Y47.376 E.01354
G1 X241.439 Y47.588 E.03543
G1 X242.314 Y47.962 E.03543
G1 X243.108 Y48.486 E.03543
G1 X243.796 Y49.143 E.03543
G1 X244.355 Y49.913 E.03543
G1 X244.768 Y50.77 E.03543
G1 X245.021 Y51.687 E.03543
G1 X245.076 Y52.307 E.02319
G1 X239.462 Y57.922 E.29575
G1 X238.619 Y57.808 E.03169
G1 X237.714 Y57.514 E.03543
G1 X236.876 Y57.063 E.03543
G1 X236.132 Y56.47 E.03543
G1 X235.506 Y55.754 E.03543
G1 X235.019 Y54.937 E.03543
G1 X234.684 Y54.046 E.03543
G1 X234.514 Y53.11 E.03543
G1 X234.514 Y52.159 E.03543
G1 X234.684 Y51.223 E.03543
G1 X235.018 Y50.332 E.03543
G1 X235.506 Y49.516 E.03543
G1 X236.132 Y48.799 E.03543
G1 X236.876 Y48.206 E.03543
G1 X237.714 Y47.755 E.03543
G1 X238.619 Y47.461 E.03543
G1 X239.561 Y47.333 E.03543
G1 X240.08 Y47.357 E.01935
G1 X244.463 Y52.63 F21000
G1 F3000
G1 X244.463 Y51.213 E.05276
G1 X244.381 Y50.915 E.01152
G1 X244 Y50.125 E.03268
G1 X243.955 Y50.063 E.00285
G1 X243.955 Y52.847 E.10369
G1 X243.447 Y53.355 E.02675
G1 X243.447 Y49.379 E.14806
G1 X242.939 Y48.894 E.02617
G1 X242.939 Y53.862 E.18506
G1 X242.432 Y54.37 E.02675
G1 X242.432 Y48.532 E.21744
G1 X242.118 Y48.325 E.01398
G1 X241.924 Y48.242 E.00788
G1 X241.924 Y54.878 E.24716
G1 X241.416 Y55.386 E.02675
G1 X241.416 Y48.025 E.27416
G1 X241.312 Y47.981 E.00422
G1 X240.908 Y47.889 E.01542
G1 X240.908 Y55.894 E.29817
G1 X240.4 Y56.402 E.02675
G1 X240.4 Y47.783 E.32102
G1 X239.892 Y47.76 E.01894
G1 X239.892 Y56.91 E.34079
G1 X239.384 Y57.418 E.02675
G1 X239.384 Y47.773 E.35924
G1 X238.877 Y47.841 E.01909
G1 X238.877 Y57.428 E.35705
G1 X238.711 Y57.405 E.00624
G1 X238.369 Y57.294 E.01339
G1 X238.369 Y47.975 E.34711
G1 X237.861 Y48.143 E.01993
G1 X237.861 Y57.126 E.33457
G1 X237.353 Y56.853 E.02148
G1 X237.353 Y48.417 E.31421
G1 X237.104 Y48.551 E.01054
G1 X236.845 Y48.757 E.01232
G1 X236.845 Y56.512 E.28886
G1 X236.418 Y56.172 E.02035
G1 X236.337 Y56.079 E.00456
G1 X236.337 Y49.19 E.2566
G1 X235.829 Y49.777 E.02892
G1 X235.829 Y55.492 E.21286
G1 X235.391 Y54.758 E.03186
G1 X235.321 Y54.573 E.00733
G1 X235.321 Y50.226 E.16192
G1 E-.56 F1800
;WIPE_START
G1 F3000
G1 X235.321 Y51.226 E-.24
;WIPE_END
G1 Z.6 F21000
G1 X248.087 Y54.932 Z.6
G1 Z.2
G1 E.8 F1800
G1 F3000
G1 X249.014 Y55.144 E.03543
G1 X249.889 Y55.517 E.03543
G1 X250.683 Y56.041 E.03543
G1 X251.371 Y56.699 E.03543
G1 X251.93 Y57.468 E.03543
G1 X252.343 Y58.325 E.03543
G1 X252.596 Y59.242 E.03543
G1 X252.681 Y60.19 E.03543
G1 X252.596 Y61.138 E.03544
G1 X252.343 Y62.055 E.03544
G1 X251.93 Y62.912 E.03544
G1 X251.371 Y63.682 E.03544
G1 X250.683 Y64.339 E.03544
G1 X249.889 Y64.863 E.03544
G1 X249.015 Y65.237 E.03544
G1 X248.087 Y65.449 E.03544
G1 X247.136 Y65.492 E.03544
G1 X246.194 Y65.364 E.03544
G1 X245.289 Y65.07 E.03544
G1 X244.451 Y64.619 E.03544
G1 X243.707 Y64.026 E.03544
G1 X243.082 Y63.309 E.03543
G1 X242.594 Y62.492 E.03543
G1 X242.26 Y61.602 E.03543
G1 X242.09 Y60.666 E.03543
G1 X242.09 Y60.527 E.00518
G1 X247.702 Y54.915 E.29559
M73 P1 R55
G1 X248.018 Y54.929 E.01181
G1 X252.081 Y62.125 F21000
G1 F3000
G1 X252.081 Y58.924 E.11923
G1 X251.956 Y58.471 E.0175
G1 X251.573 Y57.677 E.03281
G1 X251.573 Y62.703 E.1872
G1 X251.065 Y63.403 E.03218
G1 X251.065 Y56.979 E.23927
G1 X250.557 Y56.491 E.02623
G1 X250.557 Y63.89 E.27561
G1 X250.426 Y64.016 E.00678
G1 X250.05 Y64.265 E.01679
G1 X250.05 Y56.116 E.30349
G1 X249.693 Y55.881 E.0159
G1 X249.542 Y55.816 E.00614
G1 X249.542 Y64.565 E.32583
G1 X249.034 Y64.782 E.02057
G1 X249.034 Y55.599 E.342
G1 X248.887 Y55.536 E.00596
G1 X248.526 Y55.454 E.01378
G1 X248.526 Y64.927 E.35282
G1 X248.018 Y65.04 E.01938
G1 X248.018 Y55.341 E.36127
G1 X247.864 Y55.334 E.00574
G1 X247.51 Y55.688 E.01864
G1 X247.51 Y65.063 E.34919
G1 X247.155 Y65.079 E.01324
G1 X247.002 Y65.058 E.00574
G1 X247.002 Y56.196 E.3301
G1 X246.495 Y56.704 E.02675
G1 X246.495 Y64.989 E.30862
G1 X246.286 Y64.961 E.00785
G1 X245.987 Y64.864 E.01171
G1 X245.987 Y57.211 E.28503
G1 X245.479 Y57.719 E.02675
G1 X245.479 Y64.699 E.25997
G1 X244.971 Y64.431 E.02138
G1 X244.971 Y58.227 E.23109
G1 X244.463 Y58.735 E.02675
G1 X244.463 Y64.102 E.19991
G1 X243.955 Y63.684 E.0245
G1 X243.955 Y59.243 E.16542
G1 X243.447 Y59.751 E.02675
G1 X243.447 Y63.103 E.12484
G1 X242.966 Y62.313 E.03444
G1 X242.939 Y62.243 E.00279
G1 X242.939 Y59.968 E.08475
G1 E-.56 F1800
;WIPE_START
G1 F3000
G1 X242.939 Y60.968 E-.24
;WIPE_END
G1 Z.6 F21000
G1 X56.531 Y230.977 Z.6
G1 Z.2
G1 E.8 F1800
G1 F3000
G1 X56.894 Y230.994 E.01353
G1 X57.822 Y231.205 E.03543
G1 X58.697 Y231.579 E.03543
G1 X59.491 Y232.103 E.03543
G1 X60.178 Y232.761 E.03543
G1 X60.737 Y233.53 E.03543
G1 X61.15 Y234.387 E.03543
G1 X61.403 Y235.305 E.03543
G1 X61.459 Y235.925 E.02319
G1 X55.844 Y241.539 E.29575
G1 X55.001 Y241.425 E.03168
G1 X54.097 Y241.131 E.03543
G1 X53.259 Y240.681 E.03543
G1 X52.515 Y240.087 E.03543
G1 X51.889 Y239.371 E.03543
G1 X51.401 Y238.554 E.03543
G1 X51.067 Y237.664 E.03543
G1 X50.897 Y236.728 E.03543
G1 X50.897 Y235.776 E.03543
G1 X51.067 Y234.84 E.03543
G1 X51.401 Y233.95 E.03543
G1 X51.889 Y233.133 E.03543
G1 X52.515 Y232.416 E.03543
G1 X53.259 Y231.823 E.03543
G1 X54.097 Y231.373 E.03543
G1 X55.001 Y231.079 E.03543
G1 X55.944 Y230.951 E.03543
G1 X56.463 Y230.974 E.01935
G1 X60.616 Y236.477 F21000
G1 F3000
G1 X60.616 Y234.226 E.08387
G1 X60.383 Y233.742 E.01998
G1 X60.108 Y233.364 E.01743
G1 X60.108 Y236.694 E.12406
G1 X59.6 Y237.202 E.02675
G1 X59.6 Y232.777 E.16482
G1 X59.233 Y232.426 E.0189
G1 X59.092 Y232.333 E.0063
G1 X59.092 Y237.71 E.20027
G1 X58.584 Y238.218 E.02675
G1 X58.584 Y231.998 E.23167
G1 X58.501 Y231.943 E.00371
G1 X58.076 Y231.761 E.0172
G1 X58.076 Y238.726 E.2594
G1 X57.568 Y239.234 E.02675
G1 X57.568 Y231.569 E.28546
G1 X57.061 Y231.453 E.0194
G1 X57.061 Y239.741 E.3087
G1 X56.553 Y240.249 E.02675
