; HEADER_BLOCK_START
; generated by OrcaSlicer 1.8.0-beta1 on 2024-02-04 at 14:56:38
; total layer number: 200
; HEADER_BLOCK_END


;
;
; external perimeters extrusion width = 0.40mm
; perimeters extrusion width = 0.45mm
; infill extrusion width = 0.45mm
; solid infill extrusion width = 0.40mm
; top infill extrusion width = 0.40mm
; support material extrusion width = 0.40mm
; first layer extrusion width = 0.50mm

; EXECUTABLE_BLOCK_START
EXCLUDE_OBJECT_DEFINE NAME=door.stl_id_0_copy_0 CENTER=150,150 POLYGON=[[146.5,109.345],[151,27.5],[153.5,27.5],[153.5,272.5],[151,272.5],[146.5,160.768],[146.5,109.345]]
M73 P0 R48
;TYPE:Custom
M190 S70
M109 S220
PRINT_START EXTRUDER=220 BED=70
G90
G21
M83 ; use relative distances for extrusion
; filament start gcode
M106 S0
;LAYER_CHANGE
;Z:0.2
;HEIGHT:0.2
;BEFORE_LAYER_CHANGE
;0.2
G92 E0

G1 E-.8 F1800
;AFTER_LAYER_CHANGE
;0.2
;_SET_FAN_SPEED_CHANGING_LAYER
SET_VELOCITY_LIMIT ACCEL=500 ACCEL_TO_DECEL=250
; printing object door.stl id:0 copy 0
EXCLUDE_OBJECT_START NAME=door.stl_id_0_copy_0
G1 Z.4 F21000
G1 X147.25 Y64.192
G1 Z.4
G1 Z.2
G1 E.8 F1800
;TYPE:Support
;WIDTH:0.5
G1 F3000
G1 X147.613 Y64.208 E.01354
G1 X148.54 Y64.42 E.03543
G1 X149.415 Y64.794 E.03543
G1 X150.209 Y65.318 E.03543
G1 X150.4 Y65.501 E.00984
G1 X150.4 Y73.433 E.29543
G1 X150.209 Y73.615 E.00985
G1 X149.415 Y74.139 E.03543
G1 X148.54 Y74.513 E.03543
G1 X147.613 Y74.725 E.03543
G1 X146.663 Y74.768 E.03543
G1 X145.72 Y74.64 E.03543
G1 X144.815 Y74.346 E.03543
G1 X143.977 Y73.896 E.03543
G1 X143.233 Y73.302 E.03543
G1 X142.607 Y72.586 E.03543
G1 X142.119 Y71.769 E.03543
G1 X141.785 Y70.879 E.03544
G1 X141.615 Y69.943 E.03544
G1 X141.615 Y68.991 E.03544
G1 X141.785 Y68.055 E.03544
G1 X142.119 Y67.164 E.03544
G1 X142.607 Y66.348 E.03544
G1 X143.233 Y65.631 E.03544
G1 X143.977 Y65.038 E.03544
G1 X144.815 Y64.587 E.03544
G1 X145.72 Y64.293 E.03543
G1 X146.663 Y64.166 E.03543
G1 X147.181 Y64.189 E.01934
G1 X149.492 Y73.842 F21000
G1 F3000
G1 X149.492 Y65.338 E.31675
G1 X149.219 Y65.158 E.01217
G1 X148.984 Y65.057 E.00952
G1 X148.984 Y73.876 E.32847
G1 X148.476 Y74.093 E.02057
G1 X148.476 Y64.84 E.34464
G1 X147.969 Y64.712 E.01951
G1 X147.969 Y74.222 E.35423
G1 X147.557 Y74.316 E.01571
G1 X147.461 Y74.32 E.00361
G1 X147.461 Y64.613 E.36154
G1 X146.953 Y64.59 E.01894
G1 X146.953 Y74.343 E.36324
G1 X146.681 Y74.355 E.01013
G1 X146.445 Y74.323 E.00887
G1 X146.445 Y64.61 E.36177
G1 X145.937 Y64.679 E.01909
G1 X145.937 Y74.254 E.35665
G1 X145.812 Y74.237 E.00471
G1 X145.429 Y74.113 E.01498
G1 X145.429 Y64.82 E.34613
G1 X144.921 Y64.997 E.02003
G1 X144.921 Y73.936 E.33295
G1 X144.413 Y73.663 E.02148
G1 X144.413 Y65.27 E.3126
G1 X144.205 Y65.383 E.00883
G1 X143.906 Y65.621 E.01425
G1 X143.906 Y73.312 E.28646
G1 X143.519 Y73.004 E.01842
G1 X143.398 Y72.865 E.00686
G1 X143.398 Y66.068 E.25316
G1 X142.942 Y66.59 E.02583
G1 X142.89 Y66.677 E.00375
G1 X142.89 Y72.257 E.20783
G1 X142.492 Y71.59 E.02892
G1 X142.382 Y71.298 E.01161
G1 X142.382 Y67.126 E.15541
G1 E-.56 F1800
;WIPE_START
G1 F3000
G1 X142.382 Y68.126 E-.24
;WIPE_END
G1 Z.6 F21000
G1 X157.724 Y64.437 Z.6
G1 Z.2
G1 E.8 F1800
G1 F3000
G1 X158.312 Y64.463 E.02191
G1 X159.24 Y64.675 E.03543
G1 X160.114 Y65.049 E.03543
G1 X160.908 Y65.573 E.03543
G1 X161.596 Y66.23 E.03543
G1 X162.155 Y67 E.03543
G1 X162.568 Y67.857 E.03543
G1 X162.821 Y68.774 E.03543
G1 X162.906 Y69.722 E.03543
G1 X162.821 Y70.669 E.03543
G1 X162.568 Y71.586 E.03543
G1 X162.155 Y72.443 E.03543
G1 X161.596 Y73.213 E.03543
G1 X160.908 Y73.87 E.03543
G1 X160.114 Y74.394 E.03543
G1 X159.24 Y74.768 E.03543
G1 X158.312 Y74.98 E.03543
G1 X157.362 Y75.023 E.03543
G1 X156.419 Y74.895 E.03543
G1 X155.514 Y74.601 E.03543
G1 X154.677 Y74.15 E.03543
G1 X154.1 Y73.69 E.02747
G1 X154.1 Y65.753 E.29564
G1 X154.677 Y65.293 E.02747
G1 X155.514 Y64.842 E.03543
G1 X156.419 Y64.548 E.03543
G1 X157.362 Y64.421 E.03543
G1 X157.656 Y64.434 E.01097
G1 X162.189 Y71.9 F21000
G1 F3000
G1 X162.189 Y68.029 E.14416
G1 X161.801 Y67.212 E.0337
G1 X161.681 Y67.047 E.00759
G1 X161.681 Y72.396 E.19924
G1 X161.285 Y72.941 E.02509
G1 X161.173 Y73.048 E.00577
G1 X161.173 Y66.395 E.24781
G1 X160.665 Y65.909 E.02617
G1 X160.665 Y73.534 E.28398
G1 X160.157 Y73.873 E.02275
G1 X160.157 Y65.57 E.30927
G1 X159.919 Y65.412 E.01065
G1 X159.649 Y65.297 E.01091
G1 X159.649 Y74.146 E.32957
G1 X159.142 Y74.363 E.02057
G1 X159.142 Y65.08 E.34574
G1 X158.634 Y64.959 E.01945
G1 X158.634 Y74.485 E.35481
G1 X158.257 Y74.571 E.0144
G1 X158.126 Y74.577 E.00488
G1 X158.126 Y64.867 E.36166
G1 X157.618 Y64.844 E.01894
G1 X157.618 Y74.599 E.36336
G1 X157.38 Y74.61 E.00886
G1 X157.11 Y74.573 E.01016
G1 X157.11 Y64.87 E.36143
G1 X156.602 Y64.939 E.01909
G1 X156.602 Y74.505 E.3563
G1 X156.511 Y74.492 E.00343
G1 X156.094 Y74.357 E.01632
G1 X156.094 Y65.086 E.34529
G1 X155.677 Y65.222 E.01636
G1 X155.587 Y65.271 E.00381
G1 X155.587 Y74.173 E.33157
G1 X155.079 Y73.899 E.02148
G1 X155.079 Y65.544 E.31121
G1 X154.904 Y65.638 E.00738
G1 X154.571 Y65.904 E.01588
G1 X154.571 Y73.803 E.29421
G1 E-.56 F1800
;WIPE_START
G1 F3000
G1 X154.571 Y72.803 E-.24
;WIPE_END
G1 Z.6 F21000
G1 X157.724 Y131.279 Z.6
G1 Z.2
G1 E.8 F1800
G1 F3000
G1 X158.31 Y131.306 E.02186
G1 X159.238 Y131.517 E.03544
G1 X160.113 Y131.891 E.03544
G1 X160.907 Y132.415 E.03544
G1 X161.595 Y133.072 E.03544
G1 X162.154 Y133.842 E.03544
G1 X162.567 Y134.699 E.03544
G1 X162.82 Y135.617 E.03544
G1 X162.905 Y136.564 E.03544
G1 X162.82 Y137.512 E.03544
G1 X162.567 Y138.429 E.03544
G1 X162.154 Y139.286 E.03544
G1 X161.595 Y140.056 E.03544
G1 X160.907 Y140.713 E.03544
G1 X160.113 Y141.237 E.03543
G1 X159.238 Y141.611 E.03543
G1 X158.31 Y141.823 E.03543
G1 X157.36 Y141.865 E.03543
G1 X156.417 Y141.737 E.03543
G1 X155.513 Y141.443 E.03543
G1 X154.675 Y140.992 E.03543
G1 X154.1 Y140.533 E.02741
G1 X154.1 Y132.595 E.29569
G1 X154.675 Y132.136 E.0274
G1 X155.513 Y131.685 E.03543
G1 X156.417 Y131.391 E.03543
G1 X157.36 Y131.263 E.03544
G1 X157.656 Y131.276 E.01102
G1 X162.189 Y138.74 F21000
G1 F3000
G1 X162.189 Y134.875 E.14396
G1 X161.8 Y134.054 E.03384
G1 X161.681 Y133.891 E.00752
G1 X161.681 Y139.237 E.19915
G1 X161.284 Y139.784 E.02517
G1 X161.173 Y139.89 E.0057
G1 X161.173 Y133.238 E.24774
G1 X160.665 Y132.753 E.02617
G1 X160.665 Y140.375 E.28391
G1 X160.157 Y140.715 E.02276
G1 X160.157 Y132.413 E.30922
G1 X159.917 Y132.255 E.01071
G1 X159.649 Y132.14 E.01085
G1 X159.649 Y140.988 E.32954
G1 X159.142 Y141.205 E.02057
G1 X159.142 Y131.923 E.34571
G1 X158.634 Y131.801 E.01945
G1 X158.634 Y141.327 E.3548
G1 X158.255 Y141.413 E.01447
G1 X158.126 Y141.419 E.00482
G1 X158.126 Y131.709 E.36166
G1 X157.618 Y131.686 E.01893
G1 X157.618 Y141.442 E.36335
G1 X157.379 Y141.452 E.00892
G1 X157.11 Y141.416 E.0101
G1 X157.11 Y131.712 E.36144
G1 X156.602 Y131.781 E.01909
G1 X156.602 Y141.347 E.35631
G1 X156.509 Y141.335 E.00349
G1 X156.094 Y141.2 E.01626
G1 X156.094 Y131.928 E.34532
G1 X155.675 Y132.065 E.01642
G1 X155.587 Y132.112 E.00374
G1 X155.587 Y141.016 E.33161
G1 X155.079 Y140.742 E.02148
G1 X155.079 Y132.386 E.31125
G1 X154.903 Y132.481 E.00745
G1 X154.571 Y132.745 E.01581
G1 X154.571 Y140.646 E.29427
M73 P0 R47
G1 E-.56 F1800
;WIPE_START
G1 F3000
G1 X154.571 Y139.646 E-.24
;WIPE_END
G1 Z.6 F21000
G1 X142.75 Y130.965 Z.6
G1 Z.2
G1 E.8 F1800
G1 F3000
G1 X143.112 Y130.981 E.01352
G1 X144.04 Y131.193 E.03543
G1 X144.915 Y131.567 E.03543
G1 X145.709 Y132.091 E.03543
G1 X145.9 Y132.274 E.00987
G1 X145.9 Y140.205 E.29541
G1 X145.709 Y140.388 E.00987
G1 X144.915 Y140.913 E.03543
G1 X144.04 Y141.286 E.03543
G1 X143.112 Y141.498 E.03543
G1 X142.162 Y141.541 E.03543
G1 X141.219 Y141.413 E.03543
G1 X140.315 Y141.119 E.03543
G1 X139.477 Y140.668 E.03543
G1 X138.733 Y140.075 E.03543
G1 X138.107 Y139.359 E.03543
G1 X137.619 Y138.542 E.03543
G1 X137.285 Y137.651 E.03543
G1 X137.115 Y136.715 E.03543
G1 X137.115 Y135.764 E.03543
G1 X137.285 Y134.828 E.03543
G1 X137.619 Y133.937 E.03543
G1 X138.107 Y133.121 E.03543
G1 X138.733 Y132.404 E.03543
G1 X139.477 Y131.811 E.03543
G1 X140.314 Y131.36 E.03543
G1 X141.219 Y131.066 E.03543
G1 X142.162 Y130.939 E.03543
G1 X142.681 Y130.962 E.01936
G1 X145.429 Y140.326 F21000
G1 F3000
G1 X145.429 Y132.4 E.29524
G1 X144.921 Y132.064 E.02267
G1 X144.921 Y140.415 E.31104
G1 X144.719 Y140.549 E.00904
G1 X144.413 Y140.679 E.01237
G1 X144.413 Y131.8 E.33072
G1 X143.912 Y131.586 E.0203
G1 X143.906 Y140.895 E.34673
G1 X143.398 Y141.011 E.0194
G1 X143.398 Y131.468 E.35543
G1 X143.057 Y131.391 E.01302
G1 X142.89 Y131.383 E.00623
G1 X142.89 Y141.096 E.36178
G1 X142.382 Y141.119 E.01894
G1 X142.382 Y131.36 E.36348
G1 X142.181 Y131.351 E.00751
G1 X141.874 Y131.393 E.01152
G1 X141.874 Y141.087 E.36106
G1 X141.366 Y141.018 E.01909
G1 X141.366 Y131.462 E.35594
G1 X140.858 Y131.616 E.01977
G1 X140.858 Y140.863 E.34442
G1 X140.477 Y140.739 E.01494
G1 X140.351 Y140.671 E.00534
G1 X140.351 Y131.808 E.33013
G1 X139.843 Y132.081 E.02148
G1 X139.843 Y140.398 E.30977
G1 X139.704 Y140.324 E.00585
G1 X139.335 Y140.029 E.0176
G1 X139.335 Y132.451 E.28227
G1 X139.018 Y132.703 E.01507
G1 X138.827 Y132.922 E.01084
G1 X138.827 Y139.558 E.24715
G1 X138.441 Y139.116 E.02184
G1 X138.319 Y138.912 E.00887
G1 X138.319 Y133.568 E.19904
G1 X137.991 Y134.117 E.02381
G1 X137.811 Y134.596 E.01908
G1 X137.811 Y138.463 E.14401
G1 E-.56 F1800
;WIPE_START
G1 F3000
G1 X137.811 Y137.463 E-.24
;WIPE_END
G1 Z.6 F21000
G1 X147.252 Y216.262 Z.6
G1 Z.2
G1 E.8 F1800
G1 F3000
G1 X147.613 Y216.278 E.01347
G1 X148.541 Y216.49 E.03543
G1 X149.415 Y216.864 E.03543
G1 X150.209 Y217.388 E.03543
G1 X150.4 Y217.571 E.00983
G1 X150.4 Y225.503 E.29545
G1 X150.209 Y225.685 E.00982
G1 X149.416 Y226.209 E.03543
G1 X148.541 Y226.583 E.03543
G1 X147.613 Y226.795 E.03543
G1 X146.663 Y226.838 E.03543
G1 X145.72 Y226.71 E.03543
G1 X144.815 Y226.416 E.03544
G1 X143.978 Y225.965 E.03544
G1 X143.234 Y225.372 E.03544
G1 X142.608 Y224.656 E.03544
G1 X142.12 Y223.839 E.03544
G1 X141.785 Y222.948 E.03544
G1 X141.615 Y222.012 E.03544
G1 X141.615 Y221.061 E.03544
G1 X141.785 Y220.125 E.03544
G1 X142.12 Y219.234 E.03544
G1 X142.608 Y218.417 E.03544
G1 X143.234 Y217.701 E.03544
G1 X143.978 Y217.108 E.03543
G1 X144.815 Y216.657 E.03543
G1 X145.72 Y216.363 E.03543
G1 X146.663 Y216.236 E.03543
G1 X147.183 Y216.259 E.0194
G1 X149.492 Y225.912 F21000
G1 F3000
G1 X149.492 Y217.408 E.31676
G1 X149.22 Y217.228 E.01216
G1 X148.984 Y217.127 E.00953
G1 X148.984 Y225.946 E.32848
G1 X148.476 Y226.163 E.02057
G1 X148.476 Y216.91 E.34465
G1 X147.969 Y216.781 E.01951
G1 X147.969 Y226.292 E.35423
G1 X147.558 Y226.386 E.01569
G1 X147.461 Y226.39 E.00362
G1 X147.461 Y216.683 E.36154
G1 X146.953 Y216.66 E.01894
G1 X146.953 Y226.413 E.36324
G1 X146.681 Y226.425 E.01012
G1 X146.445 Y226.393 E.00889
G1 X146.445 Y216.68 E.36177
G1 X145.937 Y216.749 E.01909
G1 X145.937 Y226.324 E.35665
G1 X145.812 Y226.307 E.0047
M73 P1 R47
G1 X145.429 Y226.183 E.01499
G1 X145.429 Y216.89 E.34612
G1 X144.921 Y217.067 E.02003
G1 X144.921 Y226.006 E.33294
G1 X144.413 Y225.733 E.02148
G1 X144.413 Y217.34 E.31259
G1 X144.205 Y217.452 E.00881
G1 X143.906 Y217.691 E.01427
G1 X143.906 Y225.382 E.28645
G1 X143.519 Y225.074 E.01841
G1 X143.398 Y224.935 E.00687
G1 X143.398 Y218.138 E.25314
G1 X142.942 Y218.66 E.0258
G1 X142.89 Y218.747 E.00378
G1 X142.89 Y224.326 E.2078
G1 X142.492 Y223.66 E.02891
G1 X142.382 Y223.367 E.01163
G1 X142.382 Y219.196 E.15537
G1 E-.56 F1800
;WIPE_START
G1 F3000
G1 X142.382 Y220.196 E-.24
;WIPE_END
G1 Z.6 F21000
G1 X157.725 Y216.041 Z.6
G1 Z.2
G1 E.8 F1800
G1 F3000
G1 X158.312 Y216.067 E.0219
G1 X159.24 Y216.279 E.03543
G1 X160.114 Y216.652 E.03543
G1 X160.908 Y217.177 E.03543
G1 X161.596 Y217.834 E.03543
G1 X162.155 Y218.604 E.03543
G1 X162.568 Y219.461 E.03543
G1 X162.821 Y220.378 E.03543
G1 X162.906 Y221.325 E.03543
G1 X162.821 Y222.273 E.03543
G1 X162.568 Y223.19 E.03543
G1 X162.155 Y224.047 E.03543
G1 X161.596 Y224.817 E.03543
G1 X160.908 Y225.474 E.03543
G1 X160.114 Y225.998 E.03543
G1 X159.239 Y226.372 E.03543
G1 X158.312 Y226.584 E.03543
G1 X157.362 Y226.626 E.03543
G1 X156.419 Y226.499 E.03543
G1 X155.514 Y226.205 E.03543
G1 X154.677 Y225.754 E.03543
G1 X154.1 Y225.294 E.02747
G1 X154.1 Y217.357 E.29564
G1 X154.676 Y216.897 E.02746
G1 X155.514 Y216.446 E.03543
G1 X156.419 Y216.152 E.03543
G1 X157.362 Y216.024 E.03543
G1 X157.656 Y216.038 E.01098
G1 X162.189 Y223.503 F21000
G1 F3000
G1 X162.189 Y219.633 E.14414
G1 X161.801 Y218.816 E.03371
G1 X161.681 Y218.651 E.00758
G1 X161.681 Y224 E.19924
G1 X161.285 Y224.545 E.0251
G1 X161.173 Y224.652 E.00576
G1 X161.173 Y217.999 E.2478
G1 X160.665 Y217.513 E.02617
G1 X160.665 Y225.137 E.28397
G1 X160.157 Y225.477 E.02275
G1 X160.157 Y217.174 E.30926
G1 X159.919 Y217.016 E.01065
G1 X159.649 Y216.901 E.0109
G1 X159.649 Y225.75 E.32957
G1 X159.142 Y225.967 E.02057
G1 X159.142 Y216.684 E.34574
G1 X158.634 Y216.562 E.01945
G1 X158.634 Y226.088 E.35481
G1 X158.257 Y226.174 E.01441
G1 X158.126 Y226.18 E.00487
G1 X158.126 Y216.47 E.36166
G1 X157.618 Y216.448 E.01894
G1 X157.618 Y226.203 E.36336
G1 X157.38 Y226.214 E.00887
G1 X157.11 Y226.177 E.01015
G1 X157.11 Y216.474 E.36143
G1 X156.602 Y216.542 E.01909
G1 X156.602 Y226.108 E.3563
G1 X156.511 Y226.096 E.00343
G1 X156.094 Y225.961 E.01631
G1 X156.094 Y216.69 E.3453
G1 X155.677 Y216.826 E.01637
G1 X155.587 Y216.874 E.00381
G1 X155.587 Y225.776 E.33157
G1 X155.079 Y225.503 E.02148
G1 X155.079 Y217.148 E.31121
G1 X154.904 Y217.242 E.00739
G1 X154.571 Y217.507 E.01588
G1 X154.571 Y225.406 E.29421
G1 E-.56 F1800
;WIPE_START
G1 F3000
G1 X154.571 Y224.406 E-.24
;WIPE_END
G1 Z.6 F21000
G1 X162.513 Y66.715 Z.6
G1 Z.2
G1 E.8 F1800
;TYPE:Brim
G1 F3000
G1 X161.933 Y65.922 E.03658
G1 X161.201 Y65.223 E.03772
G1 X160.339 Y64.652 E.0385
G1 X159.39 Y64.244 E.03848
G1 X158.404 Y64.015 E.0377
G1 X157.372 Y63.963 E.03848
G1 X156.308 Y64.106 E.03998
G1 X155.326 Y64.427 E.0385
G1 X154.434 Y64.907 E.03772
G1 X153.829 Y65.385 E.02873
G1 X153.829 Y27.5 E1.41106
G1 X153.804 Y27.384 E.00442
G1 X153.695 Y27.247 E.00652
G1 X153.611 Y27.2 E.00361
G1 X153.5 Y27.171 E.00426
G1 X151 Y27.171 E.09312
G1 X150.884 Y27.196 E.00442
G1 X150.747 Y27.305 E.00652
G1 X150.7 Y27.389 E.00361
G1 X150.671 Y27.5 E.00426
G1 X150.671 Y65.129 E1.40153
G1 X150.469 Y64.942 E.01024
G1 X149.658 Y64.407 E.0362
G1 X148.672 Y63.983 E.03998
G1 X147.705 Y63.761 E.03696
G1 X147.271 Y63.735 E.01618
G1 X147.229 Y63.748 E.00163
G1 X147.201 Y63.732 E.0012
G1 X146.611 Y63.711 E.02199
G1 X145.628 Y63.846 E.03696
G1 X144.645 Y64.164 E.03848
G1 X143.718 Y64.663 E.03921
G1 X142.911 Y65.308 E.0385
G1 X142.244 Y66.071 E.03772
G1 X141.987 Y66.495 E.01846
G1 X141.987 Y27.506 E1.45219
G1 X142.036 Y26.569 E.03493
G1 X142.182 Y25.649 E.03471
G1 X142.423 Y24.749 E.03471
G1 X142.756 Y23.878 E.03473
G1 X143.147 Y23.102 E.03238
G1 X143.641 Y22.31 E.03477
G1 X144.214 Y21.575 E.03471
G1 X144.861 Y20.904 E.03471
G1 X145.574 Y20.304 E.03471
G1 X146.346 Y19.782 E.03471
G1 X147.168 Y19.343 E.03471
G1 X148.034 Y18.992 E.03481
G1 X148.533 Y18.835 E.0195
G1 X149.444 Y18.624 E.03483
G1 X150.371 Y18.509 E.03478
G1 X151.004 Y18.487 E.02359
G1 X153.494 Y18.487 E.09274
G1 X154.431 Y18.536 E.03493
G1 X155.351 Y18.682 E.03471
G1 X156.251 Y18.923 E.03471
G1 X157.122 Y19.256 E.03475
G1 X157.814 Y19.601 E.0288
G1 X158.691 Y20.142 E.03835
G1 X159.425 Y20.714 E.03469
G1 X160.096 Y21.361 E.03471
G1 X160.696 Y22.074 E.03471
G1 X161.218 Y22.846 E.03471
G1 X161.657 Y23.668 E.03471
G1 X162.008 Y24.534 E.03481
G1 X162.165 Y25.033 E.0195
G1 X162.376 Y25.944 E.03483
G1 X162.491 Y26.871 E.03478
G1 X162.513 Y27.504 E.02359
G1 X162.513 Y66.675 E1.45896
G1 E-.56 F1800
;WIPE_START
G1 F3000
G1 X161.933 Y65.922 E-.228
G1 X161.897 Y65.888 E-.012
;WIPE_END
G1 Z.6 F21000
G1 X162.008 Y65.191 Z.6
G1 Z.2
G1 E.8 F1800
G1 F3000
G1 X161.898 Y65.223 E.00426
G1 X161.826 Y65.188 E.00299
G1 X161.445 Y64.836 E.01932
G1 X160.509 Y64.227 E.04156
G1 X159.482 Y63.796 E.04148
G1 X158.416 Y63.558 E.04071
G1 X157.3 Y63.512 E.04161
G1 X156.259 Y63.651 E.03909
G1 X155.194 Y63.989 E.04163
G1 X154.486 Y64.359 E.02975
