; HEADER_BLOCK_START
; generated by OrcaSlicer 1.8.0-beta1 on 2024-07-28 at 17:37:47
; total layer number: 75
; HEADER_BLOCK_END


;
;
; external perimeters extrusion width = 0.40mm
; perimeters extrusion width = 0.45mm
; infill extrusion width = 0.45mm
; solid infill extrusion width = 0.40mm
; top infill extrusion width = 0.40mm
; first layer extrusion width = 0.50mm

; EXECUTABLE_BLOCK_START
EXCLUDE_OBJECT_DEFINE NAME=Fix_antenna_dji_v1.stl_id_0_copy_0 CENTER=150,150 POLYGON=[[140.5,143.5],[159.5,143.5],[159.5,156.5],[140.5,156.5],[140.5,143.5]]
M73 P0 R11
;TYPE:Custom
M190 S70
M109 S220
PRINT_START EXTRUDER=220 BED=70
G90
G21
M83 ; use relative distances for extrusion
; filament start gcode
M106 S0
;LAYER_CHANGE
;Z:0.2
;HEIGHT:0.2
;BEFORE_LAYER_CHANGE
;0.2
G92 E0

G1 E-.8 F1800
;AFTER_LAYER_CHANGE
;0.2
;_SET_FAN_SPEED_CHANGING_LAYER
SET_VELOCITY_LIMIT ACCEL=500 ACCEL_TO_DECEL=250
; printing object Fix_antenna_dji v1.stl id:0 copy 0
EXCLUDE_OBJECT_START NAME=Fix_antenna_dji_v1.stl_id_0_copy_0
G1 Z.4 F21000
G1 X158.761 Y155.761
G1 Z.4
G1 Z.2
G1 E.8 F1800
;TYPE:Inner wall
;WIDTH:0.56438
G1 F1716
G1 X158.038 Y155.761 E.0307
G1 X158.239 Y155.521 E.01328
G1 X158.239 Y145.479 E.42675
G1 X158.123 Y145.236 E.01143
;WIDTH:0.53219
G1 X158.006 Y144.994 E.01072
G1 X157.764 Y144.877 E.01072
;WIDTH:0.564381
G1 X157.521 Y144.761 E.01143
G1 X142.479 Y144.761 E.63921
;WIDTH:0.571795
G1 X142.354 Y144.768 E.00538
G1 X142.174 Y144.881 E.00916
;WIDTH:0.535897
G1 X141.994 Y144.994 E.00854
;WIDTH:0.53219
G1 X141.877 Y145.236 E.01072
;WIDTH:0.564381
G1 X141.761 Y145.479 E.01143
G1 X141.761 Y155.5 E.42584
G1 X142 Y155.761 E.01504
G1 X141.239 Y155.761 E.03233
G1 X141.239 Y145.479 E.43692
G1 X141.223 Y144.843 E.02702
;WIDTH:0.53219
G1 X141.207 Y144.207 E.02535
;WIDTH:0.499999
G1 X141.668 Y144.207 E.01716
;WIDTH:0.53219
G1 X142.073 Y144.223 E.01617
;WIDTH:0.564381
G1 X142.479 Y144.239 E.01724
G1 X157.521 Y144.239 E.63921
G1 X158.157 Y144.223 E.02702
;WIDTH:0.53219
G1 X158.793 Y144.207 E.02535
;WIDTH:0.499999
G1 X158.793 Y144.668 E.01716
;WIDTH:0.53219
G1 X158.777 Y145.073 E.01617
;WIDTH:0.56438
G1 X158.761 Y145.479 E.01724
G1 X158.761 Y155.721 E.43522
G1 E-.56 F1800
;WIPE_START
G1 F3000
G1 X158.038 Y155.761 E-.17364
G1 X158.216 Y155.549 E-.06636
;WIPE_END
G1 Z.6 F21000
G1 X158.361 Y144.618 Z.6
G1 Z.2
G1 E.8 F1800
;WIDTH:0.507464
G1 F1716
G1 X158.303 Y144.618 E.0022
G1 X158.274 Y144.668 E.0022
G1 X158.303 Y144.718 E.0022
G1 X158.361 Y144.718 E.0022
G1 X158.39 Y144.668 E.0022
G1 E-.56 F1800
;WIPE_START
G1 F3000
G1 X158.361 Y144.718 E-.048
G1 X158.303 Y144.718 E-.048
G1 X158.274 Y144.668 E-.048
G1 X158.303 Y144.618 E-.048
G1 X158.361 Y144.618 E-.048
;WIPE_END
G1 E0 F1800
G1 Z.6 F21000
G1 X159.25 Y156.25 Z.6
G1 Z.2
G1 E.8 F1800
;TYPE:Outer wall
;WIDTH:0.499999
G1 F1716
G1 X158.479 Y156.25 E.02873
;WIDTH:0.52146
G1 X141.521 Y156.25 E.66124
;WIDTH:0.499999
G1 X140.75 Y156.25 E.02873
G1 X140.75 Y143.75 E.46558
G1 X159.25 Y143.75 E.68905
M73 P1 R11
G1 X159.25 Y144.668 E.03419
G1 X159.25 Y156.21 E.4299
G1 E-.56 F1800
;WIPE_START
G1 F3000
G1 X158.479 Y156.25 E-.1854
G1 X158.251 Y156.25 E-.0546
;WIPE_END
G1 Z.6 F21000
G1 X142.317 Y145.317 Z.6
G1 Z.2
G1 E.8 F1800
G1 F1716
G1 X142.479 Y145.25 E.00651
G1 X157.521 Y145.25 E.56029
G1 X157.683 Y145.317 E.00651
G1 X157.75 Y145.479 E.00651
G1 X157.75 Y155.521 E.37406
;WIDTH:0.525086
G1 X157.563 Y155.759 E.01187
G1 X157.521 Y155.761 E.00164
;WIDTH:0.52146
G1 X142.479 Y155.761 E.5866
G1 X142.25 Y155.5 E.01352
;WIDTH:0.499999
G1 X142.25 Y145.479 E.37326
G1 X142.302 Y145.354 E.00503
G1 X141.697 Y144.618 F21000
;TYPE:Inner wall
;WIDTH:0.507464
G1 F1716
G1 X141.639 Y144.618 E.0022
G1 X141.61 Y144.668 E.0022
G1 X141.639 Y144.718 E.0022
G1 X141.697 Y144.718 E.0022
G1 X141.726 Y144.668 E.0022
; stop printing object Fix_antenna_dji v1.stl id:0 copy 0
M106 S255
;LAYER_CHANGE
;Z:0.4
;HEIGHT:0.2
;BEFORE_LAYER_CHANGE
;0.4
G92 E0

G1 E-.56 F1800
;WIPE_START
G1 F3000
G1 X141.697 Y144.718 E-.048
G1 X141.639 Y144.718 E-.048
G1 X141.61 Y144.668 E-.048
G1 X141.639 Y144.618 E-.048
G1 X141.697 Y144.618 E-.048
;WIPE_END
G1 E0 F1800
EXCLUDE_OBJECT_END NAME=Fix_antenna_dji_v1.stl_id_0_copy_0
;AFTER_LAYER_CHANGE
;0.4
;_SET_FAN_SPEED_CHANGING_LAYER
SET_VELOCITY_LIMIT ACCEL=5000 ACCEL_TO_DECEL=2500
M140 S70 ; set bed temperature
; printing object Fix_antenna_dji v1.stl id:0 copy 0
SET_VELOCITY_LIMIT ACCEL=7000 ACCEL_TO_DECEL=3500
EXCLUDE_OBJECT_START NAME=Fix_antenna_dji_v1.stl_id_0_copy_0
G1 Z.6 F21000
G1 X141.69 Y145.055 Z.6
G1 Z.4
G1 E.8 F1800
SET_VELOCITY_LIMIT ACCEL=5000 ACCEL_TO_DECEL=2500
;WIDTH:0.471684
G1 F1977
G1 X141.5 Y145.479 E.01621
G1 X141.477 Y144.477 E.03501
;WIDTH:0.425192
G1 X141.668 Y144.477 E.00595
;WIDTH:0.455852
G1 X141.988 Y144.492 E.01078
;WIDTH:0.486512
G1 X142.308 Y144.507 E.01159
G1 X142.056 Y144.655 E.01058
;WIDTH:0.455852
G1 X141.803 Y144.803 E.00985
;WIDTH:0.471684
G1 X141.706 Y145.019 E.00826
SET_VELOCITY_LIMIT ACCEL=7000 ACCEL_TO_DECEL=3500
G1 E-.56 F1800
;WIPE_START
G1 F12000
G1 X141.5 Y145.479 E-.12097
G1 X141.488 Y144.983 E-.11903
;WIPE_END
G1 Z.8 F21000
G1 X157.521 Y144.5 Z.8
G1 Z.4
G1 E.8 F1800
SET_VELOCITY_LIMIT ACCEL=5000 ACCEL_TO_DECEL=2500
;WIDTH:0.471682
G1 F1977
G1 X158.523 Y144.477 E.03501
;WIDTH:0.425192
G1 X158.523 Y144.668 E.00595
;WIDTH:0.471682
G1 X158.5 Y145.479 E.02833
G1 X158.197 Y144.803 E.02587
G1 X157.558 Y144.516 E.02447
SET_VELOCITY_LIMIT ACCEL=7000 ACCEL_TO_DECEL=3500
G1 E-.56 F1800
;WIPE_START
G1 F12000
G1 X158.523 Y144.477 E-.23186
G1 X158.523 Y144.511 E-.00814
;WIPE_END
G1 Z.8 F21000
G1 X158.918 Y155.918 Z.8
G1 Z.4
G1 E.8 F1800
SET_VELOCITY_LIMIT ACCEL=5000 ACCEL_TO_DECEL=2500
;WIDTH:0.449999
G1 F1977
G1 X157.749 Y155.918 E.03877
G1 X158.082 Y155.521 E.01717
G1 X158.082 Y145.479 E.33314
G1 X157.918 Y145.082 E.01423
G1 X157.521 Y144.918 E.01423
G1 X142.479 Y144.918 E.499
G1 X142.382 Y144.926 E.00323
G1 X142.082 Y145.082 E.0112
G1 X141.918 Y145.479 E.01423
G1 X141.918 Y155.521 E.33314
G1 X142.314 Y155.918 E.0186
G1 X141.082 Y155.918 E.04088
G1 X141.082 Y144.082 E.39262
G1 X158.918 Y144.082 E.59165
M73 P2 R11
G1 X158.918 Y144.668 E.01943
G1 X158.918 Y155.878 E.37186
SET_VELOCITY_LIMIT ACCEL=7000 ACCEL_TO_DECEL=3500
G1 X159.3 Y156.3 F21000
SET_VELOCITY_LIMIT ACCEL=3000 ACCEL_TO_DECEL=1500
;TYPE:Outer wall
;WIDTH:0.399999
G1 F1977
G1 X158.479 Y156.3 E.0239
;WIDTH:0.440486
G1 X158.16 Y156.28 E.01036
;WIDTH:0.480973
G1 X157.84 Y156.26 E.01141
;WIDTH:0.52146
G1 X157.521 Y156.239 E.01247
G1 X142.479 Y156.239 E.5866
G1 X142.16 Y156.26 E.01247
;WIDTH:0.480973
G1 X141.84 Y156.28 E.01141
;WIDTH:0.440486
G1 X141.521 Y156.3 E.01036
;WIDTH:0.399999
G1 X140.7 Y156.3 E.0239
G1 X140.7 Y143.7 E.36663
G1 X159.3 Y143.7 E.54121
G1 X159.3 Y144.668 E.02816
G1 X159.3 Y156.26 E.3373
SET_VELOCITY_LIMIT ACCEL=7000 ACCEL_TO_DECEL=3500
G1 E-.56 F1800
;WIPE_START
G1 F7200
G1 X158.479 Y156.3 E-.19738
G1 X158.301 Y156.289 E-.04262
;WIPE_END
G1 Z.8 F21000
G1 X158.5 Y145.479 Z.8
G1 Z.4
G1 E.8 F1800
SET_VELOCITY_LIMIT ACCEL=5000 ACCEL_TO_DECEL=2500
;TYPE:Inner wall
;WIDTH:0.471682
G1 F1977
G1 X158.5 Y155.5 E.35014
SET_VELOCITY_LIMIT ACCEL=7000 ACCEL_TO_DECEL=3500
G1 E-.56 F1800
;WIPE_START
G1 F12000
G1 X158.5 Y154.5 E-.24
;WIPE_END
G1 Z.8 F21000
G1 X142.352 Y145.352 Z.8
G1 Z.4
G1 E.8 F1800
SET_VELOCITY_LIMIT ACCEL=3000 ACCEL_TO_DECEL=1500
;TYPE:Outer wall
;WIDTH:0.399999
G1 F1977
G1 X142.479 Y145.3 E.00398
G1 X157.521 Y145.3 E.43771
G1 X157.648 Y145.352 E.00398
G1 X157.7 Y145.479 E.00398
G1 X157.7 Y155.521 E.29222
;WIDTH:0.441695
G1 X157.654 Y155.601 E.00297
;WIDTH:0.483391
G1 X157.609 Y155.68 E.00328
;WIDTH:0.525086
G1 X157.563 Y155.759 E.00359
G1 X157.521 Y155.761 E.00164
;WIDTH:0.52146
G1 X142.479 Y155.761 E.5866
G1 X142.419 Y155.674 E.00411
;WIDTH:0.480973
G1 X142.36 Y155.587 E.00376
;WIDTH:0.440486
G1 X142.3 Y155.5 E.00341
;WIDTH:0.399999
G1 X142.3 Y145.479 E.2916
G1 X142.337 Y145.389 E.00281
SET_VELOCITY_LIMIT ACCEL=7000 ACCEL_TO_DECEL=3500
G1 E-.56 F1800
;WIPE_START
G1 F7200
G1 X142.479 Y145.3 E-.04016
G1 X143.311 Y145.3 E-.19984
;WIPE_END
G1 Z.8 F21000
G1 X141.5 Y155.5 Z.8
G1 Z.4
G1 E.8 F1800
SET_VELOCITY_LIMIT ACCEL=5000 ACCEL_TO_DECEL=2500
;TYPE:Inner wall
;WIDTH:0.471684
G1 F1977
G1 X141.5 Y145.479 E.35014
SET_VELOCITY_LIMIT ACCEL=7000 ACCEL_TO_DECEL=3500
G1 E-.56 F1800
;WIPE_START
G1 F12000
G1 X141.5 Y146.479 E-.24
;WIPE_END
G1 Z.8 F21000
G1 X142.308 Y144.507 Z.8
G1 Z.4
G1 E.8 F1800
SET_VELOCITY_LIMIT ACCEL=5000 ACCEL_TO_DECEL=2500
;WIDTH:0.486512
G1 F1977
G1 X142.479 Y144.5 E.00616
;WIDTH:0.471684
G1 X157.521 Y144.5 E.52558
; stop printing object Fix_antenna_dji v1.stl id:0 copy 0
;LAYER_CHANGE
;Z:0.6
;HEIGHT:0.2
;BEFORE_LAYER_CHANGE
;0.6
G92 E0

G1 E-.56 F1800
;WIPE_START
G1 F12000
G1 X156.521 Y144.5 E-.24
;WIPE_END
EXCLUDE_OBJECT_END NAME=Fix_antenna_dji_v1.stl_id_0_copy_0
;AFTER_LAYER_CHANGE
;0.6
;_SET_FAN_SPEED_CHANGING_LAYER
; printing object Fix_antenna_dji v1.stl id:0 copy 0
SET_VELOCITY_LIMIT ACCEL=7000 ACCEL_TO_DECEL=3500
EXCLUDE_OBJECT_START NAME=Fix_antenna_dji_v1.stl_id_0_copy_0
G1 Z.8 F21000
G1 X141.69 Y145.055 Z.8
G1 Z.6
G1 E.8 F1800
SET_VELOCITY_LIMIT ACCEL=5000 ACCEL_TO_DECEL=2500
G1 F1989
G1 X141.5 Y145.479 E.01621
G1 X141.477 Y144.477 E.03501
;WIDTH:0.425192
G1 X141.668 Y144.477 E.00595
;WIDTH:0.455852
G1 X141.988 Y144.492 E.01078
;WIDTH:0.486512
G1 X142.308 Y144.507 E.01159
G1 X142.056 Y144.655 E.01058
;WIDTH:0.455852
G1 X141.803 Y144.803 E.00985
;WIDTH:0.471684
G1 X141.706 Y145.019 E.00826
SET_VELOCITY_LIMIT ACCEL=7000 ACCEL_TO_DECEL=3500
G1 E-.56 F1800
;WIPE_START
G1 F12000
G1 X141.5 Y145.479 E-.12097
G1 X141.488 Y144.983 E-.11903
;WIPE_END
G1 Z1 F21000
G1 X157.521 Y144.5 Z1
G1 Z.6
G1 E.8 F1800
SET_VELOCITY_LIMIT ACCEL=5000 ACCEL_TO_DECEL=2500
G1 F1989
G1 X158.523 Y144.477 E.03501
;WIDTH:0.425192
G1 X158.523 Y144.668 E.00595
;WIDTH:0.471682
G1 X158.5 Y145.479 E.02833
;WIDTH:0.471684
G1 X158.197 Y144.803 E.02587
G1 X157.558 Y144.516 E.02447
SET_VELOCITY_LIMIT ACCEL=7000 ACCEL_TO_DECEL=3500
M73 P3 R11
G1 E-.56 F1800
;WIPE_START
G1 F12000
G1 X158.523 Y144.477 E-.23186
G1 X158.523 Y144.511 E-.00814
;WIPE_END
G1 Z1 F21000
G1 X158.918 Y155.918 Z1
G1 Z.6
G1 E.8 F1800
SET_VELOCITY_LIMIT ACCEL=5000 ACCEL_TO_DECEL=2500
;WIDTH:0.449999
G1 F1989
G1 X157.749 Y155.918 E.03877
G1 X158.082 Y155.521 E.01717
G1 X158.082 Y145.479 E.33314
G1 X157.918 Y145.082 E.01423
G1 X157.521 Y144.918 E.01423
G1 X142.479 Y144.918 E.499
M73 P3 R10
G1 X142.382 Y144.926 E.00323
G1 X142.082 Y145.082 E.0112
G1 X141.918 Y145.479 E.01423
G1 X141.918 Y155.521 E.33314
G1 X142.314 Y155.918 E.0186
G1 X141.082 Y155.918 E.04088
G1 X141.082 Y144.082 E.39262
G1 X157.521 Y144.082 E.54532
G1 X158.918 Y144.082 E.04632
G1 X158.918 Y155.878 E.39129
SET_VELOCITY_LIMIT ACCEL=7000 ACCEL_TO_DECEL=3500
G1 X159.3 Y156.3 F21000
SET_VELOCITY_LIMIT ACCEL=3000 ACCEL_TO_DECEL=1500
;TYPE:Outer wall
;WIDTH:0.399999
G1 F1989
G1 X158.479 Y156.3 E.0239
;WIDTH:0.440486
G1 X158.16 Y156.28 E.01036
;WIDTH:0.480973
G1 X157.84 Y156.26 E.01141
;WIDTH:0.52146
G1 X157.521 Y156.239 E.01247
G1 X142.479 Y156.239 E.5866
G1 X142.16 Y156.26 E.01247
;WIDTH:0.480973
G1 X141.84 Y156.28 E.01141
;WIDTH:0.440486
G1 X141.521 Y156.3 E.01036
;WIDTH:0.399999
G1 X140.7 Y156.3 E.0239
G1 X140.7 Y143.7 E.36663
G1 X157.521 Y143.7 E.48946
G1 X159.3 Y143.7 E.05175
G1 X159.3 Y156.26 E.36546
SET_VELOCITY_LIMIT ACCEL=7000 ACCEL_TO_DECEL=3500
G1 E-.56 F1800
;WIPE_START
G1 F7200
G1 X158.479 Y156.3 E-.19738
G1 X158.301 Y156.289 E-.04262
;WIPE_END
G1 Z1 F21000
G1 X158.5 Y145.479 Z1
G1 Z.6
G1 E.8 F1800
SET_VELOCITY_LIMIT ACCEL=5000 ACCEL_TO_DECEL=2500
;TYPE:Inner wall
;WIDTH:0.471682
G1 F1989
G1 X158.5 Y155.5 E.35014
SET_VELOCITY_LIMIT ACCEL=7000 ACCEL_TO_DECEL=3500
G1 E-.56 F1800
;WIPE_START
G1 F12000
G1 X158.5 Y154.5 E-.24
;WIPE_END
G1 Z1 F21000
G1 X142.352 Y145.352 Z1
G1 Z.6
G1 E.8 F1800
SET_VELOCITY_LIMIT ACCEL=3000 ACCEL_TO_DECEL=1500
;TYPE:Outer wall
;WIDTH:0.399999
G1 F1989
G1 X142.479 Y145.3 E.00398
G1 X157.521 Y145.3 E.43771
G1 X157.648 Y145.352 E.00398
G1 X157.7 Y145.479 E.00398
G1 X157.7 Y155.521 E.29222
;WIDTH:0.441695
G1 X157.654 Y155.601 E.00297
;WIDTH:0.483391
G1 X157.609 Y155.68 E.00328
;WIDTH:0.525086
G1 X157.563 Y155.759 E.00359
G1 X157.521 Y155.761 E.00164
;WIDTH:0.52146
G1 X142.479 Y155.761 E.5866
G1 X142.419 Y155.674 E.00411
;WIDTH:0.480973
M73 P4 R10
G1 X142.36 Y155.587 E.00376
;WIDTH:0.440486
G1 X142.3 Y155.5 E.00341
;WIDTH:0.399999
G1 X142.3 Y145.479 E.2916
G1 X142.337 Y145.389 E.00281
SET_VELOCITY_LIMIT ACCEL=7000 ACCEL_TO_DECEL=3500
G1 E-.56 F1800
;WIPE_START
G1 F7200
G1 X142.479 Y145.3 E-.04016
G1 X143.311 Y145.3 E-.19984
;WIPE_END
G1 Z1 F21000
G1 X141.5 Y155.5 Z1
G1 Z.6
G1 E.8 F1800
SET_VELOCITY_LIMIT ACCEL=5000 ACCEL_TO_DECEL=2500
;TYPE:Inner wall
;WIDTH:0.471684
G1 F1989
G1 X141.5 Y145.479 E.35014
SET_VELOCITY_LIMIT ACCEL=7000 ACCEL_TO_DECEL=3500
G1 E-.56 F1800
;WIPE_START
G1 F12000
G1 X141.5 Y146.479 E-.24
;WIPE_END
G1 Z1 F21000
G1 X142.308 Y144.507 Z1
G1 Z.6
G1 E.8 F1800
SET_VELOCITY_LIMIT ACCEL=5000 ACCEL_TO_DECEL=2500
;WIDTH:0.486512
G1 F1989
G1 X142.479 Y144.5 E.00616
;WIDTH:0.471684
G1 X157.521 Y144.5 E.52558
; stop printing object Fix_antenna_dji v1.stl id:0 copy 0
;LAYER_CHANGE
;Z:0.8
;HEIGHT:0.2
;BEFORE_LAYER_CHANGE
;0.8
G92 E0

G1 E-.56 F1800
;WIPE_START
G1 F12000
G1 X156.521 Y144.5 E-.24
;WIPE_END
EXCLUDE_OBJECT_END NAME=Fix_antenna_dji_v1.stl_id_0_copy_0
;AFTER_LAYER_CHANGE
;0.8
;_SET_FAN_SPEED_CHANGING_LAYER
; printing object Fix_antenna_dji v1.stl id:0 copy 0
SET_VELOCITY_LIMIT ACCEL=7000 ACCEL_TO_DECEL=3500
EXCLUDE_OBJECT_START NAME=Fix_antenna_dji_v1.stl_id_0_copy_0
G1 Z1 F21000
G1 X141.69 Y145.055 Z1
G1 Z.8
G1 E.8 F1800
SET_VELOCITY_LIMIT ACCEL=5000 ACCEL_TO_DECEL=2500
G1 F1985
G1 X141.5 Y145.479 E.01621
G1 X141.477 Y144.477 E.03501
;WIDTH:0.425192
G1 X141.668 Y144.477 E.00595
;WIDTH:0.455852
G1 X141.988 Y144.492 E.01078
;WIDTH:0.486512
G1 X142.308 Y144.507 E.01159
G1 X142.056 Y144.655 E.01058
;WIDTH:0.455852
G1 X141.803 Y144.803 E.00985
;WIDTH:0.471684
G1 X141.706 Y145.019 E.00826
SET_VELOCITY_LIMIT ACCEL=7000 ACCEL_TO_DECEL=3500
G1 E-.56 F1800
;WIPE_START
G1 F12000
G1 X141.5 Y145.479 E-.12097
G1 X141.488 Y144.983 E-.11903
;WIPE_END
G1 Z1.2 F21000
G1 X157.521 Y144.5 Z1.2
G1 Z.8
G1 E.8 F1800
SET_VELOCITY_LIMIT ACCEL=5000 ACCEL_TO_DECEL=2500
;WIDTH:0.471682
G1 F1985
G1 X158.523 Y144.477 E.03501
;WIDTH:0.425192
G1 X158.523 Y144.668 E.00595
;WIDTH:0.471682
G1 X158.5 Y145.479 E.02833
G1 X158.197 Y144.803 E.02587
G1 X157.558 Y144.516 E.02447
SET_VELOCITY_LIMIT ACCEL=7000 ACCEL_TO_DECEL=3500
G1 E-.56 F1800
;WIPE_START
G1 F12000
G1 X158.523 Y144.477 E-.23186
G1 X158.523 Y144.511 E-.00814
;WIPE_END
G1 Z1.2 F21000
G1 X158.918 Y155.918 Z1.2
G1 Z.8
G1 E.8 F1800
SET_VELOCITY_LIMIT ACCEL=5000 ACCEL_TO_DECEL=2500
;WIDTH:0.449999
G1 F1985
G1 X157.749 Y155.918 E.03877
G1 X158.082 Y155.521 E.01717
G1 X158.082 Y145.479 E.33314
G1 X157.918 Y145.082 E.01423
G1 X157.521 Y144.918 E.01423
G1 X142.479 Y144.918 E.499
G1 X142.382 Y144.926 E.00323
G1 X142.082 Y145.082 E.0112
G1 X141.918 Y145.479 E.01423
G1 X141.918 Y155.521 E.33314
G1 X142.314 Y155.918 E.0186
G1 X141.082 Y155.918 E.04088
G1 X141.082 Y144.082 E.39262
G1 X158.918 Y144.082 E.59165
G1 X158.918 Y144.668 E.01943
G1 X158.918 Y155.878 E.37186
SET_VELOCITY_LIMIT ACCEL=7000 ACCEL_TO_DECEL=3500
G1 X159.3 Y156.3 F21000
SET_VELOCITY_LIMIT ACCEL=3000 ACCEL_TO_DECEL=1500
;TYPE:Outer wall
;WIDTH:0.399999
G1 F1985
G1 X158.479 Y156.3 E.0239
;WIDTH:0.440486
G1 X158.16 Y156.28 E.01036
;WIDTH:0.480973
G1 X157.84 Y156.26 E.01141
;WIDTH:0.52146
G1 X157.521 Y156.239 E.01247
G1 X142.479 Y156.239 E.5866
G1 X142.16 Y156.26 E.01247
;WIDTH:0.480973
G1 X141.84 Y156.28 E.01141
;WIDTH:0.440486
G1 X141.521 Y156.3 E.01036
;WIDTH:0.399999
G1 X140.7 Y156.3 E.0239
G1 X140.7 Y143.7 E.36663
G1 X159.3 Y143.7 E.54121
G1 X159.3 Y144.668 E.02816
G1 X159.3 Y156.26 E.3373
SET_VELOCITY_LIMIT ACCEL=7000 ACCEL_TO_DECEL=3500
M73 P5 R10
G1 E-.56 F1800
;WIPE_START
G1 F7200
G1 X158.479 Y156.3 E-.19738
G1 X158.301 Y156.289 E-.04262
;WIPE_END
G1 Z1.2 F21000
G1 X158.5 Y145.479 Z1.2
G1 Z.8
G1 E.8 F1800
