; HEADER_BLOCK_START
; generated by OrcaSlicer 1.8.0-beta1 on 2024-06-08 at 20:26:03
; total layer number: 15
; HEADER_BLOCK_END


;
;
; external perimeters extrusion width = 0.40mm
; perimeters extrusion width = 0.45mm
; infill extrusion width = 0.45mm
; solid infill extrusion width = 0.40mm
; top infill extrusion width = 0.40mm
; first layer extrusion width = 0.50mm

; external perimeters extrusion width = 0.40mm
; perimeters extrusion width = 0.45mm
; infill extrusion width = 0.45mm
; solid infill extrusion width = 0.40mm
; top infill extrusion width = 0.40mm
; first layer extrusion width = 0.50mm

; EXECUTABLE_BLOCK_START
EXCLUDE_OBJECT_DEFINE NAME=Grade_ventilador_40mm.stl_id_0_copy_0 CENTER=150,171 POLYGON=[[130,153.076],[130.102,152.434],[130.397,151.856],[130.856,151.397],[131.434,151.102],[132.075,151],[167.925,151],[168.719,151.158],[169.392,151.608],[169.842,152.282],[170,153.076],[169.999,188.924],[169.842,189.718],[169.392,190.392],[168.719,190.842],[167.925,190.999],[167.281,191],[132.075,191],[131.434,190.898],[130.856,190.603],[130.397,190.144],[130.102,189.566],[130,188.924],[130,153.076]]
EXCLUDE_OBJECT_DEFINE NAME=Grade_ventilador_40mm.stl_id_1_copy_0 CENTER=150,129 POLYGON=[[130,111.076],[130.102,110.434],[130.397,109.856],[130.856,109.397],[131.434,109.102],[132.075,109],[167.925,109],[168.719,109.158],[169.392,109.608],[169.842,110.282],[170,111.076],[169.999,146.924],[169.842,147.718],[169.392,148.392],[168.719,148.842],[167.925,148.999],[167.281,149],[132.075,149],[131.434,148.898],[130.856,148.603],[130.397,148.144],[130.102,147.566],[130,146.924],[130,111.076]]
M73 P0 R31
;TYPE:Custom
M190 S70
M109 S220
PRINT_START EXTRUDER=220 BED=70
G90
G21
M83 ; use relative distances for extrusion
; filament start gcode
M106 S0
;LAYER_CHANGE
;Z:0.2
;HEIGHT:0.2
;BEFORE_LAYER_CHANGE
;0.2
G92 E0

G1 E-.8 F1800
;AFTER_LAYER_CHANGE
;0.2
;_SET_FAN_SPEED_CHANGING_LAYER
SET_VELOCITY_LIMIT ACCEL=500 ACCEL_TO_DECEL=250
; printing object Grade_ventilador_40mm.stl id:0 copy 0
EXCLUDE_OBJECT_START NAME=Grade_ventilador_40mm.stl_id_0_copy_0
G1 Z.4 F21000
G1 X133.095 Y156.246
G1 Z.4
G1 Z.2
G1 E.8 F1800
;TYPE:Outer wall
;WIDTH:0.548065
G1 F3000
G1 X133.453 Y156.234 E.01476
;WIDTH:0.585534
G1 X133.811 Y156.222 E.01585
G1 X133.803 Y156.279 E.00252
;WIDTH:0.545012
G1 X133.795 Y156.335 E.00233
;WIDTH:0.504489
G1 X133.787 Y156.391 E.00214
;WIDTH:0.463966
G1 X133.778 Y156.447 E.00195
;WIDTH:0.423443
G1 X133.77 Y156.504 E.00176
;WIDTH:0.38292
G1 X133.156 Y157.568 E.03405
;WIDTH:0.425862
G1 X133.108 Y157.651 E.00298
G1 X133.012 Y157.65 E.00298
;WIDTH:0.38292
G1 X131.488 Y157.65 E.04225
;WIDTH:0.42653
G1 X131.392 Y157.65 E.003
G1 X131.244 Y157.906 E.0092
G1 E-.56 F1800
;WIPE_START
G1 F3000
G1 X131.392 Y157.65 E-.07067
G1 X131.488 Y157.65 E-.02304
G1 X132.097 Y157.65 E-.14629
;WIPE_END
G1 Z.6 F21000
G1 X133.108 Y157.651 Z.6
G1 Z.2
G1 E.8 F1800
;WIDTH:0.425862
G1 F3000
G1 X133.156 Y157.734 E.003
;WIDTH:0.38292
G1 X133.925 Y159.067 E.04264
;WIDTH:0.425866
G1 X133.966 Y159.138 E.00255
G1 X134.062 Y159.138 E.00298
;WIDTH:0.38292
G1 X135.586 Y159.138 E.04225
;WIDTH:0.426534
G1 X135.682 Y159.138 E.003
G1 X135.73 Y159.054 E.00301
;WIDTH:0.38292
G1 X136.493 Y157.734 E.04224
;WIDTH:0.426532
G1 X136.541 Y157.651 E.00299
G1 X136.493 Y157.568 E.00299
;WIDTH:0.38292
G1 X135.73 Y156.247 E.04224
;WIDTH:0.426532
G1 X135.682 Y156.164 E.00298
G1 E-.56 F1800
;WIPE_START
G1 F3000
G1 X135.73 Y156.247 E-.02291
G1 X136.183 Y157.03 E-.21709
;WIPE_END
G1 Z.6 F21000
G1 X133.974 Y156.118 Z.6
G1 Z.2
G1 E.8 F1800
;WIDTH:0.543979
G1 F3000
G1 X133.893 Y156.17 E.00395
;WIDTH:0.585534
G1 X133.811 Y156.222 E.00427
G1 E-.56 F1800
;WIPE_START
G1 F3000
G1 X133.893 Y156.17 E-.12
G1 X133.974 Y156.118 E-.12
;WIPE_END
G1 E0 F1800
G1 Z.6 F21000
G1 X135.195 Y154.185 Z.6
G1 Z.2
G1 E.8 F1800
;WIDTH:0.61159
G1 F3000
G1 X135.18 Y154.397 E.00986
;WIDTH:0.581003
G1 X135.165 Y154.609 E.00933
;WIDTH:0.572246
G1 X135.066 Y155.051 E.01955
G1 X134.91 Y155.307 E.01291
;WIDTH:0.546722
G1 X134.755 Y155.563 E.01229
;WIDTH:0.570605
G1 X134.623 Y155.73 E.00915
;WIDTH:0.620012
G1 X134.49 Y155.896 E.01
;WIDTH:0.655828
G1 X134.476 Y155.927 E.00169
;WIDTH:0.691644
G1 X134.462 Y155.958 E.00178
;WIDTH:0.72746
G1 X134.449 Y155.988 E.00188
G1 X134.5 Y156.013 E.0032
;WIDTH:0.67824
G1 X134.552 Y156.039 E.00297
;WIDTH:0.62902
G1 X134.603 Y156.064 E.00274
;WIDTH:0.5798
G1 X134.655 Y156.089 E.00251
;WIDTH:0.53058
G1 X134.706 Y156.114 E.00228
;WIDTH:0.48136
G1 X134.758 Y156.139 E.00205
;WIDTH:0.43214
G1 X134.809 Y156.164 E.00182
;WIDTH:0.38292
G1 X135.586 Y156.164 E.02153
;WIDTH:0.426532
G1 X135.682 Y156.164 E.003
G1 X135.73 Y156.081 E.00301
;WIDTH:0.38292
G1 X136.493 Y154.761 E.04223
;WIDTH:0.426534
G1 X136.541 Y154.679 E.00298
G1 X136.493 Y154.595 E.00301
;WIDTH:0.38292
G1 X135.728 Y153.27 E.04238
G1 X135.365 Y152.702 F21000
;TYPE:Inner wall
;WIDTH:0.499999
G1 F3000
G1 X135.302 Y152.719 E.00244
G1 X135.027 Y152.871 E.0117
G1 X134.815 Y152.66 E.01116
G1 X134.444 Y152.397 E.01693
G1 X134.033 Y152.213 E.01677
G1 X133.592 Y152.123 E.01677
;WIDTH:0.47563
G1 X133.147 Y152.114 E.01571
;WIDTH:0.496364
G1 X132.695 Y152.176 E.01683
;WIDTH:0.499999
G1 X132.281 Y152.331 E.0165
G1 X131.89 Y152.573 E.01711
G1 X131.56 Y152.885 E.01691
G1 X131.269 Y153.301 E.01893
G1 X131.082 Y153.795 E.01966
;WIDTH:0.48502
G1 X131.061 Y154.177 E.01379
;WIDTH:0.450951
G1 X131.039 Y154.559 E.01272
;WIDTH:0.45686
G1 X131.095 Y155.002 E.01507
;WIDTH:0.502305
G1 X131.15 Y155.192 E.00737
;WIDTH:0.54775
G1 X131.204 Y155.381 E.0081
;WIDTH:0.593195
G1 X131.258 Y155.57 E.00883
;WIDTH:0.626569
G1 X131.479 Y155.916 E.01952
G1 X130.959 Y156.253 E.02945
G1 X130.77 Y156.442 E.0127
G1 X130.754 Y155.722 E.03423
;WIDTH:0.593195
G1 X130.735 Y155.553 E.00764
;WIDTH:0.556249
G1 X130.717 Y155.384 E.00713
;WIDTH:0.519302
G1 X130.698 Y155.214 E.00662
;WIDTH:0.482355
G1 X130.683 Y154.959 E.00915
;WIDTH:0.452766
G1 X130.669 Y154.704 E.00853
;WIDTH:0.425134
G1 X130.67 Y154.075 E.01958
;WIDTH:0.462567
G1 X130.688 Y153.672 E.01382
;WIDTH:0.499999
G1 X130.707 Y153.268 E.01505
G1 X130.773 Y152.717 E.02067
G1 X130.946 Y152.336 E.01557
G1 X131.23 Y152.023 E.01575
G1 X131.599 Y151.811 E.01587
G1 X132.131 Y151.707 E.02017
G1 X132.649 Y151.705 E.0193
;WIDTH:0.496364
G1 X133.46 Y151.691 E.02996
;WIDTH:0.499999
G1 X134.134 Y151.707 E.02511
G1 X135.94 Y151.707 E.06727
G1 X135.385 Y152.668 E.04131
G1 X135.102 Y152.151 F21000
;WIDTH:0.59321
G1 F3000
G1 X135.033 Y152.151 E.00308
G1 X134.999 Y152.211 E.00308
G1 X135.033 Y152.27 E.00308
G1 X135.102 Y152.27 E.00308
G1 X135.136 Y152.211 E.00308
G1 E-.56 F1800
;WIPE_START
G1 F3000
G1 X135.102 Y152.27 E-.048
G1 X135.033 Y152.27 E-.048
G1 X134.999 Y152.211 E-.048
G1 X135.033 Y152.151 E-.048
G1 X135.102 Y152.151 E-.048
;WIPE_END
G1 Z.6 F21000
G1 X136.541 Y154.679 Z.6
G1 Z.2
G1 E.8 F1800
;TYPE:Outer wall
;WIDTH:0.426534
G1 F3000
G1 X136.637 Y154.679 E.003
;WIDTH:0.38292
G1 X138.176 Y154.679 E.04265
;WIDTH:0.426534
G1 X138.257 Y154.679 E.00255
G1 E-.56 F1800
;WIPE_START
G1 F3000
G1 X138.176 Y154.679 E-.01956
G1 X137.257 Y154.679 E-.22044
;WIPE_END
G1 Z.6 F21000
G1 X139.116 Y153.192 Z.6
G1 Z.2
G1 E.8 F1800
;WIDTH:0.426532
G1 F3000
G1 X139.068 Y153.109 E.003
;WIDTH:0.38292
G1 X138.464 Y152.062 E.03348
G1 E-.56 F1800
;WIPE_START
G1 F3000
G1 X138.963 Y152.928 E-.24
;WIPE_END
G1 Z.6 F21000
G1 X140.832 Y153.192 Z.6
G1 Z.2
G1 E.8 F1800
;WIDTH:0.426536
G1 F3000
G1 X140.736 Y153.192 E.003
;WIDTH:0.38292
G1 X139.197 Y153.192 E.04265
;WIDTH:0.426532
G1 X139.116 Y153.192 E.00255
G1 X139.068 Y153.275 E.00301
;WIDTH:0.38292
G1 X138.298 Y154.608 E.04264
;WIDTH:0.426534
G1 X138.257 Y154.679 E.00255
G1 X138.305 Y154.761 E.00299
;WIDTH:0.38292
G1 X139.075 Y156.094 E.04263
;WIDTH:0.426532
G1 X139.116 Y156.164 E.00255
G1 E-.56 F1800
;WIPE_START
G1 F3000
G1 X139.075 Y156.094 E-.01957
G1 X138.616 Y155.298 E-.22043
;WIPE_END
G1 Z.6 F21000
G1 X141.691 Y157.651 Z.6
G1 Z.2
G1 E.8 F1800
G1 F3000
G1 X141.643 Y157.734 E.00301
;WIDTH:0.38292
G1 X140.873 Y159.067 E.04264
;WIDTH:0.426534
G1 X140.832 Y159.138 E.00255
G1 X140.736 Y159.138 E.003
;WIDTH:0.38292
G1 X139.197 Y159.138 E.04265
;WIDTH:0.426534
G1 X139.116 Y159.138 E.00255
G1 X139.068 Y159.054 E.00301
;WIDTH:0.38292
G1 X138.305 Y157.734 E.04224
;WIDTH:0.426532
G1 X138.257 Y157.651 E.00299
G1 X138.305 Y157.568 E.00299
;WIDTH:0.38292
G1 X139.068 Y156.247 E.04224
;WIDTH:0.426532
G1 X139.116 Y156.164 E.00298
G1 X139.212 Y156.164 E.003
;WIDTH:0.38292
G1 X140.736 Y156.164 E.04225
;WIDTH:0.42653
G1 X140.832 Y156.164 E.003
G1 X140.88 Y156.247 E.00299
;WIDTH:0.38292
G1 X141.65 Y157.58 E.04264
;WIDTH:0.426532
G1 X141.671 Y157.616 E.00128
G1 E-.56 F1800
;WIPE_START
G1 F3000
G1 X141.643 Y157.734 E-.02914
G1 X141.203 Y158.495 E-.21086
;WIPE_END
G1 Z.6 F21000
G1 X138.257 Y157.651 Z.6
G1 Z.2
G1 E.8 F1800
G1 F3000
G1 X138.161 Y157.65 E.003
;WIDTH:0.38292
G1 X136.622 Y157.651 E.04265
;WIDTH:0.426532
G1 X136.541 Y157.651 E.00255
G1 E-.56 F1800
;WIPE_START
G1 F3000
G1 X136.622 Y157.651 E-.01956
G1 X137.541 Y157.651 E-.22044
;WIPE_END
G1 Z.6 F21000
G1 X135.682 Y159.138 Z.6
G1 Z.2
G1 E.8 F1800
;WIDTH:0.426534
G1 F3000
G1 X135.73 Y159.22 E.00299
;WIDTH:0.38292
G1 X136.5 Y160.554 E.04265
;WIDTH:0.42653
G1 X136.541 Y160.625 E.00255
G1 X136.637 Y160.624 E.003
;WIDTH:0.38292
G1 X138.176 Y160.625 E.04265
;WIDTH:0.42653
G1 X138.257 Y160.625 E.00255
G1 X138.305 Y160.541 E.00301
;WIDTH:0.38292
G1 X139.068 Y159.22 E.04225
;WIDTH:0.426534
G1 X139.116 Y159.138 E.00298
G1 E-.56 F1800
;WIPE_START
G1 F3000
G1 X139.068 Y159.22 E-.0229
G1 X138.616 Y160.004 E-.2171
;WIPE_END
G1 Z.6 F21000
G1 X140.832 Y159.138 Z.6
G1 Z.2
G1 E.8 F1800
G1 F3000
G1 X140.88 Y159.22 E.00299
;WIDTH:0.38292
G1 X141.65 Y160.554 E.04265
;WIDTH:0.42653
G1 X141.691 Y160.625 E.00255
G1 E-.56 F1800
;WIPE_START
G1 F3000
G1 X141.65 Y160.554 E-.01957
G1 X141.191 Y159.758 E-.22043
;WIPE_END
G1 Z.6 F21000
G1 X140.832 Y162.11 Z.6
G1 Z.2
G1 E.8 F1800
G1 F3000
G1 X140.736 Y162.11 E.003
;WIDTH:0.38292
G1 X139.197 Y162.111 E.04265
;WIDTH:0.426532
G1 X139.116 Y162.11 E.00255
G1 X139.068 Y162.194 E.00301
;WIDTH:0.38292
G1 X138.298 Y163.527 E.04264
;WIDTH:0.426532
G1 X138.257 Y163.598 E.00255
G1 E-.56 F1800
;WIPE_START
G1 F3000
G1 X138.298 Y163.527 E-.01957
G1 X138.757 Y162.731 E-.22043
;WIPE_END
G1 Z.6 F21000
G1 X139.116 Y165.084 Z.6
G1 Z.2
G1 E.8 F1800
G1 F3000
G1 X139.068 Y165.001 E.00299
;WIDTH:0.38292
G1 X138.305 Y163.68 E.04224
;WIDTH:0.426532
G1 X138.257 Y163.598 E.00298
G1 X138.161 Y163.598 E.003
;WIDTH:0.38292
G1 X136.622 Y163.598 E.04265
;WIDTH:0.426532
G1 X136.541 Y163.598 E.00255
G1 X136.493 Y163.68 E.00299
;WIDTH:0.38292
G1 X135.723 Y165.013 E.04264
;WIDTH:0.426532
G1 X135.682 Y165.084 E.00253
G1 X135.73 Y165.167 E.00301
;WIDTH:0.38292
G1 X136.5 Y166.5 E.04264
;WIDTH:0.426532
G1 X136.541 Y166.571 E.00255
G1 E-.56 F1800
;WIPE_START
G1 F3000
G1 X136.5 Y166.5 E-.01957
G1 X136.041 Y165.704 E-.22043
;WIPE_END
G1 Z.6 F21000
G1 X135.682 Y168.057 Z.6
G1 Z.2
G1 E.8 F1800
G1 F3000
G1 X135.586 Y168.057 E.003
;WIDTH:0.38292
G1 X134.047 Y168.057 E.04265
;WIDTH:0.425866
G1 X133.966 Y168.057 E.00252
G1 E-.56 F1800
;WIPE_START
G1 F3000
G1 X134.047 Y168.057 E-.0194
G1 X134.966 Y168.057 E-.2206
;WIPE_END
G1 Z.6 F21000
G1 X133.108 Y169.544 Z.6
G1 Z.2
G1 E.8 F1800
G1 F3000
G1 X133.156 Y169.46 E.003
;WIDTH:0.38292
G1 X133.918 Y168.14 E.04224
;WIDTH:0.425866
G1 X133.966 Y168.057 E.003
G1 X133.918 Y167.973 E.003
;WIDTH:0.38292
G1 X133.156 Y166.653 E.04224
;WIDTH:0.425864
G1 X133.108 Y166.571 E.00297
G1 X133.012 Y166.571 E.00298
;WIDTH:0.38292
G1 X131.473 Y166.571 E.04265
;WIDTH:0.426532
G1 X131.392 Y166.571 E.00255
G1 X131.211 Y166.26 E.01122
G1 E-.56 F1800
;WIPE_START
G1 F3000
G1 X131.392 Y166.571 E-.08611
G1 X131.473 Y166.571 E-.01956
G1 X132.033 Y166.571 E-.13433
;WIPE_END
G1 Z.6 F21000
G1 X131.227 Y163.882 Z.6
G1 Z.2
G1 E.8 F1800
G1 F3000
G1 X131.392 Y163.598 E.01029
G1 X131.488 Y163.598 E.003
;WIDTH:0.38292
G1 X133.012 Y163.598 E.04224
;WIDTH:0.425864
G1 X133.108 Y163.598 E.00298
G1 X133.156 Y163.514 E.003
;WIDTH:0.38292
G1 X133.918 Y162.194 E.04224
;WIDTH:0.425866
G1 X133.966 Y162.11 E.003
G1 X133.918 Y162.027 E.003
;WIDTH:0.38292
G1 X133.156 Y160.707 E.04224
;WIDTH:0.425862
G1 X133.108 Y160.625 E.00297
G1 X133.012 Y160.624 E.00298
;WIDTH:0.38292
G1 X131.473 Y160.625 E.04265
;WIDTH:0.42653
G1 X131.392 Y160.624 E.00255
G1 X131.211 Y160.314 E.01122
G1 E-.56 F1800
;WIPE_START
G1 F3000
G1 X131.392 Y160.624 E-.08611
G1 X131.473 Y160.625 E-.01956
G1 X132.033 Y160.625 E-.13433
;WIPE_END
G1 Z.6 F21000
G1 X133.108 Y160.625 Z.6
G1 Z.2
G1 E.8 F1800
;WIDTH:0.425862
G1 F3000
G1 X133.156 Y160.541 E.003
;WIDTH:0.38292
G1 X133.918 Y159.22 E.04227
;WIDTH:0.425866
G1 X133.966 Y159.138 E.00297
G1 E-.56 F1800
;WIPE_START
G1 F3000
G1 X133.918 Y159.22 E-.02286
G1 X133.466 Y160.003 E-.21714
;WIPE_END
G1 Z.6 F21000
G1 X133.966 Y162.11 Z.6
G1 Z.2
G1 E.8 F1800
G1 F3000
G1 X134.062 Y162.11 E.00298
;WIDTH:0.38292
G1 X135.586 Y162.11 E.04225
;WIDTH:0.426532
G1 X135.682 Y162.11 E.003
G1 X135.73 Y162.028 E.00299
;WIDTH:0.38292
G1 X136.493 Y160.707 E.04224
;WIDTH:0.42653
G1 X136.541 Y160.625 E.00298
G1 E-.56 F1800
;WIPE_START
G1 F3000
G1 X136.493 Y160.707 E-.02291
G1 X136.04 Y161.49 E-.21709
;WIPE_END
G1 Z.6 F21000
G1 X138.257 Y160.625 Z.6
G1 Z.2
G1 E.8 F1800
G1 F3000
G1 X138.305 Y160.707 E.00299
;WIDTH:0.38292
G1 X139.075 Y162.04 E.04264
;WIDTH:0.426532
G1 X139.116 Y162.11 E.00253
G1 E-.56 F1800
;WIPE_START
G1 F3000
G1 X139.075 Y162.04 E-.01946
G1 X138.616 Y161.245 E-.22054
;WIPE_END
G1 Z.6 F21000
G1 X141.691 Y163.598 Z.6
G1 Z.2
G1 E.8 F1800
;WIDTH:0.42653
G1 F3000
G1 X141.643 Y163.68 E.00299
;WIDTH:0.38292
G1 X140.873 Y165.013 E.04264
;WIDTH:0.42653
G1 X140.832 Y165.084 E.00253
G1 E-.56 F1800
;WIPE_START
G1 F3000
G1 X140.873 Y165.013 E-.01946
G1 X141.332 Y164.218 E-.22054
;WIPE_END
G1 Z.6 F21000
G1 X143.407 Y163.598 Z.6
G1 Z.2
G1 E.8 F1800
;WIDTH:0.426532
G1 F3000
G1 X143.455 Y163.68 E.00299
;WIDTH:0.38292
G1 X144.225 Y165.013 E.04264
;WIDTH:0.426532
G1 X144.266 Y165.084 E.00253
G1 X144.362 Y165.084 E.003
;WIDTH:0.38292
G1 X145.886 Y165.084 E.04225
;WIDTH:0.425866
G1 X145.982 Y165.084 E.00298
G1 X146.03 Y165 E.003
;WIDTH:0.38292
G1 X146.792 Y163.68 E.04224
;WIDTH:0.425864
G1 X146.84 Y163.598 E.00297
G1 E-.56 F1800
;WIPE_START
G1 F3000
G1 X146.792 Y163.68 E-.02287
G1 X146.34 Y164.463 E-.21713
;WIPE_END
G1 Z.6 F21000
G1 X146.84 Y160.625 Z.6
G1 Z.2
G1 E.8 F1800
G1 F3000
G1 X146.936 Y160.624 E.00298
;WIDTH:0.38292
G1 X148.475 Y160.625 E.04265
;WIDTH:0.42653
G1 X148.556 Y160.625 E.00255
G1 X148.604 Y160.707 E.00299
;WIDTH:0.38292
G1 X149.374 Y162.04 E.04264
;WIDTH:0.426532
G1 X149.415 Y162.11 E.00253
G1 X149.367 Y162.194 E.00301
;WIDTH:0.38292
G1 X148.597 Y163.527 E.04264
;WIDTH:0.42653
G1 X148.556 Y163.598 E.00255
G1 X148.46 Y163.598 E.003
;WIDTH:0.38292
G1 X146.936 Y163.598 E.04225
;WIDTH:0.425864
G1 X146.84 Y163.598 E.00298
G1 X146.792 Y163.514 E.003
;WIDTH:0.38292
G1 X146.03 Y162.194 E.04224
;WIDTH:0.425866
G1 X145.982 Y162.11 E.003
G1 X146.03 Y162.027 E.003
;WIDTH:0.38292
G1 X146.792 Y160.707 E.04224
;WIDTH:0.425864
G1 X146.82 Y160.659 E.00173
G1 E-.56 F1800
;WIPE_START
G1 F3000
G1 X146.936 Y160.624 E-.02892
G1 X147.815 Y160.625 E-.21108
;WIPE_END
G1 Z.6 F21000
G1 X148.556 Y163.598 Z.6
G1 Z.2
G1 E.8 F1800
;WIDTH:0.42653
G1 F3000
G1 X148.604 Y163.68 E.00299
;WIDTH:0.38292
G1 X149.374 Y165.013 E.04264
;WIDTH:0.42653
G1 X149.415 Y165.084 E.00253
G1 X149.511 Y165.084 E.003
;WIDTH:0.38292
G1 X151.035 Y165.084 E.04225
;WIDTH:0.425866
G1 X151.131 Y165.084 E.00298
G1 X151.179 Y165 E.003
;WIDTH:0.38292
G1 X151.941 Y163.68 E.04224
;WIDTH:0.425864
G1 X151.989 Y163.598 E.00297
G1 X151.941 Y163.514 E.003
;WIDTH:0.38292
G1 X151.179 Y162.194 E.04224
;WIDTH:0.425866
G1 X151.131 Y162.11 E.003
G1 X151.035 Y162.11 E.00298
;WIDTH:0.38292
G1 X149.496 Y162.111 E.04265
;WIDTH:0.426532
G1 X149.415 Y162.11 E.00255
G1 E-.56 F1800
;WIPE_START
G1 F3000
G1 X149.496 Y162.111 E-.01956
G1 X150.415 Y162.111 E-.22044
;WIPE_END
G1 Z.6 F21000
G1 X148.556 Y160.625 Z.6
G1 Z.2
G1 E.8 F1800
;WIDTH:0.42653
G1 F3000
