; HEADER_BLOCK_START
; generated by OrcaSlicer 1.8.0-beta1 on 2024-04-08 at 20:39:09
; total layer number: 16
; HEADER_BLOCK_END


;
;
; external perimeters extrusion width = 0.40mm
; perimeters extrusion width = 0.45mm
; infill extrusion width = 0.45mm
; solid infill extrusion width = 0.40mm
; top infill extrusion width = 0.40mm
; first layer extrusion width = 0.50mm

; EXECUTABLE_BLOCK_START
EXCLUDE_OBJECT_DEFINE NAME=PaintPallette.STL_id_0_copy_0 CENTER=150,150 POLYGON=[[86.5078,150],[86.5705,148.109],[86.6057,147.637],[86.7581,146.226],[86.8986,145.29],[87.07,144.36],[87.3846,142.976],[87.5047,142.518],[88.0602,140.71],[88.7343,138.942],[88.921,138.507],[89.5239,137.222],[89.9609,136.383],[90.4255,135.559],[91.173,134.352],[91.4353,133.959],[92.5487,132.429],[93.761,130.976],[122.835,97.5615],[123.319,97.0196],[124.671,95.63],[126.105,94.3251],[126.662,93.8585],[127.615,93.1096],[128.794,92.2595],[129.196,91.9882],[130.842,90.9649],[131.052,90.8441],[132.548,90.0436],[133.421,89.6222],[134.306,89.2275],[135.883,88.6022],[136.111,88.5198],[137.955,87.923],[138.422,87.7914],[139.833,87.4394],[141.02,87.1954],[141.736,87.0707],[143.658,86.8183],[146.479,86.5982],[147.669,86.5431],[149.306,86.5039],[151.689,86.5223],[152.136,86.5357],[154.961,86.6935],[155.703,86.7559],[157.776,86.977],[159.693,87.243],[160.575,87.3855],[163.354,87.9184],[163.645,87.9817],[166.106,88.5746],[167.542,88.969],[168.827,89.3527],[171.369,90.2009],[171.51,90.2512],[174.15,91.2683],[175.111,91.6726],[176.742,92.4021],[178.751,93.378],[179.281,93.6501],[181.762,95.0101],[182.277,95.3104],[184.18,96.4792],[185.673,97.462],[186.531,98.0546],[188.808,99.7331],[188.926,99.8242],[191.009,101.511],[192.023,102.388],[193.128,103.386],[194.952,105.142],[195.162,105.353],[197.106,107.409],[197.701,108.076],[198.957,109.549],[200.258,111.178],[200.71,111.77],[202.363,114.066],[202.614,114.436],[203.911,116.434],[204.759,117.836],[205.353,118.869],[206.685,121.365],[207.904,123.918],[208.383,125.009],[209.009,126.523],[209.848,128.753],[209.996,129.175],[210.864,131.868],[211.072,132.582],[211.611,134.596],[212.052,136.482],[212.236,137.356],[212.738,140.14],[212.783,140.435],[213.115,142.945],[213.263,144.426],[213.366,145.763],[213.489,148.44],[213.492,148.589],[213.492,151.419],[213.46,152.461],[213.366,154.245],[213.177,156.471],[213.114,157.063],[212.736,159.867],[212.641,160.456],[212.235,162.652],[211.854,164.398],[211.609,165.411],[210.862,168.14],[210.819,168.283],[209.993,170.833],[209.54,172.094],[209.006,173.484],[208.023,175.817],[207.901,176.089],[206.681,178.642],[206.273,179.437],[205.349,181.138],[204.297,182.938],[203.907,183.573],[202.358,185.94],[202.104,186.308],[200.705,188.237],[199.702,189.532],[198.951,190.457],[197.101,192.597],[195.156,194.653],[194.311,195.492],[193.123,196.62],[191.343,198.204],[191.003,198.494],[188.802,200.272],[188.21,200.723],[186.524,201.95],[184.924,203.039],[184.174,203.525],[181.756,204.994],[181.497,205.142],[179.274,206.354],[177.945,207.024],[176.735,207.601],[174.28,208.678],[174.142,208.735],[171.502,209.752],[170.518,210.096],[168.819,210.65],[166.674,211.274],[166.099,211.428],[163.346,212.083],[162.763,212.206],[160.568,212.616],[158.801,212.888],[157.768,213.024],[154.953,213.307],[154.804,213.319],[152.128,213.465],[150.788,213.495],[149.298,213.496],[146.768,213.417],[146.471,213.401],[143.65,213.181],[142.761,213.085],[140.842,212.835],[138.784,212.5],[138.052,212.364],[135.286,211.77],[134.851,211.665],[132.549,211.053],[130.98,210.582],[129.846,210.214],[127.184,209.256],[124.567,208.181],[123.48,207.693],[122.001,206.99],[119.882,205.899],[119.49,205.686],[117.039,204.271],[116.405,203.881],[114.655,202.748],[113.063,201.646],[112.34,201.121],[110.1,199.393],[109.869,199.205],[107.939,197.566],[106.836,196.566],[105.862,195.645],[103.975,193.741],[103.873,193.633],[101.975,191.534],[101.3,190.74],[100.173,189.353],[98.8192,187.576],[98.469,187.094],[96.8677,184.762],[96.544,184.262],[95.372,182.36],[94.483,180.81],[93.9847,179.894],[92.7087,177.369],[92.6446,177.234],[91.5464,174.789],[91.0362,173.55],[90.5001,172.16],[89.6641,169.771],[89.5721,169.488],[88.764,166.776],[88.534,165.913],[88.0774,164.031],[87.6502,161.991],[87.5139,161.259],[87.0744,158.464],[87.0164,158.021],[86.7599,155.652],[86.6351,154.018],[86.5709,152.829],[86.5078,150]]
M73 P0 R39
;TYPE:Custom
M190 S70
M109 S220
PRINT_START EXTRUDER=220 BED=70
G90
G21
M83 ; use relative distances for extrusion
; filament start gcode
M106 S0
;LAYER_CHANGE
;Z:0.2
;HEIGHT:0.2
;BEFORE_LAYER_CHANGE
;0.2
G92 E0

G1 E-.8 F1800
;AFTER_LAYER_CHANGE
;0.2
;_SET_FAN_SPEED_CHANGING_LAYER
SET_VELOCITY_LIMIT ACCEL=500 ACCEL_TO_DECEL=250
; printing object PaintPallette.STL id:0 copy 0
EXCLUDE_OBJECT_START NAME=PaintPallette.STL_id_0_copy_0
G1 Z.4 F21000
G1 X115.294 Y117.943
G1 Z.4
G1 Z.2
G1 E.8 F1800
;TYPE:Inner wall
;WIDTH:0.499999
G1 F3000
G1 X115.329 Y117.881 E.00264
G1 X115.705 Y117.053 E.03386
G1 X116.095 Y115.879 E.04607
G1 X116.24 Y115.317 E.02165
G1 X116.838 Y111.941 E.12767
G1 X117.495 Y109.459 E.09564
G1 X118.356 Y107.04 E.09564
G1 X119.417 Y104.702 E.09564
G1 X120.669 Y102.46 E.09564
G1 X122.104 Y100.33 E.09564
G1 X123.712 Y98.328 E.09564
G1 X125.481 Y96.467 E.09565
G1 X127.365 Y94.79 E.09395
G1 X129.453 Y93.221 E.09727
G1 X131.722 Y91.807 E.09958
G1 X133.911 Y90.679 E.09171
G1 X136.298 Y89.691 E.09622
G1 X138.729 Y88.915 E.09506
G1 X141.277 Y88.333 E.09734
G1 X143.78 Y87.977 E.09417
G1 X147.712 Y87.707 E.14678
G1 X151.686 Y87.687 E.14804
G1 X155.598 Y87.916 E.14594
G1 X159.571 Y88.403 E.14909
G1 X163.395 Y89.119 E.14491
G1 X167.221 Y90.088 E.147
G1 X170.978 Y91.298 E.14701
G1 X174.59 Y92.717 E.14456
G1 X178.225 Y94.417 E.14943
G1 X181.685 Y96.314 E.14698
G1 X185.019 Y98.426 E.147
G1 X188.205 Y100.739 E.14666
G1 X191.189 Y103.206 E.14422
G1 X194.127 Y105.964 E.1501
G1 X196.904 Y108.937 E.15149
G1 X199.364 Y111.927 E.14422
G1 X201.649 Y115.088 E.14527
G1 X203.755 Y118.426 E.147
G1 X205.645 Y121.89 E.147
G1 X207.313 Y125.467 E.147
G1 X208.75 Y129.143 E.147
G1 X209.939 Y132.857 E.14526
G1 X210.914 Y136.73 E.14873
G1 X211.632 Y140.61 E.14697
G1 X212.109 Y144.612 E.15013
G1 X212.324 Y148.469 E.14387
G1 X212.315 Y149.73 E.04696
G1 X212.296 Y152.415 E.10003
G1 X212.015 Y156.389 E.14839
G1 X211.492 Y160.264 E.14561
G1 X210.72 Y164.134 E.147
G1 X209.706 Y167.939 E.14665
G1 X208.448 Y171.689 E.14734
G1 X206.958 Y175.344 E.147
G1 X205.266 Y178.847 E.14491
G1 X203.301 Y182.334 E.14908
G1 X201.148 Y185.642 E.14698
G1 X198.79 Y188.807 E.147
G1 X196.237 Y191.816 E.14701
G1 X193.551 Y194.605 E.14422
G1 X190.585 Y197.32 E.14978
G1 X187.509 Y199.793 E.14698
G1 X184.283 Y202.066 E.147
G1 X180.936 Y204.121 E.14628
G1 X177.357 Y206.015 E.15082
G1 X173.836 Y207.601 E.14384
G1 X170.036 Y209.029 E.15118
G1 X166.333 Y210.159 E.14422
G1 X162.53 Y211.065 E.14562
G1 X158.64 Y211.735 E.147
G1 X154.717 Y212.157 E.14697
G1 X150.68 Y212.331 E.15047
G1 X146.828 Y212.254 E.14353
G1 X142.95 Y211.934 E.14492
G1 X138.99 Y211.354 E.14908
G1 X135.13 Y210.534 E.14697
G1 X131.258 Y209.448 E.14978
G1 X127.603 Y208.17 E.14422
G1 X123.967 Y206.635 E.14701
G1 X120.436 Y204.874 E.14696
G1 X116.912 Y202.822 E.15187
G1 X113.741 Y200.699 E.14214
G1 X110.606 Y198.303 E.14699
G1 X107.567 Y195.655 E.15013
G1 X104.82 Y192.939 E.14388
G1 X102.235 Y190.043 E.14457
G1 X99.758 Y186.887 E.14943
G1 X97.525 Y183.634 E.14697
G1 X95.47 Y180.188 E.14943
G1 X93.697 Y176.735 E.14456
G1 X92.118 Y173.118 E.147
G1 X90.771 Y169.409 E.14697
G1 X89.633 Y165.503 E.15152
G1 X88.794 Y161.771 E.14248
G1 X88.172 Y157.874 E.14699
G1 X87.794 Y153.87 E.14978
G1 X87.673 Y150.006 E.14401
G1 X87.767 Y147.734 E.08471
G1 X88.048 Y145.483 E.08449
G1 X88.514 Y143.262 E.08449
G1 X89.162 Y141.088 E.0845
G1 X89.976 Y139.003 E.0834
G1 X90.985 Y136.938 E.08558
G1 X92.164 Y134.966 E.08558
G1 X93.467 Y133.146 E.0834
G1 X94.936 Y131.415 E.08451
G1 X96.499 Y129.854 E.0823
G1 X98.274 Y128.349 E.08669
G1 X100.122 Y127.033 E.08446
G1 X102.072 Y125.875 E.08449
G1 X104.111 Y124.882 E.08449
G1 X106.226 Y124.06 E.0845
G1 X109.225 Y123.172 E.11651
G1 X110.405 Y122.685 E.04754
G1 X110.976 Y122.398 E.02382
G1 X111.752 Y121.924 E.03386
G1 X112.485 Y121.385 E.03386
G1 X113.169 Y120.787 E.03387
G1 X113.8 Y120.132 E.03386
G1 X114.57 Y119.139 E.04679
G1 X114.884 Y118.674 E.02091
G1 X115.275 Y117.978 E.02973
G1 X114.896 Y117.721 F21000
G1 F3000
G1 X114.914 Y117.69 E.00134
G1 X115.275 Y116.898 E.03242
G1 X115.653 Y115.761 E.04462
G1 X115.79 Y115.237 E.0202
G1 X116.391 Y111.843 E.12838
G1 X117.058 Y109.323 E.09706
G1 X117.932 Y106.869 E.09706
G1 X119.009 Y104.495 E.09706
G1 X120.28 Y102.22 E.09706
G1 X121.736 Y100.059 E.09706
G1 X123.367 Y98.027 E.09706
G1 X125.163 Y96.138 E.09707
G1 X127.075 Y94.436 E.09537
G1 X129.194 Y92.843 E.09872
G1 X131.496 Y91.409 E.10101
G1 X133.719 Y90.264 E.09311
G1 X136.141 Y89.262 E.09764
G1 X138.609 Y88.474 E.09649
G1 X141.193 Y87.883 E.09876
G1 X143.732 Y87.522 E.0955
G1 X147.695 Y87.25 E.14795
G1 X151.698 Y87.23 E.14912
G1 X155.639 Y87.46 E.14702
G1 X159.641 Y87.951 E.15017
G1 X163.493 Y88.673 E.14599
G1 X167.347 Y89.649 E.14808
G1 X171.132 Y90.867 E.14808
G1 X174.771 Y92.297 E.14564
G1 X178.431 Y94.009 E.15051
G1 X181.917 Y95.92 E.14807
G1 X185.276 Y98.047 E.14807
G1 X188.485 Y100.378 E.14773
G1 X191.492 Y102.863 E.14529
G1 X194.451 Y105.641 E.15119
G1 X197.248 Y108.635 E.15259
G1 X199.726 Y111.647 E.14529
G1 X202.028 Y114.832 E.14634
G1 X204.149 Y118.194 E.14808
G1 X206.053 Y121.684 E.14808
G1 X207.733 Y125.287 E.14807
G1 X209.181 Y128.99 E.14808
G1 X210.379 Y132.732 E.14633
G1 X211.361 Y136.632 E.14981
G1 X212.084 Y140.541 E.14806
G1 X212.565 Y144.572 E.15121
G1 X212.781 Y148.458 E.14494
G1 X212.772 Y149.733 E.0475
G1 X212.753 Y152.433 E.10058
G1 X212.47 Y156.436 E.14947
G1 X211.943 Y160.339 E.14668
G1 X211.165 Y164.238 E.14808
G1 X210.144 Y168.07 E.14773
G1 X208.877 Y171.848 E.14842
G1 X207.376 Y175.53 E.14808
G1 X205.671 Y179.059 E.14599
G1 X203.692 Y182.572 E.15016
G1 X201.524 Y185.903 E.14807
G1 X199.148 Y189.091 E.14808
G1 X196.576 Y192.123 E.14808
G1 X193.87 Y194.932 E.14529
G1 X190.882 Y197.667 E.15086
G1 X187.784 Y200.158 E.14806
G1 X184.535 Y202.448 E.14808
G1 X181.163 Y204.519 E.14737
G1 X177.558 Y206.425 E.15191
G1 X174.01 Y208.024 E.14492
G1 X170.183 Y209.461 E.15226
G1 X166.453 Y210.601 E.14529
G1 X162.621 Y211.513 E.14669
G1 X158.703 Y212.188 E.14808
G1 X154.751 Y212.613 E.14806
G1 X150.686 Y212.788 E.15156
G1 X146.804 Y212.711 E.1446
G1 X142.898 Y212.388 E.14599
G1 X138.909 Y211.804 E.15016
G1 X135.02 Y210.978 E.14806
G1 X131.121 Y209.884 E.15086
G1 X127.438 Y208.596 E.14529
G1 X123.775 Y207.051 E.14808
G1 X120.218 Y205.277 E.14805
G1 X116.67 Y203.209 E.15295
G1 X113.475 Y201.071 E.1432
G1 X110.316 Y198.657 E.14807
G1 X107.256 Y195.99 E.15121
G1 X104.488 Y193.254 E.14495
G1 X101.885 Y190.336 E.14564
G1 X99.389 Y187.158 E.15051
G1 X97.14 Y183.88 E.14806
G1 X95.07 Y180.409 E.15051
G1 X93.284 Y176.931 E.14564
G1 X91.693 Y173.288 E.14808
G1 X90.337 Y169.551 E.14806
M73 P0 R38
G1 X89.19 Y165.618 E.1526
G1 X88.345 Y161.857 E.14355
G1 X87.718 Y157.932 E.14807
G1 X87.337 Y153.899 E.15086
G1 X87.215 Y150.004 E.14516
G1 X87.311 Y147.696 E.08604
G1 X87.597 Y145.407 E.0859
G1 X88.071 Y143.15 E.0859
G1 X88.73 Y140.94 E.08591
G1 X89.557 Y138.819 E.0848
G1 X90.583 Y136.72 E.087
G1 X91.781 Y134.715 E.087
G1 X93.107 Y132.864 E.0848
G1 X94.599 Y131.105 E.08592
G1 X96.189 Y129.517 E.0837
G1 X97.994 Y127.988 E.08811
G1 X99.872 Y126.65 E.08588
G1 X101.855 Y125.472 E.0859
G1 X103.928 Y124.463 E.0859
G1 X106.078 Y123.628 E.08591
G1 X109.096 Y122.734 E.11721
G1 X110.203 Y122.275 E.04463
G1 X110.74 Y122.007 E.02237
G1 X111.483 Y121.554 E.03242
G1 X112.186 Y121.04 E.03242
G1 X112.842 Y120.468 E.03242
G1 X113.447 Y119.842 E.03242
G1 X114.193 Y118.881 E.04534
G1 X114.487 Y118.448 E.01947
G1 X114.877 Y117.756 E.02959
G1 X114.455 Y117.576 F21000
;TYPE:Outer wall
G1 F3000
G1 X114.499 Y117.499 E.0033
G1 X114.845 Y116.743 E.03097
G1 X115.211 Y115.643 E.04318
G1 X115.34 Y115.157 E.01874
G1 X115.944 Y111.744 E.12909
G1 X116.621 Y109.188 E.09849
G1 X117.508 Y106.697 E.09849
G1 X118.6 Y104.289 E.09849
G1 X119.89 Y101.981 E.09849
G1 X121.367 Y99.788 E.09849
G1 X123.023 Y97.726 E.09849
G1 X124.845 Y95.81 E.09849
G1 X126.786 Y94.082 E.09679
G1 X128.936 Y92.466 E.10018
G1 X131.27 Y91.011 E.10245
G1 X133.526 Y89.849 E.09452
G1 X135.984 Y88.832 E.09906
G1 X138.488 Y88.033 E.09791
G1 X141.11 Y87.434 E.10019
G1 X143.684 Y87.067 E.09683
G1 X147.678 Y86.793 E.14911
G1 X151.711 Y86.773 E.1502
G1 X155.68 Y87.005 E.1481
G1 X159.711 Y87.499 E.15125
G1 X163.591 Y88.226 E.14706
G1 X167.473 Y89.209 E.14915
G1 X171.285 Y90.437 E.14916
G1 X174.951 Y91.877 E.14671
G1 X178.638 Y93.601 E.1516
G1 X182.15 Y95.526 E.14915
G1 X185.533 Y97.669 E.14915
G1 X188.766 Y100.016 E.14881
G1 X191.794 Y102.52 E.14636
G1 X194.775 Y105.318 E.15229
G1 X197.592 Y108.334 E.15368
G1 X200.089 Y111.368 E.14636
G1 X202.407 Y114.576 E.14741
G1 X204.544 Y117.962 E.14915
G1 X206.462 Y121.478 E.14915
G1 X208.153 Y125.107 E.14915
G1 X209.612 Y128.837 E.14915
G1 X210.819 Y132.606 E.14741
G1 X211.808 Y136.535 E.1509
G1 X212.536 Y140.472 E.14915
G1 X213.02 Y144.532 E.15229
G1 X213.239 Y148.447 E.14601
G1 X213.229 Y149.736 E.04803
G1 X213.21 Y152.451 E.10112
G1 X212.924 Y156.483 E.15055
G1 X212.394 Y160.414 E.14776
G1 X211.61 Y164.341 E.14915
G1 X210.582 Y168.202 E.1488
G1 X209.306 Y172.007 E.1495
G1 X207.794 Y175.716 E.14915
G1 X206.077 Y179.271 E.14706
G1 X204.083 Y182.809 E.15124
G1 X201.899 Y186.165 E.14915
G1 X199.506 Y189.376 E.14915
G1 X196.915 Y192.429 E.14915
G1 X194.189 Y195.26 E.14636
G1 X191.18 Y198.014 E.15194
G1 X188.059 Y200.523 E.14915
G1 X184.786 Y202.83 E.14915
G1 X181.39 Y204.916 E.14845
G1 X177.759 Y206.836 E.15299
G1 X174.185 Y208.447 E.14601
G1 X170.331 Y209.894 E.15334
G1 X166.572 Y211.042 E.14636
G1 X162.713 Y211.961 E.14776
G1 X158.767 Y212.641 E.14916
G1 X154.785 Y213.069 E.14915
G1 X150.691 Y213.245 E.15264
G1 X146.781 Y213.168 E.14567
G1 X142.846 Y212.843 E.14706
G1 X138.828 Y212.254 E.15125
G1 X134.911 Y211.422 E.14915
G1 X130.983 Y210.32 E.15194
G1 X127.274 Y209.023 E.14636
G1 X123.584 Y207.466 E.14916
G1 X120.001 Y205.679 E.14914
G1 X116.428 Y203.597 E.15404
G1 X113.209 Y201.443 E.14427
G1 X110.027 Y199.011 E.14915
G1 X106.944 Y196.325 E.15229
G1 X104.157 Y193.569 E.14602
G1 X101.534 Y190.63 E.14671
G1 X99.021 Y187.428 E.15159
G1 X96.755 Y184.127 E.14915
G1 X94.67 Y180.631 E.15159
G1 X92.871 Y177.127 E.14671
M73 P1 R38
G1 X91.268 Y173.457 E.14915
G1 X89.902 Y169.693 E.14915
G1 X88.747 Y165.732 E.15369
G1 X87.896 Y161.944 E.14462
G1 X87.265 Y157.989 E.14915
G1 X86.881 Y153.928 E.15194
G1 X86.758 Y150.001 E.14632
G1 X86.855 Y147.658 E.08736
G1 X87.145 Y145.332 E.08731
G1 X87.627 Y143.038 E.08731
G1 X88.297 Y140.791 E.08731
G1 X89.138 Y138.635 E.08621
G1 X90.181 Y136.502 E.08841
G1 X91.399 Y134.465 E.08842
G1 X92.746 Y132.583 E.08621
G1 X94.263 Y130.795 E.08732
G1 X95.879 Y129.18 E.0851
G1 X97.713 Y127.626 E.08952
G1 X99.622 Y126.267 E.08731
G1 X101.638 Y125.07 E.08731
G1 X103.745 Y124.043 E.08731
G1 X105.93 Y123.195 E.08731
G1 X108.966 Y122.296 E.11791
G1 X110 Y121.865 E.04172
G1 X110.503 Y121.616 E.02092
G1 X111.214 Y121.185 E.03097
G1 X111.886 Y120.695 E.03097
G1 X112.514 Y120.149 E.03097
G1 X113.093 Y119.553 E.03097
G1 X113.619 Y118.909 E.03097
G1 X114.089 Y118.223 E.03097
G1 X114.435 Y117.611 E.02618
G1 E-.56 F1800
;WIPE_START
G1 F3000
G1 X114.499 Y117.499 E-.03088
G1 X114.845 Y116.743 E-.19956
G1 X114.858 Y116.706 E-.00956
;WIPE_END
G1 E0 F1800
G1 Z.6 F21000
G1 X107.847 Y165.421 Z.6
G1 Z.2
G1 E.8 F1800
;TYPE:Inner wall
G1 F3000
G1 X106.607 Y164.78 E.052
G1 X105.351 Y163.985 E.05536
G1 X104.093 Y163.02 E.05907
G1 X103.07 Y162.083 E.05165
G1 X102.063 Y160.99 E.05536
G1 X101.155 Y159.814 E.05536
G1 X100.352 Y158.562 E.05536
G1 X99.662 Y157.246 E.05536
G1 X99.089 Y155.874 E.05536
G1 X98.612 Y154.362 E.05907
G1 X98.287 Y152.851 E.05754
G1 X98.12 Y151.551 E.04883
G1 X98.045 Y150.057 E.05571
G1 X98.105 Y148.565 E.05563
