; HEADER_BLOCK_START
; generated by OrcaSlicer 1.8.0-beta1 on 2024-06-01 at 19:04:31
; total layer number: 48
; HEADER_BLOCK_END


;
;
; external perimeters extrusion width = 0.40mm
; perimeters extrusion width = 0.45mm
; infill extrusion width = 0.45mm
; solid infill extrusion width = 0.40mm
; top infill extrusion width = 0.40mm
; first layer extrusion width = 0.50mm

; EXECUTABLE_BLOCK_START
EXCLUDE_OBJECT_DEFINE NAME=Raspi7inch_Front.stl_id_0_copy_0 CENTER=150,150 POLYGON=[[53.5,102.5],[53.5016,102.342],[53.511,102.081],[53.5211,101.92],[53.5438,101.664],[53.5628,101.499],[53.5985,101.249],[53.6267,101.082],[53.6748,100.837],[53.7125,100.668],[53.7726,100.429],[53.82,100.26],[53.8916,100.028],[53.9489,99.8578],[54.0314,99.6331],[54.0989,99.4629],[54.1916,99.2461],[54.2695,99.0766],[54.3719,98.8681],[54.4602,98.6998],[54.5718,98.5],[54.6706,98.3335],[54.7906,98.1429],[54.9,97.9789],[55.0279,97.7977],[55.1478,97.6369],[55.2828,97.4654],[55.4133,97.3084],[55.5548,97.147],[55.6958,96.9944],[55.8432,96.8431],[55.9944,96.6958],[56.147,96.5548],[56.3084,96.4133],[56.4654,96.2828],[56.6369,96.1478],[56.7977,96.0279],[56.9789,95.9],[57.1429,95.7906],[57.3335,95.6706],[57.5,95.5718],[57.6997,95.4602],[57.8681,95.3719],[58.0766,95.2695],[58.2461,95.1916],[58.4629,95.0989],[58.6331,95.0314],[58.8578,94.9489],[59.0279,94.8915],[59.26,94.82],[59.4294,94.7726],[59.6684,94.7125],[59.8367,94.6748],[60.0819,94.6267],[60.2485,94.5985],[60.4994,94.5628],[60.6638,94.5438],[60.9197,94.5211],[61.0813,94.511],[61.3416,94.5016],[61.5,94.5],[238.5,94.5],[238.658,94.5016],[238.919,94.511],[239.08,94.5211],[239.336,94.5438],[239.501,94.5628],[239.751,94.5985],[239.918,94.6267],[240.163,94.6748],[240.332,94.7125],[240.571,94.7726],[240.74,94.82],[240.972,94.8915],[241.142,94.9489],[241.367,95.0314],[241.537,95.0989],[241.754,95.1916],[241.923,95.2695],[242.132,95.3719],[242.3,95.4602],[242.5,95.5718],[242.666,95.6706],[242.857,95.7906],[243.021,95.9],[243.202,96.0279],[243.363,96.1478],[243.535,96.2828],[243.692,96.4133],[243.853,96.5548],[244.006,96.6958],[244.157,96.8431],[244.304,96.9944],[244.445,97.147],[244.587,97.3084],[244.717,97.4654],[244.852,97.6369],[244.972,97.7977],[245.1,97.9789],[245.209,98.1429],[245.329,98.3335],[245.428,98.5],[245.54,98.6998],[245.628,98.8681],[245.731,99.0766],[245.808,99.2461],[245.901,99.4629],[245.969,99.6331],[246.051,99.8578],[246.108,100.028],[246.18,100.26],[246.227,100.429],[246.288,100.668],[246.325,100.837],[246.373,101.082],[246.402,101.249],[246.437,101.499],[246.456,101.664],[246.479,101.92],[246.489,102.081],[246.498,102.342],[246.5,102.5],[246.5,197.5],[246.498,197.658],[246.489,197.919],[246.479,198.08],[246.456,198.336],[246.437,198.501],[246.402,198.751],[246.373,198.918],[246.325,199.163],[246.288,199.332],[246.227,199.57],[246.18,199.74],[246.108,199.972],[246.051,200.142],[245.969,200.367],[245.901,200.537],[245.808,200.754],[245.731,200.923],[245.628,201.132],[245.54,201.3],[245.428,201.5],[245.329,201.666],[245.209,201.857],[245.1,202.021],[244.972,202.202],[244.852,202.363],[244.717,202.535],[244.587,202.692],[244.445,202.853],[244.304,203.006],[244.157,203.157],[244.006,203.304],[243.853,203.445],[243.692,203.587],[243.535,203.717],[243.363,203.852],[243.202,203.972],[243.021,204.1],[242.857,204.209],[242.666,204.329],[242.5,204.428],[242.3,204.54],[242.132,204.628],[241.923,204.731],[241.754,204.808],[241.537,204.901],[241.367,204.969],[241.142,205.051],[240.972,205.108],[240.74,205.18],[240.571,205.227],[240.332,205.287],[240.163,205.325],[239.918,205.373],[239.751,205.401],[239.501,205.437],[239.336,205.456],[239.08,205.479],[238.919,205.489],[238.658,205.498],[238.5,205.5],[61.5,205.5],[61.3416,205.498],[61.0813,205.489],[60.9197,205.479],[60.6638,205.456],[60.4994,205.437],[60.2485,205.401],[60.0819,205.373],[59.8367,205.325],[59.6684,205.287],[59.4294,205.227],[59.26,205.18],[59.0279,205.108],[58.8578,205.051],[58.6331,204.969],[58.4629,204.901],[58.2461,204.808],[58.0766,204.731],[57.8681,204.628],[57.6997,204.54],[57.5,204.428],[57.3335,204.329],[57.1429,204.209],[56.9789,204.1],[56.7977,203.972],[56.6369,203.852],[56.4654,203.717],[56.3084,203.587],[56.147,203.445],[55.9944,203.304],[55.8432,203.157],[55.6958,203.006],[55.5548,202.853],[55.4133,202.692],[55.2828,202.535],[55.1478,202.363],[55.0279,202.202],[54.9,202.021],[54.7906,201.857],[54.6706,201.666],[54.5718,201.5],[54.4602,201.3],[54.3719,201.132],[54.2695,200.923],[54.1916,200.754],[54.0989,200.537],[54.0314,200.367],[53.9489,200.142],[53.8916,199.972],[53.82,199.74],[53.7726,199.57],[53.7125,199.332],[53.6748,199.163],[53.6267,198.918],[53.5985,198.751],[53.5628,198.501],[53.5438,198.336],[53.5211,198.08],[53.511,197.919],[53.5016,197.658],[53.5,197.5],[53.5,102.5]]
M73 P0 R68
;TYPE:Custom
M190 S70
M109 S220
PRINT_START EXTRUDER=220 BED=70
G90
G21
M83 ; use relative distances for extrusion
; filament start gcode
M106 S0
;LAYER_CHANGE
;Z:0.2
;HEIGHT:0.2
;BEFORE_LAYER_CHANGE
;0.2
G92 E0

G1 E-.8 F1800
;AFTER_LAYER_CHANGE
;0.2
;_SET_FAN_SPEED_CHANGING_LAYER
SET_VELOCITY_LIMIT ACCEL=500 ACCEL_TO_DECEL=250
; printing object Raspi7inch_Front.stl id:0 copy 0
EXCLUDE_OBJECT_START NAME=Raspi7inch_Front.stl_id_0_copy_0
G1 Z.4 F21000
G1 X60.569 Y97.131
G1 Z.4
G1 Z.2
G1 E.8 F1800
;TYPE:Inner wall
;WIDTH:0.499999
G1 F3000
G1 X61.553 Y97.041 E.03679
G1 X238.323 Y97.04 E6.58398
G1 X238.976 Y97.07 E.02437
G1 X239.867 Y97.224 E.03368
G1 X240.402 Y97.392 E.02087
G1 X240.916 Y97.615 E.02088
G1 X241.681 Y98.074 E.03323
G1 X242.119 Y98.424 E.02087
G1 X242.528 Y98.828 E.02143
G1 X242.893 Y99.273 E.02143
G1 X243.209 Y99.754 E.02143
G1 X243.464 Y100.25 E.02078
G1 X243.76 Y101.078 E.03277
G1 X243.923 Y101.948 E.03294
G1 X243.959 Y102.687 E.02756
G1 X243.96 Y197.474 E3.53045
G1 X243.903 Y198.219 E.02785
G1 X243.801 Y198.768 E.02079
G1 X243.523 Y199.616 E.03324
G1 X243.286 Y200.108 E.02031
G1 X242.967 Y200.593 E.02164
G1 X242.593 Y201.089 E.02314
G1 X242.184 Y201.508 E.02182
G1 X241.628 Y201.962 E.02674
G1 X241.053 Y202.316 E.02515
G1 X240.536 Y202.556 E.02122
G1 X239.992 Y202.743 E.02143
G1 X239.445 Y202.868 E.02089
G1 X238.455 Y202.96 E.03703
G1 X61.677 Y202.959 E6.58431
G1 X61.024 Y202.93 E.02435
G1 X60.147 Y202.778 E.03312
G1 X59.318 Y202.494 E.03267
G1 X58.816 Y202.245 E.02087
G1 X58.344 Y201.943 E.02088
G1 X57.67 Y201.376 E.0328
G1 X57.156 Y200.789 E.02906
G1 X56.789 Y200.241 E.02456
G1 X56.536 Y199.75 E.02057
G1 X56.235 Y198.907 E.03333
G1 X56.119 Y198.369 E.0205
G1 X56.041 Y197.485 E.03308
G1 X56.04 Y102.526 E3.53684
G1 X56.097 Y101.781 E.02785
G1 X56.202 Y101.217 E.02136
G1 X56.367 Y100.666 E.02143
G1 X56.583 Y100.149 E.02088
G1 X57.025 Y99.391 E.03268
G1 X57.581 Y98.712 E.03267
G1 X57.979 Y98.34 E.02031
G1 X58.705 Y97.821 E.03323
G1 X59.2 Y97.558 E.02087
G1 X59.72 Y97.349 E.02087
G1 X60.531 Y97.141 E.03118
G1 X60.491 Y96.679 F21000
G1 F3000
G1 X61.532 Y96.584 E.03893
G1 X238.506 Y96.583 E6.59158
G1 X239.029 Y96.615 E.01953
G1 X239.975 Y96.779 E.03576
G1 X240.562 Y96.963 E.02289
G1 X241.126 Y97.207 E.0229
G1 X241.942 Y97.698 E.03548
G1 X242.423 Y98.081 E.02289
G1 X242.867 Y98.519 E.02323
G1 X243.262 Y99.002 E.02323
G1 X243.604 Y99.523 E.02323
G1 X243.884 Y100.068 E.0228
G1 X244.203 Y100.959 E.03525
G1 X244.377 Y101.891 E.03531
G1 X244.416 Y102.687 E.02969
G1 X244.417 Y197.491 E3.5311
G1 X244.357 Y198.279 E.02942
G1 X244.244 Y198.882 E.02285
G1 X243.948 Y199.787 E.03549
G1 X243.685 Y200.333 E.02256
G1 X243.162 Y201.13 E.03548
G1 X242.76 Y201.595 E.02289
G1 X242.304 Y202.022 E.02329
G1 X241.887 Y202.34 E.01952
G1 X241.27 Y202.719 E.02699
G1 X240.707 Y202.981 E.02311
G1 X240.117 Y203.183 E.02323
G1 X239.517 Y203.32 E.02291
G1 X238.476 Y203.417 E.03894
G1 X61.494 Y203.417 E6.5919
G1 X60.971 Y203.385 E.01953
G1 X60.034 Y203.223 E.03542
G1 X59.141 Y202.917 E.03515
G1 X58.591 Y202.643 E.02289
G1 X58.072 Y202.312 E.0229
G1 X57.349 Y201.703 E.03523
G1 X56.793 Y201.068 E.03145
G1 X56.394 Y200.474 E.02663
G1 X56.116 Y199.932 E.02268
G1 X55.794 Y199.033 E.03559
G1 X55.666 Y198.438 E.02268
G1 X55.584 Y197.505 E.03488
G1 X55.583 Y102.509 E3.53824
G1 X55.643 Y101.721 E.02942
G1 X55.757 Y101.109 E.02318
G1 X55.936 Y100.512 E.02323
G1 X56.173 Y99.944 E.0229
G1 X56.649 Y99.129 E.03516
G1 X57.247 Y98.399 E.03514
G1 X57.689 Y97.985 E.02256
G1 X58.464 Y97.431 E.03548
G1 X59.007 Y97.143 E.02289
G1 X59.577 Y96.913 E.0229
G1 X60.453 Y96.689 E.03366
G1 X60.413 Y96.227 F21000
;TYPE:Outer wall
G1 F3000
G1 X61.511 Y96.126 E.04107
G1 X238.519 Y96.126 E6.59287
G1 X239.082 Y96.16 E.021
G1 X240.083 Y96.334 E.03783
G1 X240.721 Y96.534 E.02492
G1 X241.335 Y96.8 E.02493
G1 X242.204 Y97.322 E.03773
G1 X242.727 Y97.739 E.02492
G1 X243.205 Y98.211 E.02503
G1 X243.631 Y98.731 E.02503
G1 X243.999 Y99.293 E.02503
G1 X244.305 Y99.885 E.02483
G1 X244.646 Y100.839 E.03773
G1 X244.831 Y101.834 E.03768
G1 X244.873 Y102.687 E.03182
G1 X244.874 Y197.509 E3.53174
G1 X244.811 Y198.338 E.031
G1 X244.688 Y198.996 E.0249
G1 X244.372 Y199.958 E.03774
G1 X244.083 Y200.559 E.02481
G1 X243.527 Y201.406 E.03773
G1 X243.09 Y201.912 E.02492
G1 X242.599 Y202.371 E.02505
G1 X242.146 Y202.717 E.02124
G1 X241.486 Y203.123 E.02883
G1 X240.878 Y203.406 E.02499
G1 X240.242 Y203.623 E.02503
G1 X239.59 Y203.772 E.02493
G1 X238.498 Y203.874 E.04085
G1 X61.481 Y203.874 E6.5932
G1 X60.918 Y203.84 E.02099
G1 X59.92 Y203.667 E.03773
G1 X58.964 Y203.339 E.03762
G1 X58.365 Y203.041 E.02492
G1 X57.801 Y202.682 E.02493
G1 X57.028 Y202.031 E.03766
G1 X56.43 Y201.347 E.03384
G1 X56 Y200.707 E.02871
G1 X55.695 Y200.115 E.02479
G1 X55.353 Y199.158 E.03784
G1 X55.214 Y198.506 E.02485
G1 X55.127 Y197.525 E.03668
G1 X55.126 Y102.491 E3.53964
G1 X55.189 Y101.662 E.031
G1 X55.312 Y101.002 E.02501
G1 X55.505 Y100.358 E.02503
G1 X55.763 Y99.74 E.02493
G1 X56.272 Y98.867 E.03763
G1 X56.912 Y98.086 E.03762
G1 X57.399 Y97.631 E.02481
G1 X58.223 Y97.042 E.03773
G1 X58.814 Y96.728 E.02492
G1 X59.434 Y96.478 E.02493
G1 X60.374 Y96.237 E.03614
G1 E-.56 F1800
;WIPE_START
G1 F3000
G1 X61.37 Y96.14 E-.24
;WIPE_END
G1 Z.6 F21000
G1 X216.798 Y119.305 Z.6
G1 Z.2
G1 E.8 F1800
;TYPE:Inner wall
G1 F3000
G1 X216.69 Y119.415 E.00577
G1 X216.269 Y119.743 E.01987
G1 X215.759 Y120.007 E.02138
G1 X215.118 Y120.201 E.02497
G1 X214.45 Y120.26 E.02497
G1 X213.784 Y120.181 E.02497
G1 X213.148 Y119.967 E.02497
G1 X212.57 Y119.628 E.02497
G1 X212.073 Y119.177 E.02497
G1 X211.679 Y118.635 E.02497
G1 X211.404 Y118.023 E.02497
G1 X211.261 Y117.369 E.02497
G1 X211.254 Y116.698 E.02497
G1 X211.353 Y116.174 E.01988
G1 X211.461 Y115.819 E.01383
G1 X211.716 Y115.297 E.02162
G1 X212.029 Y114.873 E.01961
G1 X212.328 Y114.588 E.01541
G1 X212.746 Y114.258 E.01982
G1 X212.997 Y114.107 E.01094
G1 X213.469 Y113.903 E.01914
G1 X214.048 Y113.771 E.02211
G1 X214.718 Y113.747 E.02497
G1 X215.379 Y113.86 E.02497
G1 X216.002 Y114.106 E.02495
G1 X216.253 Y114.257 E.01092
G1 X216.766 Y114.663 E.02434
G1 X216.927 Y114.818 E.00833
G1 X217.233 Y115.222 E.01888
G1 X217.539 Y115.819 E.02497
G1 X217.716 Y116.465 E.02497
G1 X217.758 Y117.134 E.02497
G1 X217.661 Y117.798 E.02497
G1 X217.431 Y118.427 E.02495
G1 X217.287 Y118.682 E.01092
G1 X216.895 Y119.205 E.02434
G1 X216.826 Y119.276 E.00368
G1 X216.435 Y119.011 F21000
G1 F3000
G1 X216.064 Y119.328 E.01814
G1 X215.555 Y119.598 E.02148
G1 X215.001 Y119.759 E.02148
G1 X214.426 Y119.803 E.02148
G1 X213.854 Y119.729 E.02148
G1 X213.31 Y119.539 E.02148
G1 X212.815 Y119.242 E.02148
G1 X212.392 Y118.85 E.02148
G1 X212.058 Y118.38 E.02148
G1 X211.828 Y117.851 E.02148
G1 X211.71 Y117.287 E.02148
G1 X211.711 Y116.71 E.02148
G1 X211.829 Y116.145 E.02148
G1 X212.06 Y115.617 E.02148
G1 X212.394 Y115.148 E.02146
G1 X213.029 Y114.616 E.03085
G1 X213.58 Y114.351 E.02277
G1 X214.142 Y114.219 E.02148
G1 X214.718 Y114.204 E.02148
G1 X215.285 Y114.308 E.02148
G1 X215.819 Y114.525 E.02146
G1 X216.482 Y115.021 E.03085
G1 X216.579 Y115.114 E.005
G1 X216.895 Y115.536 E.01965
G1 X217.125 Y116.012 E.01968
G1 X217.271 Y116.57 E.02148
G1 X217.301 Y117.146 E.02148
G1 X217.212 Y117.716 E.02148
G1 X217.008 Y118.255 E.02146
G1 X216.529 Y118.931 E.03085
G1 X216.465 Y118.986 E.00314
G1 X216.144 Y118.672 F21000
;TYPE:Outer wall
G1 F3000
G1 X215.773 Y118.975 E.01786
G1 X215.32 Y119.202 E.01885
G1 X214.838 Y119.325 E.01852
G1 X214.356 Y119.345 E.01799
G1 X213.879 Y119.265 E.01799
G1 X213.429 Y119.091 E.01799
G1 X213.024 Y118.827 E.01799
G1 X212.681 Y118.487 E.01799
G1 X212.416 Y118.083 E.01799
G1 X212.238 Y117.634 E.01799
G1 X212.157 Y117.134 E.01887
G1 X212.174 Y116.675 E.0171
G1 X212.289 Y116.206 E.01799
G1 X212.498 Y115.771 E.01799
G1 X212.801 Y115.38 E.0184
G1 X213.313 Y114.974 E.02434
G1 X213.778 Y114.764 E.019
G1 X214.282 Y114.661 E.01916
G1 X214.765 Y114.666 E.01799
G1 X215.237 Y114.769 E.01799
G1 X215.686 Y114.974 E.0184
G1 X216.231 Y115.411 E.026
G1 X216.526 Y115.811 E.01852
G1 X216.726 Y116.25 E.01799
G1 X216.832 Y116.722 E.01799
G1 X216.84 Y117.205 E.01799
G1 X216.749 Y117.679 E.01799
G1 X216.556 Y118.134 E.0184
G1 X216.173 Y118.644 E.02378
G1 E-.56 F1800
;WIPE_START
G1 F3000
G1 X215.773 Y118.975 E-.12457
G1 X215.343 Y119.191 E-.11543
;WIPE_END
G1 Z.6 F21000
G1 X214.803 Y179.463 Z.6
G1 Z.2
G1 E.8 F1800
;TYPE:Inner wall
G1 F3000
G1 X215.008 Y179.485 E.00768
G1 X215.64 Y179.651 E.02434
G1 X215.912 Y179.761 E.01094
G1 X216.37 Y180.024 E.01964
G1 X216.811 Y180.401 E.02161
G1 X217.233 Y180.922 E.02497
G1 X217.539 Y181.519 E.02498
G1 X217.716 Y182.165 E.02497
G1 X217.758 Y182.834 E.02497
G1 X217.661 Y183.498 E.02497
G1 X217.471 Y184.03 E.02104
G1 X217.287 Y184.382 E.01482
G1 X216.895 Y184.905 E.02434
G1 X216.69 Y185.115 E.01094
G1 X216.286 Y185.432 E.01911
G1 X215.759 Y185.707 E.02214
G1 X215.118 Y185.901 E.02497
G1 X214.45 Y185.96 E.02498
G1 X213.784 Y185.881 E.02497
G1 X213.148 Y185.667 E.02498
G1 X212.57 Y185.328 E.02496
G1 X212.073 Y184.877 E.02499
G1 X211.679 Y184.335 E.02496
G1 X211.404 Y183.723 E.02498
G1 X211.28 Y183.177 E.02087
G1 X211.243 Y182.797 E.01423
G1 X211.284 Y182.165 E.02358
G1 X211.417 Y181.627 E.02066
G1 X211.646 Y181.123 E.02059
G1 X212.029 Y180.573 E.02498
G1 X212.516 Y180.113 E.02497
G1 X213.088 Y179.761 E.02497
G1 X213.718 Y179.535 E.02495
G1 X214.006 Y179.482 E.01091
G1 X214.658 Y179.448 E.02432
G1 X214.763 Y179.459 E.00393
G1 X214.757 Y179.913 F21000
G1 F3000
G1 X214.892 Y179.927 E.00506
G1 X215.524 Y180.093 E.02434
G1 X216.067 Y180.374 E.02277
G1 X216.51 Y180.744 E.02148
G1 X216.867 Y181.196 E.02148
G1 X217.125 Y181.712 E.02149
G1 X217.271 Y182.27 E.02148
G1 X217.301 Y182.846 E.02148
G1 X217.212 Y183.416 E.02148
G1 X217.008 Y183.955 E.02146
G1 X216.529 Y184.631 E.03085
G1 X216.064 Y185.028 E.02277
G1 X215.555 Y185.298 E.02148
G1 X215.001 Y185.459 E.02148
G1 X214.426 Y185.503 E.02148
G1 X213.854 Y185.429 E.02148
G1 X213.31 Y185.239 E.02149
G1 X212.815 Y184.942 E.02147
G1 X212.392 Y184.55 E.02149
G1 X212.059 Y184.08 E.02147
G1 X211.828 Y183.551 E.02149
G1 X211.71 Y182.987 E.02148
G1 X211.711 Y182.41 E.02148
G1 X211.829 Y181.846 E.02148
G1 X212.06 Y181.317 E.02148
G1 X212.395 Y180.847 E.02148
G1 X212.818 Y180.456 E.02148
G1 X213.313 Y180.159 E.02148
G1 X213.857 Y179.97 E.02146
G1 X214.682 Y179.905 E.03083
G1 X214.717 Y179.909 E.00131
G1 X214.715 Y180.364 F21000
;TYPE:Outer wall
G1 F3000
G1 X215.408 Y180.535 E.02659
M73 P1 R68
G1 X215.85 Y180.777 E.01876
G1 X216.232 Y181.112 E.01896
G1 X216.526 Y181.511 E.01844
G1 X216.726 Y181.951 E.01799
G1 X216.832 Y182.422 E.01799
G1 X216.84 Y182.905 E.01799
G1 X216.749 Y183.379 E.01799
G1 X216.556 Y183.834 E.0184
G1 X216.164 Y184.356 E.02434
G1 X215.768 Y184.678 E.01899
G1 X215.307 Y184.906 E.01917
G1 X214.838 Y185.025 E.01799
G1 X214.356 Y185.045 E.01799
G1 X213.879 Y184.965 E.01799
G1 X213.429 Y184.791 E.01799
G1 X213.024 Y184.527 E.01799
G1 X212.681 Y184.187 E.01799
G1 X212.438 Y183.825 E.01625
G1 X212.242 Y183.35 E.01912
G1 X212.157 Y182.82 E.01999
G1 X212.174 Y182.375 E.0166
G1 X212.289 Y181.906 E.01799
G1 X212.498 Y181.471 E.018
G1 X212.792 Y181.087 E.01799
G1 X213.158 Y180.772 E.01799
G1 X213.581 Y180.538 E.01799
G1 X214.054 Y180.395 E.0184
