; HEADER_BLOCK_START
; generated by OrcaSlicer 1.8.0-beta1 on 2024-06-01 at 22:49:22
; total layer number: 15
; HEADER_BLOCK_END


;
;
; external perimeters extrusion width = 0.40mm
; perimeters extrusion width = 0.45mm
; infill extrusion width = 0.45mm
; solid infill extrusion width = 0.40mm
; top infill extrusion width = 0.40mm
; first layer extrusion width = 0.50mm

; EXECUTABLE_BLOCK_START
EXCLUDE_OBJECT_DEFINE NAME=Raspi7inch_Lid.stl_id_0_copy_0 CENTER=150,150 POLYGON=[[97.576,115.775],[97.587,115.566],[97.594,115.513],[97.6197,115.359],[97.6739,115.157],[97.709,115.062],[97.7489,114.962],[97.844,114.775],[97.958,114.599],[98.0399,114.494],[98.0897,114.437],[98.2378,114.289],[98.3764,114.175],[98.4005,114.157],[98.576,114.043],[98.6069,114.027],[98.7626,113.948],[98.958,113.873],[99.018,113.854],[99.1602,113.819],[99.2695,113.799],[99.367,113.786],[99.576,113.775],[200.424,113.775],[200.633,113.786],[200.731,113.799],[200.84,113.819],[200.982,113.854],[201.042,113.873],[201.238,113.948],[201.393,114.027],[201.424,114.043],[201.6,114.157],[201.624,114.175],[201.762,114.289],[201.91,114.437],[201.96,114.494],[202.042,114.599],[202.156,114.775],[202.251,114.962],[202.291,115.062],[202.326,115.157],[202.38,115.359],[202.406,115.513],[202.413,115.566],[202.424,115.775],[202.424,184.225],[202.413,184.434],[202.406,184.487],[202.38,184.641],[202.326,184.843],[202.291,184.938],[202.251,185.038],[202.156,185.225],[202.042,185.401],[201.96,185.506],[201.91,185.563],[201.762,185.711],[201.624,185.825],[201.6,185.843],[201.424,185.957],[201.238,186.052],[201.042,186.127],[200.982,186.146],[200.84,186.181],[200.731,186.201],[200.633,186.214],[200.424,186.225],[99.576,186.225],[99.4336,186.219],[99.367,186.214],[99.1602,186.181],[99.0115,186.144],[98.958,186.127],[98.8452,186.085],[98.7626,186.052],[98.576,185.957],[98.4005,185.843],[98.2378,185.711],[98.0897,185.563],[97.958,185.401],[97.844,185.225],[97.7489,185.038],[97.7157,184.956],[97.6739,184.843],[97.6574,184.789],[97.6197,184.641],[97.587,184.434],[97.5824,184.367],[97.576,184.225],[97.576,115.775]]
M73 P0 R29
;TYPE:Custom
M190 S70
M109 S220
PRINT_START EXTRUDER=220 BED=70
G90
G21
M83 ; use relative distances for extrusion
; filament start gcode
M106 S0
;LAYER_CHANGE
;Z:0.2
;HEIGHT:0.2
;BEFORE_LAYER_CHANGE
;0.2
G92 E0

G1 E-.8 F1800
;AFTER_LAYER_CHANGE
;0.2
;_SET_FAN_SPEED_CHANGING_LAYER
SET_VELOCITY_LIMIT ACCEL=500 ACCEL_TO_DECEL=250
; printing object Raspi7inch_Lid.stl id:0 copy 0
EXCLUDE_OBJECT_START NAME=Raspi7inch_Lid.stl_id_0_copy_0
G1 Z.4 F21000
G1 X201.242 Y181.598
G1 Z.4
G1 Z.2
G1 E.8 F1800
;TYPE:Inner wall
;WIDTH:0.556299
G1 F3000
G1 X201.24 Y181.882 E.01187
;WIDTH:0.539181
G1 X201.246 Y182.386 E.0204
;WIDTH:0.527198
G1 X201.26 Y182.961 E.02267
;WIDTH:0.499999
G1 X201.26 Y183.811 E.03166
G1 X201.235 Y184.397 E.02187
G1 X201.148 Y184.6 E.00824
G1 X200.941 Y184.85 E.01208
G1 X200.723 Y184.98 E.00946
G1 X200.363 Y185.061 E.01373
G1 X199.252 Y185.061 E.04138
;WIDTH:0.541405
G1 X198.255 Y185.04 E.0405
;WIDTH:0.560686
G1 X197.454 Y185.031 E.03382
G1 X197.167 Y185.046 E.01213
;WIDTH:0.530343
G1 X196.879 Y185.061 E.01142
;WIDTH:0.499999
G1 X103.304 Y185.061 E3.48532
;WIDTH:0.541404
G1 X102.307 Y185.04 E.0405
;WIDTH:0.560678
G1 X101.506 Y185.031 E.03382
G1 X101.219 Y185.046 E.01213
;WIDTH:0.530339
G1 X100.931 Y185.061 E.01142
;WIDTH:0.499999
G1 X99.722 Y185.061 E.04505
G1 X99.292 Y185.002 E.01616
G1 X99.021 Y184.841 E.01173
G1 X98.795 Y184.479 E.01592
G1 X98.74 Y184.134 E.013
G1 X98.74 Y182.854 E.04766
;WIDTH:0.544289
G1 X98.762 Y182.116 E.03019
;WIDTH:0.546295
G1 X98.74 Y180.682 E.05879
;WIDTH:0.499999
G1 X98.74 Y119.23 E2.28888
;WIDTH:0.534887
G1 X98.758 Y118.238 E.03979
G1 X98.744 Y117.515 E.02895
;WIDTH:0.50696
G1 X98.74 Y116.673 E.03184
;WIDTH:0.499999
G1 X98.765 Y115.603 E.03989
G1 X98.852 Y115.4 E.00823
G1 X99.058 Y115.15 E.01205
G1 X99.277 Y115.021 E.00945
G1 X99.637 Y114.939 E.01376
G1 X100.931 Y114.939 E.04819
;WIDTH:0.53059
G1 X101.504 Y114.955 E.02281
;WIDTH:0.538091
G1 X102.008 Y114.958 E.0203
;WIDTH:0.563637
G1 X102.581 Y114.971 E.02435
G1 X102.841 Y114.955 E.01104
;WIDTH:0.531818
G1 X103.101 Y114.94 E.01036
;WIDTH:0.499999
G1 X175.88 Y114.947 E2.71075
;WIDTH:0.531545
G1 X176.872 Y114.963 E.0395
G1 X177.676 Y114.948 E.03201
;WIDTH:0.499999
G1 X200.511 Y114.95 E.85052
G1 X200.907 Y115.11 E.01591
G1 X201.11 Y115.313 E.0107
G1 X201.201 Y115.498 E.00768
G1 X201.26 Y115.885 E.01457
G1 X201.26 Y180.498 E2.40658
;WIDTH:0.528149
G1 X201.246 Y180.903 E.01603
;WIDTH:0.556299
G1 X201.242 Y181.558 E.0274
G1 E-.56 F1800
;WIPE_START
G1 F3000
G1 X201.24 Y181.882 E-.07772
G1 X201.246 Y182.386 E-.12106
G1 X201.25 Y182.558 E-.04123
;WIPE_END
G1 Z.6 F21000
G1 X200.674 Y185.488 Z.6
G1 Z.2
G1 E.8 F1800
;WIDTH:0.499999
G1 F3000
G1 X200.387 Y185.518 E.01077
G1 X99.722 Y185.518 E3.74938
G1 X99.161 Y185.444 E.02106
G1 X98.841 Y185.276 E.01347
G1 X98.545 Y184.996 E.01516
G1 X98.355 Y184.622 E.01565
G1 X98.283 Y184.17 E.01704
G1 X98.283 Y116.673 E2.51399
G1 X98.3 Y115.653 E.03802
G1 X98.393 Y115.268 E.01475
G1 X98.621 Y114.916 E.01563
G1 X98.934 Y114.663 E.01497
G1 X99.326 Y114.512 E.01565
G1 X99.613 Y114.482 E.01076
G1 X200.384 Y114.493 E3.75332
G1 X200.805 Y114.545 E.0158
G1 X201.179 Y114.736 E.01563
G1 X201.325 Y114.882 E.00773
G1 X201.546 Y115.154 E.01302
G1 X201.685 Y115.507 E.01413
G1 X201.717 Y115.885 E.01413
G1 X201.717 Y183.811 E2.52998
G1 X201.7 Y184.347 E.01996
G1 X201.607 Y184.732 E.01477
G1 X201.379 Y185.084 E.01563
G1 X201.067 Y185.337 E.01497
G1 X200.712 Y185.473 E.01415
G1 X200.782 Y185.936 F21000
;TYPE:Outer wall
G1 F3000
G1 X200.411 Y185.975 E.0139
G1 X99.595 Y185.975 E3.755
M73 P1 R29
G1 X99.031 Y185.886 E.02129
G1 X98.848 Y185.804 E.00745
G1 X98.535 Y185.618 E.01355
G1 X98.165 Y185.257 E.01924
G1 X97.914 Y184.765 E.02059
G1 X97.826 Y184.206 E.02108
G1 X97.826 Y116.099 E2.53672
G1 X97.849 Y115.57 E.01971
G1 X97.977 Y115.07 E.01925
G1 X98.277 Y114.606 E.02057
G1 X98.702 Y114.262 E.02036
G1 X99.218 Y114.064 E.02059
G1 X99.589 Y114.025 E.0139
G1 X200.447 Y114.036 E3.75657
G1 X200.959 Y114.111 E.01925
G1 X201.451 Y114.361 E.02057
G1 X201.841 Y114.752 E.02058
G1 X201.942 Y114.925 E.00746
G1 X202.134 Y115.411 E.01947
G1 X202.174 Y115.885 E.0177
G1 X202.174 Y183.811 E2.52998
G1 X202.151 Y184.43 E.02307
G1 X202.023 Y184.931 E.01925
G1 X201.723 Y185.394 E.02057
G1 X201.298 Y185.738 E.02036
G1 X200.819 Y185.922 E.0191
G1 E-.56 F1800
;WIPE_START
G1 F3000
G1 X200.411 Y185.975 E-.09887
G1 X199.823 Y185.975 E-.14113
;WIPE_END
G1 Z.6 F21000
G1 X179.716 Y118.301 Z.6
G1 Z.2
G1 E.8 F1800
;TYPE:Inner wall
G1 F3000
G1 X179.687 Y118.729 E.01598
G1 X179.6 Y119.052 E.01245
G1 X179.367 Y119.587 E.02171
G1 X179.139 Y119.926 E.01522
G1 X178.74 Y120.338 E.02137
G1 X178.412 Y120.574 E.01506
G1 X177.893 Y120.821 E.02139
G1 X177.57 Y120.919 E.01258
G1 X177.033 Y120.989 E.02018
G1 X176.286 Y120.891 E.02806
G1 X175.903 Y120.762 E.01504
G1 X175.401 Y120.485 E.02134
G1 X175.087 Y120.231 E.01506
G1 X174.712 Y119.796 E.02139
G1 X174.532 Y119.51 E.01258
G1 X174.327 Y119.023 E.01967
G1 X174.231 Y118.523 E.01897
G1 X174.237 Y117.87 E.02431
G1 X174.393 Y117.249 E.02387
G1 X174.536 Y116.946 E.01246
G1 X174.86 Y116.461 E.02174
G1 X175.145 Y116.167 E.01524
G1 X175.611 Y115.833 E.02137
G1 X175.975 Y115.659 E.01504
;WIDTH:0.5279
G1 X176.525 Y115.494 E.02268
;WIDTH:0.531545
G1 X176.864 Y115.452 E.01362
;WIDTH:0.537202
G1 X177.247 Y115.46 E.01542
G1 X178.123 Y115.722 E.0368
;WIDTH:0.499999
G1 X178.423 Y115.876 E.01258
G1 X178.734 Y116.1 E.01426
G1 X178.976 Y116.334 E.01255
G1 X179.325 Y116.791 E.02139
G1 X179.488 Y117.087 E.01258
G1 X179.685 Y117.709 E.02431
G1 X179.73 Y118.09 E.01429
G1 X179.719 Y118.261 E.0064
G1 X179.265 Y118.281 F21000
G1 F3000
G1 X179.233 Y118.676 E.01476
G1 X178.948 Y119.404 E.02913
G1 X178.811 Y119.608 E.00913
G1 X178.408 Y120.024 E.02159
G1 X178.215 Y120.161 E.00882
G1 X177.697 Y120.408 E.02139
G1 X177.123 Y120.524 E.02178
G1 X176.353 Y120.439 E.02885
G1 X176.124 Y120.362 E.00902
G1 X175.622 Y120.085 E.02134
G1 X175.434 Y119.932 E.00903
G1 X175.059 Y119.497 E.02139
G1 X174.796 Y118.975 E.02178
G1 X174.68 Y118.442 E.0203
G1 X174.694 Y117.898 E.0203
G1 X174.83 Y117.382 E.01988
G1 X175.24 Y116.715 E.02915
G1 X175.411 Y116.538 E.00914
G1 X175.877 Y116.204 E.02137
G1 X176.096 Y116.1 E.00902
G1 X176.649 Y115.948 E.02137
G1 X177.233 Y115.936 E.02176
G1 X177.976 Y116.155 E.02886
G1 X178.468 Y116.471 E.02176
G1 X178.962 Y117.068 E.02886
G1 X179.193 Y117.605 E.02178
G1 X179.276 Y118.144 E.0203
G1 X179.268 Y118.241 E.00363
G1 X178.815 Y118.257 F21000
;TYPE:Outer wall
G1 F3000
G1 X178.762 Y118.687 E.01613
G1 X178.529 Y119.222 E.02171
G1 X178.084 Y119.701 E.02437
G1 X177.5 Y119.996 E.02436
G1 X176.988 Y120.072 E.01926
G1 X176.421 Y119.987 E.02137
G1 X175.843 Y119.685 E.02431
G1 X175.405 Y119.199 E.02436
G1 X175.198 Y118.739 E.01878
G1 X175.127 Y118.308 E.01629
G1 X175.159 Y117.872 E.01628
G1 X175.296 Y117.454 E.01638
G1 X175.62 Y116.969 E.02174
G1 X176.143 Y116.575 E.02437
G1 X176.77 Y116.389 E.02433
G1 X177.286 Y116.405 E.01923
G1 X177.83 Y116.588 E.02139
G1 X178.25 Y116.889 E.01923
G1 X178.598 Y117.346 E.02139
G1 X178.777 Y117.817 E.01878
G1 X178.823 Y118.198 E.01429
G1 X178.82 Y118.218 E.00074
G1 E-.56 F1800
;WIPE_START
G1 F3000
G1 X178.762 Y118.687 E-.11356
G1 X178.551 Y119.17 E-.12644
;WIPE_END
G1 Z.6 F21000
G1 X161.14 Y173.634 Z.6
G1 Z.2
G1 E.8 F1800
;TYPE:Inner wall
G1 F3000
G1 X160.895 Y173.589 E.00928
G1 X160.609 Y173.429 E.01221
G1 X160.347 Y173.146 E.01435
G1 X160.217 Y172.876 E.01116
G1 X160.161 Y172.521 E.01338
G1 X160.161 Y127.479 E1.67768
G1 X160.217 Y127.124 E.01338
G1 X160.347 Y126.854 E.01116
G1 X160.609 Y126.571 E.01435
G1 X160.895 Y126.411 E.01221
G1 X161.304 Y126.336 E.01548
G1 X163.797 Y126.336 E.09286
G1 X164.193 Y126.407 E.01499
G1 X164.476 Y126.56 E.01199
G1 X164.743 Y126.839 E.01438
G1 X164.789 Y127.052 E.00813
;WIDTH:0.460766
G1 X164.835 Y127.265 E.00743
;WIDTH:0.421533
G1 X164.88 Y127.479 E.00673
;WIDTH:0.382299
G1 X164.88 Y172.521 E1.24567
;WIDTH:0.421533
G1 X164.835 Y172.735 E.00673
;WIDTH:0.460766
G1 X164.789 Y172.948 E.00743
;WIDTH:0.499999
G1 X164.743 Y173.162 E.00813
G1 X164.476 Y173.44 E.01438
G1 X164.12 Y173.617 E.01478
G1 X163.796 Y173.664 E.01219
G1 X161.304 Y173.664 E.09285
G1 X161.18 Y173.641 E.0047
G1 E-.56 F1800
;WIPE_START
G1 F3000
G1 X160.895 Y173.589 E-.06941
G1 X160.609 Y173.429 E-.07865
G1 X160.348 Y173.148 E-.09195
;WIPE_END
G1 Z.6 F21000
G1 X147.704 Y172.746 Z.6
G1 Z.2
G1 E.8 F1800
;WIDTH:0.424725
G1 F3000
G1 X147.671 Y172.616 E.00416
;WIDTH:0.387087
G1 X147.67 Y172.521 E.00266
;WIDTH:0.382299
G1 X147.67 Y127.479 E1.24567
;WIDTH:0.421533
G1 X147.715 Y127.265 E.00673
;WIDTH:0.460766
G1 X147.761 Y127.052 E.00743
;WIDTH:0.499999
G1 X147.807 Y126.838 E.00813
G1 X148.074 Y126.56 E.01438
G1 X148.429 Y126.383 E.01478
G1 X148.556 Y126.353 E.00485
G1 X148.754 Y126.336 E.00738
G1 X151.247 Y126.336 E.09286
G1 X151.643 Y126.407 E.01499
G1 X151.926 Y126.56 E.01199
G1 X152.193 Y126.838 E.01438
G1 X152.239 Y127.052 E.00813
;WIDTH:0.460774
G1 X152.285 Y127.265 E.00743
;WIDTH:0.421548
G1 X152.33 Y127.479 E.00673
;WIDTH:0.382322
G1 X152.33 Y172.521 E1.24575
;WIDTH:0.421548
G1 X152.285 Y172.735 E.00673
;WIDTH:0.460774
G1 X152.239 Y172.948 E.00743
;WIDTH:0.499999
G1 X152.193 Y173.162 E.00813
G1 X151.926 Y173.44 E.01438
G1 X151.57 Y173.617 E.01478
G1 X151.246 Y173.664 E.01219
G1 X148.754 Y173.664 E.09285
G1 X148.357 Y173.593 E.01499
G1 X148.074 Y173.44 E.01198
G1 X147.807 Y173.162 E.01438
G1 X147.762 Y172.98 E.00698
;WIDTH:0.462362
G1 X147.717 Y172.798 E.0064
;WIDTH:0.424725
G1 X147.713 Y172.785 E.00043
G1 X147.293 Y172.697 F21000
;WIDTH:0.421533
G1 F3000
G1 X147.284 Y172.735 E.0012
;WIDTH:0.460766
G1 X147.239 Y172.948 E.00743
;WIDTH:0.499999
G1 X147.193 Y173.162 E.00813
G1 X146.926 Y173.44 E.01438
G1 X146.57 Y173.617 E.01478
G1 X146.246 Y173.664 E.01219
G1 X143.754 Y173.664 E.09285
G1 X143.345 Y173.589 E.01547
G1 X143.059 Y173.429 E.01221
G1 X142.797 Y173.146 E.01435
G1 X142.667 Y172.876 E.01116
G1 X142.611 Y172.521 E.01338
G1 X142.611 Y127.479 E1.67768
G1 X142.667 Y127.124 E.01338
G1 X142.797 Y126.854 E.01116
G1 X143.059 Y126.571 E.01435
G1 X143.345 Y126.411 E.01221
G1 X143.754 Y126.336 E.01547
G1 X146.247 Y126.336 E.09286
G1 X146.643 Y126.407 E.01499
G1 X146.926 Y126.56 E.01199
G1 X147.193 Y126.838 E.01438
G1 X147.239 Y127.052 E.00813
;WIDTH:0.460766
G1 X147.285 Y127.265 E.00743
;WIDTH:0.421533
G1 X147.33 Y127.479 E.00673
;WIDTH:0.382299
G1 X147.33 Y172.521 E1.24567
;WIDTH:0.421533
G1 X147.301 Y172.658 E.0043
G1 X146.893 Y172.65 F21000
;WIDTH:0.499999
G1 F3000
G1 X146.814 Y172.906 E.00998
G1 X146.549 Y173.136 E.01309
G1 X146.246 Y173.207 E.01159
G1 X143.754 Y173.207 E.09285
G1 X143.442 Y173.132 E.01194
G1 X143.264 Y173.001 E.00823
G1 X143.102 Y172.734 E.01163
G1 X143.068 Y172.521 E.00803
G1 X143.068 Y127.479 E1.67768
M73 P2 R29
G1 X143.102 Y127.266 E.00803
G1 X143.264 Y126.999 E.01163
G1 X143.508 Y126.838 E.0109
G1 X143.754 Y126.793 E.00928
G1 X146.247 Y126.793 E.09285
G1 X146.55 Y126.864 E.01159
G1 X146.814 Y127.094 E.01309
G1 X146.932 Y127.479 E.01496
G1 X146.932 Y172.521 E1.67768
G1 X146.905 Y172.611 E.0035
G1 X146.475 Y172.521 F21000
;TYPE:Outer wall
G1 F3000
G1 X146.436 Y172.65 E.00499
G1 X146.286 Y172.747 E.00665
G1 X146.246 Y172.75 E.00148
G1 X143.754 Y172.75 E.09285
G1 X143.59 Y172.681 E.00659
G1 X143.525 Y172.521 E.00644
G1 X143.525 Y127.479 E1.67768
G1 X143.59 Y127.319 E.00643
G1 X143.754 Y127.25 E.0066
G1 X146.246 Y127.25 E.09285
G1 X146.382 Y127.295 E.00533
G1 X146.475 Y127.479 E.00767
G1 X146.475 Y172.481 E1.67619
G1 E-.56 F1800
;WIPE_START
G1 F3000
G1 X146.436 Y172.65 E-.04142
G1 X146.286 Y172.747 E-.04284
G1 X146.246 Y172.75 E-.00951
G1 X145.637 Y172.75 E-.14623
;WIPE_END
G1 Z.6 F21000
G1 X125.092 Y127.308 Z.6
G1 Z.2
G1 E.8 F1800
;TYPE:Inner wall
G1 F3000
G1 X125.136 Y127.07 E.009
G1 X125.337 Y126.733 E.01462
G1 X125.598 Y126.509 E.01279
G1 X125.945 Y126.366 E.01398
G1 X126.204 Y126.336 E.0097
G1 X128.697 Y126.336 E.09286
G1 X129.093 Y126.407 E.01499
G1 X129.376 Y126.56 E.01199
G1 X129.643 Y126.838 E.01438
G1 X129.689 Y127.052 E.00813
;WIDTH:0.460768
G1 X129.735 Y127.265 E.00743
;WIDTH:0.421536
G1 X129.78 Y127.479 E.00673
;WIDTH:0.382304
G1 X129.78 Y172.521 E1.24568
;WIDTH:0.421536
G1 X129.734 Y172.735 E.00673
;WIDTH:0.460768
G1 X129.689 Y172.948 E.00743
;WIDTH:0.499999
G1 X129.643 Y173.162 E.00813
G1 X129.376 Y173.44 E.01438
G1 X129.02 Y173.617 E.01478
G1 X128.696 Y173.664 E.01219
G1 X126.204 Y173.664 E.09285
G1 X125.822 Y173.598 E.01443
G1 X125.501 Y173.422 E.01364
G1 X125.272 Y173.184 E.0123
G1 X125.108 Y172.848 E.01391
G1 X125.061 Y172.521 E.01229
G1 X125.061 Y127.479 E1.67768
G1 X125.085 Y127.347 E.00498
G1 E-.56 F1800
;WIPE_START
G1 F3000
G1 X125.136 Y127.07 E-.0676
G1 X125.337 Y126.733 E-.0942
G1 X125.585 Y126.521 E-.0782
;WIPE_END
G1 Z.6 F21000
G1 X99.326 Y117.664 Z.6
G1 Z.2
G1 E.8 F1800
;WIDTH:0.546295
G1 F3000
G1 X99.449 Y117.238 E.01816
;WIDTH:0.499999
G1 X99.594 Y116.934 E.01256
G1 X99.914 Y116.457 E.02139
G1 X100.071 Y116.271 E.00906
G1 X100.663 Y115.833 E.02743
G1 X101.027 Y115.659 E.01504
;WIDTH:0.53059
G1 X101.577 Y115.493 E.02281
;WIDTH:0.535304
G1 X101.882 Y115.449 E.01238
;WIDTH:0.563637
G1 X102.558 Y115.491 E.02873
G1 X103.01 Y115.683 E.02086
;WIDTH:0.531818
G1 X103.463 Y115.876 E.01958
;WIDTH:0.499999
G1 X103.743 Y116.064 E.01257
G1 X104.202 Y116.528 E.02432
G1 X104.54 Y117.087 E.02431
G1 X104.673 Y117.446 E.01426
G1 X104.743 Y117.775 E.01256
G1 X104.777 Y118.348 E.02137
G1 X104.729 Y118.749 E.01506
G1 X104.562 Y119.299 E.02139
G1 X104.417 Y119.604 E.01258
G1 X104.084 Y120.07 E.02134
G1 X103.685 Y120.435 E.02014
G1 X103.188 Y120.728 E.02149
G1 X102.872 Y120.846 E.01256
G1 X102.31 Y120.964 E.02139
G1 X101.973 Y120.984 E.01258
G1 X101.326 Y120.894 E.02431
G1 X100.963 Y120.772 E.01427
G1 X100.663 Y120.618 E.01256
G1 X100.197 Y120.283 E.02139
G1 X99.915 Y119.993 E.01508
G1 X99.594 Y119.517 E.02137
G1 X99.431 Y119.147 E.01504
;WIDTH:0.534218
G1 X99.28 Y118.594 E.02298
;WIDTH:0.534887
