; HEADER_BLOCK_START
; generated by OrcaSlicer 1.8.0-beta1 on 2024-04-14 at 16:48:40
; total layer number: 20
; HEADER_BLOCK_END


;
;
; external perimeters extrusion width = 0.40mm
; perimeters extrusion width = 0.45mm
; infill extrusion width = 0.45mm
; solid infill extrusion width = 0.40mm
; top infill extrusion width = 0.40mm
; first layer extrusion width = 0.50mm

; EXECUTABLE_BLOCK_START
EXCLUDE_OBJECT_DEFINE NAME=starlink_batterie_sectino_v8.stl_id_0_copy_0 CENTER=150,150 POLYGON=[[52.5,42.5],[52.5548,41.4547],[52.7185,40.4209],[52.9894,39.4098],[53.3645,38.4326],[53.8398,37.5],[54.4098,36.6221],[55.0685,35.8087],[55.8087,35.0686],[56.6222,34.4098],[57.5,33.8397],[58.4326,33.3645],[59.4098,32.9894],[60.4209,32.7185],[61.4547,32.5548],[62.5,32.5],[247.5,32.5],[247.5,267.5],[62.5,267.5],[61.4547,267.445],[60.4209,267.281],[59.4098,267.011],[58.4326,266.635],[57.5,266.16],[56.6222,265.59],[55.8087,264.931],[55.0685,264.191],[54.4098,263.378],[53.8398,262.5],[53.3645,261.567],[52.9894,260.59],[52.7185,259.579],[52.5548,258.545],[52.5,257.5],[52.5,42.5]]
M73 P0 R138
;TYPE:Custom
M190 S70
M109 S220
PRINT_START EXTRUDER=220 BED=70
G90
G21
M83 ; use relative distances for extrusion
; filament start gcode
M106 S0
;LAYER_CHANGE
;Z:0.2
;HEIGHT:0.2
;BEFORE_LAYER_CHANGE
;0.2
G92 E0

G1 E-.8 F1800
;AFTER_LAYER_CHANGE
;0.2
;_SET_FAN_SPEED_CHANGING_LAYER
SET_VELOCITY_LIMIT ACCEL=500 ACCEL_TO_DECEL=250
; printing object starlink_batterie_sectino v8.stl id:0 copy 0
EXCLUDE_OBJECT_START NAME=starlink_batterie_sectino_v8.stl_id_0_copy_0
G1 Z.4 F21000
G1 X223.314 Y250.635
G1 Z.4
G1 Z.2
G1 E.8 F1800
;TYPE:Inner wall
;WIDTH:0.499999
G1 F3000
G1 X223.479 Y250.664 E.00622
G1 X246.336 Y250.664 E.85135
G1 X246.336 Y266.336 E.58371
G1 X242.056 Y266.336 E.15941
G1 X241.048 Y266.336 E.03754
;WIDTH:0.545998
G1 X240.733 Y266.313 E.01296
;WIDTH:0.591997
G1 X240.418 Y266.29 E.01414
;WIDTH:0.614696
G1 X239.802 Y266.278 E.02871
;WIDTH:0.630082
G1 X239.19 Y266.271 E.02926
G1 X238.985 Y266.292 E.00988
;WIDTH:0.586721
G1 X238.78 Y266.314 E.00915
;WIDTH:0.54336
G1 X238.574 Y266.336 E.00842
;WIDTH:0.499999
G1 X151.375 Y266.336 E3.24783
;WIDTH:0.545294
G1 X151.06 Y266.313 E.01293
;WIDTH:0.590588
G1 X150.745 Y266.291 E.0141
;WIDTH:0.612481
G1 X150.129 Y266.28 E.02858
;WIDTH:0.62787
G1 X149.518 Y266.272 E.02913
G1 X149.313 Y266.293 E.00983
;WIDTH:0.585247
G1 X149.108 Y266.315 E.00912
;WIDTH:0.542623
G1 X148.903 Y266.336 E.0084
;WIDTH:0.499999
G1 X68.788 Y266.336 E2.98395
;WIDTH:0.544629
G1 X68.474 Y266.314 E.0129
;WIDTH:0.589258
G1 X68.159 Y266.291 E.01405
;WIDTH:0.610446
G1 X67.543 Y266.281 E.02847
;WIDTH:0.625828
G1 X66.933 Y266.273 E.029
G1 X66.728 Y266.294 E.00979
;WIDTH:0.583885
G1 X66.522 Y266.315 E.00909
;WIDTH:0.541942
G1 X66.317 Y266.336 E.00839
;WIDTH:0.499999
G1 X62.53 Y266.336 E.14104
G1 X61.577 Y266.286 E.03558
G1 X60.663 Y266.141 E.03444
G1 X59.77 Y265.902 E.03444
G1 X58.907 Y265.57 E.03444
G1 X58.083 Y265.151 E.03444
G1 X57.307 Y264.647 E.03444
G1 X56.589 Y264.065 E.03444
G1 X55.936 Y263.412 E.03439
G1 X55.339 Y262.672 E.03541
G1 X54.849 Y261.917 E.03352
G1 X54.43 Y261.093 E.03444
G1 X54.098 Y260.23 E.03444
G1 X53.859 Y259.337 E.03444
G1 X53.714 Y258.423 E.03444
G1 X53.664 Y257.47 E.03558
G1 X53.664 Y253.826 E.13571
;WIDTH:0.539813
G1 X53.684 Y253.512 E.01272
;WIDTH:0.579626
G1 X53.704 Y253.199 E.01374
;WIDTH:0.595421
G1 X53.712 Y252.586 E.02759
;WIDTH:0.610809
G1 X53.72 Y251.978 E.02814
G1 X53.701 Y251.774 E.00949
;WIDTH:0.573873
G1 X53.683 Y251.57 E.00887
;WIDTH:0.536936
G1 X53.664 Y251.366 E.00826
;WIDTH:0.499999
G1 X53.664 Y153.886 E3.63073
;WIDTH:0.544021
G1 X53.685 Y152.666 E.04984
;WIDTH:0.556614
G1 X53.678 Y151.766 E.03768
;WIDTH:0.528307
G1 X53.664 Y151.464 E.01194
;WIDTH:0.499999
G1 X53.664 Y53.913 E3.6334
;WIDTH:0.539812
G1 X53.684 Y53.599 E.01272
;WIDTH:0.579624
G1 X53.704 Y53.286 E.01374
;WIDTH:0.59542
G1 X53.712 Y52.673 E.02759
;WIDTH:0.610809
G1 X53.72 Y52.065 E.02814
G1 X53.701 Y51.861 E.00949
;WIDTH:0.573873
G1 X53.683 Y51.657 E.00887
;WIDTH:0.536936
G1 X53.664 Y51.453 E.00826
;WIDTH:0.499999
G1 X53.664 Y42.53 E.33231
G1 X53.714 Y41.577 E.03558
G1 X53.859 Y40.663 E.03444
G1 X54.098 Y39.77 E.03444
G1 X54.43 Y38.907 E.03444
G1 X54.849 Y38.083 E.03444
G1 X55.353 Y37.307 E.03444
G1 X55.935 Y36.589 E.03444
G1 X56.589 Y35.935 E.03444
G1 X57.307 Y35.353 E.03444
G1 X58.083 Y34.849 E.03444
G1 X58.907 Y34.43 E.03444
G1 X59.769 Y34.099 E.03439
G1 X60.688 Y33.855 E.03541
G1 X61.577 Y33.714 E.03352
G1 X62.53 Y33.664 E.03558
G1 X66.317 Y33.664 E.14105
;WIDTH:0.541822
G1 X66.523 Y33.685 E.00838
;WIDTH:0.583644
G1 X66.728 Y33.706 E.00908
;WIDTH:0.625466
G1 X66.933 Y33.727 E.00979
G1 X67.528 Y33.719 E.02828
;WIDTH:0.648505
G1 X68.159 Y33.738 E.03112
G1 X68.368 Y33.714 E.01043
;WIDTH:0.599003
G1 X68.578 Y33.689 E.00958
;WIDTH:0.549501
G1 X68.788 Y33.664 E.00872
;WIDTH:0.499999
G1 X148.889 Y33.664 E2.98343
;WIDTH:0.541822
G1 X149.094 Y33.685 E.00838
;WIDTH:0.583644
G1 X149.299 Y33.706 E.00908
;WIDTH:0.625466
G1 X149.504 Y33.727 E.00979
G1 X150.099 Y33.719 E.02828
;WIDTH:0.648504
G1 X150.73 Y33.738 E.03111
G1 X150.94 Y33.714 E.01043
;WIDTH:0.599003
G1 X151.149 Y33.689 E.00958
;WIDTH:0.549501
G1 X151.359 Y33.664 E.00872
;WIDTH:0.499999
G1 X238.575 Y33.664 E3.24846
;WIDTH:0.541822
G1 X238.781 Y33.685 E.00838
;WIDTH:0.583644
G1 X238.986 Y33.706 E.00908
;WIDTH:0.625466
G1 X239.191 Y33.727 E.00979
G1 X239.786 Y33.719 E.02828
;WIDTH:0.648504
G1 X240.417 Y33.738 E.03111
G1 X240.626 Y33.714 E.01043
;WIDTH:0.599003
G1 X240.836 Y33.689 E.00958
;WIDTH:0.549501
G1 X241.046 Y33.664 E.00872
;WIDTH:0.499999
G1 X246.336 Y33.664 E.19702
G1 X246.336 Y233.336 E7.437
G1 X223.479 Y233.336 E.85135
G1 X223.167 Y233.379 E.01172
G1 X222.795 Y233.563 E.01545
G1 X222.552 Y233.81 E.0129
G1 X222.386 Y234.142 E.01384
G1 X222.336 Y234.479 E.01267
G1 X222.336 Y248.554 E.52426
G1 X222.358 Y249.746 E.0444
G1 X222.482 Y250.081 E.0133
G1 X222.75 Y250.402 E.01556
G1 X223.08 Y250.592 E.0142
G1 X223.275 Y250.627 E.00738
G1 X223.385 Y250.186 F21000
G1 F3000
G1 X223.479 Y250.207 E.00356
G1 X246.793 Y250.207 E.86837
G1 X246.793 Y266.793 E.61776
G1 X242.056 Y266.793 E.17643
G1 X62.519 Y266.793 E6.68708
G1 X61.529 Y266.741 E.03692
G1 X60.568 Y266.589 E.03623
G1 X59.629 Y266.337 E.03623
G1 X58.721 Y265.989 E.03623
G1 X57.854 Y265.547 E.03623
G1 X57.038 Y265.017 E.03623
G1 X56.282 Y264.405 E.03623
G1 X55.595 Y263.718 E.03619
G1 X54.969 Y262.94 E.0372
G1 X54.453 Y262.146 E.03528
G1 X54.011 Y261.279 E.03623
G1 X53.663 Y260.371 E.03623
G1 X53.411 Y259.432 E.03623
G1 X53.259 Y258.471 E.03623
G1 X53.207 Y257.481 E.03692
G1 X53.207 Y42.519 E8.00654
G1 X53.259 Y41.529 E.03692
G1 X53.411 Y40.568 E.03623
G1 X53.663 Y39.629 E.03623
G1 X54.011 Y38.721 E.03623
G1 X54.453 Y37.854 E.03623
G1 X54.983 Y37.038 E.03623
G1 X55.595 Y36.282 E.03623
G1 X56.282 Y35.595 E.03622
G1 X57.038 Y34.983 E.03623
G1 X57.854 Y34.453 E.03622
G1 X58.721 Y34.011 E.03623
G1 X59.628 Y33.663 E.03619
G1 X60.593 Y33.407 E.03719
G1 X61.529 Y33.259 E.03529
G1 X62.519 Y33.207 E.03692
G1 X246.793 Y33.207 E6.86351
G1 X246.793 Y233.793 E7.47105
G1 X223.479 Y233.793 E.86837
G1 X223.357 Y233.804 E.00455
G1 X223.068 Y233.929 E.01171
G1 X222.866 Y234.17 E.01172
G1 X222.793 Y234.479 E.0118
G1 X222.793 Y248.554 E.52426
G1 X222.817 Y249.7 E.04271
G1 X222.965 Y249.976 E.01166
G1 X223.185 Y250.141 E.01023
G1 X223.346 Y250.177 E.00617
G1 X223.479 Y249.75 F21000
;TYPE:Outer wall
G1 F3000
G1 X247.25 Y249.75 E.8854
G1 X247.25 Y267.25 E.65181
G1 X242.056 Y267.25 E.19346
G1 X62.507 Y267.25 E6.68752
G1 X61.481 Y267.196 E.03826
G1 X60.473 Y267.037 E.03801
G1 X59.487 Y266.772 E.03801
G1 X58.534 Y266.407 E.03801
G1 X57.625 Y265.943 E.03801
G1 X56.769 Y265.388 E.03801
G1 X55.976 Y264.745 E.03801
G1 X55.255 Y264.024 E.038
G1 X54.598 Y263.209 E.03898
G1 X54.057 Y262.375 E.03705
G1 X53.593 Y261.466 E.03801
G1 X53.228 Y260.513 E.03801
G1 X52.963 Y259.527 E.03801
G1 X52.804 Y258.519 E.03801
G1 X52.75 Y257.493 E.03826
G1 X52.75 Y42.507 E8.00743
M73 P0 R137
G1 X52.804 Y41.481 E.03826
G1 X52.963 Y40.473 E.03801
G1 X53.228 Y39.487 E.03801
G1 X53.593 Y38.534 E.03801
G1 X54.057 Y37.625 E.03801
G1 X54.612 Y36.769 E.03801
G1 X55.255 Y35.976 E.03801
G1 X55.976 Y35.255 E.03801
G1 X56.769 Y34.612 E.03801
G1 X57.625 Y34.057 E.03801
G1 X58.534 Y33.593 E.03801
G1 X59.487 Y33.228 E.038
G1 X60.498 Y32.959 E.03898
G1 X61.481 Y32.804 E.03705
G1 X62.507 Y32.75 E.03826
G1 X247.25 Y32.75 E6.88098
G1 X247.25 Y234.25 E7.5051
G1 X223.479 Y234.25 E.8854
G1 X223.308 Y234.326 E.00696
G1 X223.25 Y234.479 E.00606
G1 X223.25 Y249.521 E.56029
G1 X223.319 Y249.686 E.00664
G1 X223.441 Y249.735 E.0049
G1 E-.56 F1800
;WIPE_START
G1 F3000
G1 X224.441 Y249.736 E-.24
;WIPE_END
G1 Z.6 F21000
G1 X238.659 Y259.507 Z.6
G1 Z.2
G1 E.8 F1800
;TYPE:Inner wall
G1 F3000
G1 X239.025 Y259.396 E.01427
G1 X239.564 Y259.332 E.0202
G1 X240.118 Y259.361 E.02067
G1 X240.659 Y259.487 E.02071
G1 X241.166 Y259.704 E.02053
G1 X241.627 Y260.006 E.02052
G1 X242.029 Y260.383 E.02053
G1 X242.359 Y260.825 E.02052
G1 X242.607 Y261.316 E.02053
G1 X242.765 Y261.836 E.0202
G1 X242.832 Y262.386 E.02067
G1 X242.801 Y262.941 E.02071
G1 X242.676 Y263.478 E.02053
G1 X242.459 Y263.984 E.02052
G1 X242.157 Y264.446 E.02052
G1 X241.78 Y264.847 E.02053
G1 X241.338 Y265.178 E.02052
G1 X240.846 Y265.426 E.02053
;WIDTH:0.545998
G1 X240.589 Y265.528 E.01136
;WIDTH:0.591997
G1 X240.331 Y265.63 E.0124
;WIDTH:0.630082
G1 X240.128 Y265.685 E.01003
G1 X239.568 Y265.708 E.02686
G1 X239.216 Y265.685 E.01686
G1 X239.039 Y265.621 E.009
;WIDTH:0.586721
G1 X238.862 Y265.558 E.00833
;WIDTH:0.54336
G1 X238.685 Y265.494 E.00767
;WIDTH:0.499999
G1 X238.178 Y265.277 E.02053
G1 X237.717 Y264.975 E.02053
G1 X237.322 Y264.604 E.0202
G1 X236.988 Y264.161 E.02067
G1 X236.737 Y263.665 E.02071
G1 X236.578 Y263.138 E.02052
G1 X236.512 Y262.59 E.02053
G1 X236.543 Y262.04 E.02052
G1 X236.669 Y261.504 E.02053
G1 X236.886 Y260.997 E.02052
G1 X237.188 Y260.536 E.02053
G1 X237.565 Y260.134 E.02053
G1 X238.006 Y259.804 E.02053
G1 X238.498 Y259.556 E.02052
G1 X238.62 Y259.519 E.00477
G1 X238.734 Y259.96 F21000
G1 F3000
G1 X238.803 Y259.929 E.00284
G1 X239.261 Y259.817 E.01756
G1 X239.72 Y259.787 E.01713
G1 X240.201 Y259.838 E.01799
G1 X240.653 Y259.97 E.01756
G1 X241.076 Y260.178 E.01756
G1 X241.456 Y260.457 E.01756
G1 X241.782 Y260.798 E.01756
G1 X242.044 Y261.19 E.01756
G1 X242.234 Y261.622 E.01756
G1 X242.343 Y262.069 E.01713
G1 X242.377 Y262.55 E.01799
G1 X242.325 Y263.019 E.01757
G1 X242.193 Y263.472 E.01756
G1 X241.985 Y263.895 E.01756
G1 X241.706 Y264.275 E.01756
G1 X241.365 Y264.601 E.01756
G1 X240.973 Y264.863 E.01756
G1 X240.541 Y265.053 E.01756
G1 X240.201 Y265.144 E.01312
G1 X239.672 Y265.198 E.01979
G1 X239.144 Y265.144 E.01979
G1 X238.691 Y265.012 E.01756
G1 X238.268 Y264.803 E.01756
G1 X237.888 Y264.524 E.01756
G1 X237.57 Y264.192 E.01713
G1 X237.3 Y263.791 E.01799
G1 X237.11 Y263.36 E.01756
G1 X236.998 Y262.902 E.01756
G1 X236.968 Y262.431 E.01756
G1 X237.019 Y261.962 E.01756
G1 X237.151 Y261.51 E.01756
G1 X237.36 Y261.087 E.01756
G1 X237.639 Y260.707 E.01756
G1 X237.98 Y260.381 E.01756
G1 X238.372 Y260.119 E.01756
G1 X238.697 Y259.976 E.01324
G1 X238.915 Y260.373 F21000
;TYPE:Outer wall
G1 F3000
G1 X238.922 Y260.37 E.00027
G1 X239.301 Y260.272 E.0146
G1 X239.682 Y260.242 E.01424
G1 X240.082 Y260.279 E.01496
G1 X240.46 Y260.384 E.0146
G1 X240.814 Y260.553 E.0146
G1 X241.133 Y260.781 E.0146
G1 X241.408 Y261.06 E.0146
G1 X241.63 Y261.383 E.0146
G1 X241.793 Y261.74 E.0146
G1 X241.888 Y262.11 E.01424
G1 X241.921 Y262.511 E.01496
G1 X241.884 Y262.901 E.01461
G1 X241.779 Y263.279 E.0146
G1 X241.61 Y263.633 E.0146
G1 X241.382 Y263.952 E.0146
G1 X241.103 Y264.227 E.0146
G1 X240.78 Y264.449 E.0146
G1 X240.423 Y264.611 E.0146
G1 X240.082 Y264.702 E.01312
G1 X239.652 Y264.74 E.01608
G1 X239.262 Y264.702 E.0146
G1 X238.884 Y264.598 E.0146
G1 X238.53 Y264.429 E.0146
G1 X238.211 Y264.201 E.0146
G1 X237.943 Y263.928 E.01424
G1 X237.714 Y263.598 E.01496
G1 X237.552 Y263.241 E.0146
G1 X237.454 Y262.862 E.0146
G1 X237.423 Y262.471 E.0146
G1 X237.461 Y262.081 E.0146
G1 X237.565 Y261.703 E.0146
G1 X237.734 Y261.349 E.0146
G1 X237.962 Y261.03 E.0146
G1 X238.242 Y260.755 E.0146
G1 X238.565 Y260.533 E.0146
G1 X238.879 Y260.39 E.01284
G1 E-.56 F1800
;WIPE_START
G1 F3000
G1 X238.922 Y260.37 E-.01135
G1 X239.301 Y260.272 E-.09409
G1 X239.682 Y260.242 E-.09177
G1 X239.86 Y260.259 E-.04278
;WIPE_END
G1 Z.6 F21000
G1 X181.127 Y227.729 Z.6
G1 Z.2
G1 E.8 F1800
;TYPE:Inner wall
G1 F3000
G1 X181.16 Y227.627 E.00397
G1 X181.677 Y226.459 E.0476
G1 X182.249 Y225.449 E.04322
G1 X183.057 Y224.311 E.05198
G1 X183.905 Y223.355 E.0476
G1 X184.847 Y222.492 E.0476
G1 X185.873 Y221.729 E.0476
G1 X186.972 Y221.077 E.0476
G1 X188.132 Y220.54 E.0476
G1 X189.341 Y220.126 E.0476
G1 X190.586 Y219.839 E.0476
G1 X191.854 Y219.681 E.0476
G1 X193.1 Y219.654 E.04642
G1 X194.406 Y219.758 E.04878
G1 X195.547 Y219.966 E.04322
G1 X196.776 Y220.318 E.0476
G1 X197.962 Y220.794 E.0476
G1 X199.093 Y221.389 E.0476
G1 X200.157 Y222.097 E.0476
G1 X201.142 Y222.911 E.0476
G1 X202.038 Y223.822 E.0476
G1 X202.202 Y224.019 E.00952
G1 X202.904 Y224.917 E.04246
G1 X203.585 Y225.998 E.0476
G1 X204.104 Y227.036 E.04322
G1 X204.561 Y228.23 E.0476
G1 X204.892 Y229.464 E.0476
G1 X205.095 Y230.726 E.0476
G1 X205.166 Y232.002 E.0476
G1 X205.107 Y233.279 E.0476
G1 X204.916 Y234.542 E.0476
G1 X204.596 Y235.78 E.0476
G1 X204.151 Y236.978 E.0476
G1 X203.585 Y238.123 E.0476
G1 X202.904 Y239.205 E.0476
G1 X202.116 Y240.211 E.0476
G1 X201.142 Y241.21 E.05198
G1 X200.251 Y241.954 E.04322
G1 X199.093 Y242.733 E.05198
G1 X197.962 Y243.328 E.0476
G1 X196.776 Y243.804 E.0476
G1 X195.547 Y244.155 E.0476
G1 X194.398 Y244.365 E.0435
G1 X193.132 Y244.468 E.04732
G1 X191.854 Y244.441 E.0476
G1 X190.586 Y244.283 E.0476
G1 X189.284 Y243.98 E.0498
G1 X188.132 Y243.581 E.04541
G1 X186.972 Y243.045 E.0476
G1 X185.873 Y242.392 E.0476
G1 X184.847 Y241.63 E.0476
G1 X183.905 Y240.766 E.0476
G1 X183.057 Y239.81 E.0476
G1 X182.312 Y238.772 E.0476
G1 X181.845 Y237.96 E.0349
G1 X181.624 Y237.558 E.01708
G1 X181.118 Y236.384 E.0476
G1 X180.735 Y235.165 E.0476
G1 X180.48 Y233.913 E.0476
G1 X180.36 Y232.759 E.04322
G1 X180.36 Y231.363 E.05198
G1 X180.498 Y230.092 E.0476
G1 X180.765 Y228.843 E.0476
G1 X181.114 Y227.767 E.04214
G1 X181.576 Y227.824 F21000
G1 F3000
G1 X182.045 Y226.742 E.04395
G1 X182.646 Y225.674 E.04565
G1 X183.4 Y224.613 E.04847
G1 X184.216 Y223.691 E.04585
G1 X185.072 Y222.898 E.04347
G1 X186.108 Y222.121 E.04823
G1 X187.166 Y221.491 E.04585
G1 X188.282 Y220.972 E.04585
G1 X189.378 Y220.591 E.04322
G1 X190.575 Y220.305 E.04585
G1 X191.796 Y220.143 E.04585
G1 X192.997 Y220.108 E.04477
G1 X194.252 Y220.199 E.04686
G1 X195.466 Y220.416 E.04591
G1 X196.648 Y220.757 E.04585
G1 X197.79 Y221.217 E.04585
G1 X198.878 Y221.792 E.04585
G1 X199.902 Y222.477 E.04585
G1 X200.849 Y223.262 E.04585
G1 X201.711 Y224.141 E.04585
G1 X201.843 Y224.303 E.00777
G1 X202.519 Y225.162 E.04071
G1 X203.176 Y226.203 E.04585
G1 X203.723 Y227.305 E.04585
G1 X204.154 Y228.458 E.04585
G1 X204.464 Y229.65 E.04585
G1 X204.643 Y230.796 E.04322
G1 X204.71 Y232.026 E.04585
G1 X204.65 Y233.255 E.04585
G1 X204.464 Y234.472 E.04585
G1 X204.154 Y235.663 E.04585
G1 X203.723 Y236.816 E.04585
G1 X203.176 Y237.919 E.04585
G1 X202.519 Y238.96 E.04585
G1 X201.758 Y239.927 E.04585
G1 X200.849 Y240.859 E.04847
G1 X199.958 Y241.603 E.04322
G1 X198.878 Y242.329 E.04847
G1 X197.79 Y242.905 E.04585
G1 X196.648 Y243.365 E.04585
G1 X195.466 Y243.705 E.04585
G1 X194.319 Y243.914 E.04339
G1 X193.097 Y244.012 E.04568
G1 X191.866 Y243.984 E.04585
G1 X190.645 Y243.83 E.04585
G1 X189.412 Y243.541 E.04717
G1 X188.282 Y243.149 E.04453
G1 X187.166 Y242.631 E.04585
G1 X186.108 Y242 E.04585
G1 X185.122 Y241.264 E.04585
G1 X184.216 Y240.431 E.04585
G1 X183.4 Y239.509 E.04585
G1 X182.684 Y238.507 E.04585
G1 X182.243 Y237.735 E.03314
G1 X182.043 Y237.375 E.01533
G1 X181.554 Y236.245 E.04585
G1 X181.183 Y235.072 E.04585
G1 X180.934 Y233.866 E.04585
G1 X180.815 Y232.712 E.04322
