; HEADER_BLOCK_START
; generated by OrcaSlicer 1.8.0-beta1 on 2024-04-14 at 20:46:13
; total layer number: 20
; HEADER_BLOCK_END


;
;
; external perimeters extrusion width = 0.40mm
; perimeters extrusion width = 0.45mm
; infill extrusion width = 0.45mm
; solid infill extrusion width = 0.40mm
; top infill extrusion width = 0.40mm
; first layer extrusion width = 0.50mm

; EXECUTABLE_BLOCK_START
EXCLUDE_OBJECT_DEFINE NAME=starlink_routeur_v9.stl_id_0_copy_0 CENTER=150,150 POLYGON=[[32.5047,217.391],[32.5049,92.391],[32.5806,91.3616],[32.762,90.3454],[33.0472,89.3533],[33.4331,88.396],[33.9157,87.4835],[34.4898,86.6256],[35.1492,85.8314],[35.887,85.1095],[36.6953,84.4675],[37.5655,83.9122],[38.4883,83.4496],[39.4538,83.0846],[40.4518,82.821],[41.4717,82.6617],[42.5026,82.6085],[257.495,82.6089],[258.541,82.6637],[259.574,82.8274],[260.585,83.0983],[261.563,83.4735],[262.495,83.9487],[263.373,84.5187],[264.187,85.1775],[264.927,85.9176],[265.585,86.7311],[266.156,87.6089],[266.631,88.5416],[267.006,89.5188],[267.277,90.5298],[267.441,91.5637],[267.495,92.609],[267.495,217.392],[32.5047,217.391]]
M73 P0 R71
;TYPE:Custom
M190 S70
M109 S220
PRINT_START EXTRUDER=220 BED=70
G90
G21
M83 ; use relative distances for extrusion
; filament start gcode
M106 S0
;LAYER_CHANGE
;Z:0.2
;HEIGHT:0.2
;BEFORE_LAYER_CHANGE
;0.2
G92 E0

G1 E-.8 F1800
;AFTER_LAYER_CHANGE
;0.2
;_SET_FAN_SPEED_CHANGING_LAYER
SET_VELOCITY_LIMIT ACCEL=500 ACCEL_TO_DECEL=250
; printing object starlink_routeur v9.stl id:0 copy 0
EXCLUDE_OBJECT_START NAME=starlink_routeur_v9.stl_id_0_copy_0
G1 Z.4 F21000
G1 X266.331 Y216.227
G1 Z.4
G1 Z.2
G1 E.8 F1800
;TYPE:Inner wall
;WIDTH:0.499999
G1 F3000
G1 X263.865 Y216.227 E.09186
;WIDTH:0.541343
G1 X263.551 Y216.207 E.01278
;WIDTH:0.582686
G1 X263.237 Y216.186 E.01384
;WIDTH:0.600141
G1 X262.623 Y216.177 E.02786
;WIDTH:0.615525
G1 X262.014 Y216.17 E.02841
G1 X261.81 Y216.189 E.00958
;WIDTH:0.577017
G1 X261.605 Y216.208 E.00894
;WIDTH:0.538508
G1 X261.401 Y216.227 E.00829
;WIDTH:0.499999
G1 X38.889 Y216.227 E8.2877
;WIDTH:0.53474
G1 X38.678 Y216.21 E.0085
;WIDTH:0.569481
G1 X38.467 Y216.192 E.0091
;WIDTH:0.604221
G1 X38.255 Y216.175 E.0097
;WIDTH:0.634033
G1 X37.636 Y216.16 E.02985
;WIDTH:0.649426
G1 X37.021 Y216.152 E.03039
G1 X36.815 Y216.177 E.01028
;WIDTH:0.599617
G1 X36.608 Y216.202 E.00943
;WIDTH:0.549808
G1 X36.402 Y216.227 E.00859
;WIDTH:0.499999
G1 X33.669 Y216.227 E.10179
G1 X33.669 Y213.724 E.09322
;WIDTH:0.544526
G1 X33.691 Y213.406 E.01304
;WIDTH:0.589052
G1 X33.713 Y213.088 E.0142
;WIDTH:0.610079
G1 X33.724 Y212.472 E.02844
;WIDTH:0.625462
G1 X33.732 Y211.862 E.02899
G1 X33.711 Y211.657 E.00979
;WIDTH:0.583641
G1 X33.69 Y211.452 E.00908
;WIDTH:0.54182
G1 X33.669 Y211.247 E.00838
;WIDTH:0.499999
G1 X33.669 Y93.488 E4.38606
;WIDTH:0.54182
G1 X33.69 Y93.283 E.00838
;WIDTH:0.58364
G1 X33.711 Y93.078 E.00908
;WIDTH:0.62546
G1 X33.732 Y92.873 E.00979
G1 X33.735 Y92.241 E.02996
;WIDTH:0.629717
G1 X33.806 Y91.491 E.03603
;WIDTH:0.662261
G1 X33.911 Y90.997 E.02549
G1 X33.908 Y90.877 E.00605
;WIDTH:0.614208
G1 X33.905 Y90.757 E.00558
;WIDTH:0.566155
G1 X33.902 Y90.638 E.00511
;WIDTH:0.518102
G1 X33.979 Y90.324 E.01249
;WIDTH:0.499999
G1 X34.149 Y89.733 E.02293
G1 X34.49 Y88.887 E.03397
G1 X34.917 Y88.081 E.03396
G1 X35.424 Y87.323 E.03397
G1 X36.006 Y86.621 E.03397
G1 X36.658 Y85.984 E.03397
G1 X37.372 Y85.416 E.03396
G1 X38.141 Y84.926 E.03396
G1 X38.956 Y84.517 E.03397
G1 X39.809 Y84.195 E.03396
G1 X40.691 Y83.962 E.03397
G1 X41.592 Y83.821 E.03396
G1 X42.533 Y83.773 E.03509
G1 X146.745 Y83.773 E3.88151
;WIDTH:0.52342
G1 X147.921 Y83.777 E.04603
;WIDTH:0.544887
G1 X148.533 Y83.795 E.02504
G1 X149.144 Y83.773 E.02502
;WIDTH:0.499999
G1 X257.465 Y83.773 E4.03454
G1 X258.419 Y83.823 E.03558
G1 X259.332 Y83.968 E.03444
G1 X260.225 Y84.207 E.03444
G1 X261.088 Y84.538 E.03444
G1 X261.912 Y84.958 E.03444
G1 X262.688 Y85.462 E.03444
G1 X263.407 Y86.044 E.03444
G1 X264.059 Y86.697 E.03439
G1 X264.656 Y87.437 E.03541
G1 X265.146 Y88.192 E.03352
G1 X265.566 Y89.016 E.03444
G1 X265.887 Y89.852 E.03337
;WIDTH:0.530528
G1 X265.938 Y90.097 E.00996
;WIDTH:0.561057
G1 X265.99 Y90.343 E.01058
;WIDTH:0.608658
G1 X265.991 Y90.438 E.00441
;WIDTH:0.656259
G1 X265.992 Y90.534 E.00478
;WIDTH:0.70386
G1 X265.993 Y90.63 E.00515
G1 X266.069 Y90.946 E.01755
;WIDTH:0.670374
G1 X266.145 Y91.263 E.01666
;WIDTH:0.636888
G1 X266.238 Y91.882 E.03029
;WIDTH:0.615654
G1 X266.273 Y92.648 E.0358
;WIDTH:0.625459
G1 X266.268 Y92.873 E.01066
G1 X266.289 Y93.078 E.00979
;WIDTH:0.583639
G1 X266.31 Y93.283 E.00908
;WIDTH:0.541819
G1 X266.331 Y93.488 E.00838
;WIDTH:0.499999
G1 X266.331 Y211.315 E4.38857
;WIDTH:0.542293
G1 X266.31 Y211.515 E.00819
;WIDTH:0.584586
G1 X266.289 Y211.715 E.00888
;WIDTH:0.626879
G1 X266.267 Y211.915 E.00958
G1 X266.276 Y212.276 E.01718
;WIDTH:0.625459
G1 X266.268 Y212.893 E.02928
G1 X266.289 Y213.098 E.00979
;WIDTH:0.583639
G1 X266.31 Y213.303 E.00908
;WIDTH:0.541819
G1 X266.331 Y213.508 E.00838
;WIDTH:0.499999
G1 X266.331 Y216.187 E.09979
G1 X266.788 Y216.684 F21000
G1 F3000
G1 X33.212 Y216.684 E8.69982
G1 X33.212 Y92.418 E4.62843
G1 X33.287 Y91.425 E.03708
G1 X33.452 Y90.506 E.0348
G1 X33.717 Y89.584 E.03573
G1 X34.075 Y88.694 E.03573
G1 X34.524 Y87.846 E.03572
G1 X35.057 Y87.049 E.03573
G1 X35.67 Y86.311 E.03572
G1 X36.355 Y85.64 E.03573
G1 X37.106 Y85.044 E.03572
G1 X37.915 Y84.528 E.03572
G1 X38.772 Y84.098 E.03573
G1 X39.67 Y83.759 E.03572
G1 X40.597 Y83.514 E.03573
G1 X41.545 Y83.366 E.03572
G1 X42.521 Y83.316 E.03641
G1 X257.477 Y83.316 E8.00628
G1 X258.467 Y83.368 E.03692
G1 X259.427 Y83.52 E.03623
G1 X260.367 Y83.772 E.03623
G1 X261.275 Y84.12 E.03623
G1 X262.141 Y84.562 E.03623
G1 X262.957 Y85.092 E.03623
G1 X263.713 Y85.704 E.03623
G1 X264.4 Y86.391 E.03619
G1 X265.026 Y87.168 E.0372
G1 X265.542 Y87.963 E.03529
G1 X265.984 Y88.83 E.03623
G1 X266.332 Y89.738 E.03623
G1 X266.584 Y90.677 E.03623
G1 X266.664 Y91.181 E.01901
G1 X266.748 Y91.856 E.02531
G1 X266.788 Y92.648 E.02957
G1 X266.788 Y216.644 E4.61837
G1 X267.245 Y217.142 F21000
;TYPE:Outer wall
G1 F3000
G1 X32.755 Y217.141 E8.73386
G1 X32.755 Y92.401 E4.6461
G1 X32.833 Y91.368 E.03858
G1 X33.006 Y90.402 E.03653
G1 X33.284 Y89.435 E.03749
G1 X33.66 Y88.501 E.03748
G1 X34.131 Y87.612 E.03748
G1 X34.69 Y86.775 E.03749
G1 X35.333 Y86.001 E.03748
G1 X36.053 Y85.297 E.03749
G1 X36.841 Y84.671 E.03748
G1 X37.689 Y84.13 E.03748
G1 X38.589 Y83.679 E.03749
G1 X39.53 Y83.323 E.03748
G1 X40.503 Y83.066 E.03749
G1 X41.498 Y82.911 E.03748
G1 X42.509 Y82.858 E.03773
G1 X257.489 Y82.859 E8.00716
M73 P1 R71
G1 X258.514 Y82.913 E.03826
G1 X259.522 Y83.072 E.03801
G1 X260.508 Y83.336 E.03801
G1 X261.461 Y83.702 E.03801
G1 X262.37 Y84.165 E.03801
G1 X263.226 Y84.721 E.03801
G1 X264.019 Y85.364 E.03801
G1 X264.74 Y86.085 E.038
G1 X265.397 Y86.9 E.03898
G1 X265.939 Y87.734 E.03705
G1 X266.402 Y88.643 E.03801
G1 X266.768 Y89.596 E.03801
G1 X267.032 Y90.582 E.03801
G1 X267.116 Y91.11 E.0199
G1 X267.204 Y91.832 E.02709
G1 X267.245 Y92.648 E.03046
G1 X267.245 Y217.102 E4.6354
G1 E-.56 F1800
;WIPE_START
G1 F3000
G1 X266.245 Y217.102 E-.24
;WIPE_END
G1 Z.6 F21000
G1 X265.466 Y91.112 Z.6
G1 Z.2
G1 E.8 F1800
;TYPE:Inner wall
;WIDTH:0.70386
G1 F3000
G1 X265.469 Y91.121 E.00052
;WIDTH:0.670374
G1 X265.565 Y91.387 E.01444
;WIDTH:0.636888
G1 X265.675 Y91.923 E.02649
;WIDTH:0.607152
G1 X265.708 Y92.329 E.01874
;WIDTH:0.625459
G1 X265.687 Y92.848 E.02463
G1 X265.624 Y93.025 E.00892
;WIDTH:0.583639
G1 X265.561 Y93.202 E.00828
;WIDTH:0.541819
G1 X265.499 Y93.379 E.00764
;WIDTH:0.499999
G1 X265.282 Y93.885 E.02052
G1 X264.98 Y94.346 E.02053
G1 X264.609 Y94.742 E.0202
G1 X264.166 Y95.075 E.02067
G1 X263.67 Y95.327 E.02071
G1 X263.142 Y95.486 E.02053
G1 X262.595 Y95.551 E.02052
G1 X262.045 Y95.521 E.02053
G1 X261.508 Y95.395 E.02052
G1 X261.002 Y95.178 E.02053
G1 X260.54 Y94.876 E.02053
G1 X260.145 Y94.505 E.0202
G1 X259.811 Y94.062 E.02067
G1 X259.56 Y93.566 E.02071
G1 X259.401 Y93.038 E.02052
G1 X259.335 Y92.491 E.02053
G1 X259.366 Y91.941 E.02052
G1 X259.492 Y91.404 E.02053
G1 X259.709 Y90.898 E.02052
G1 X260.011 Y90.437 E.02053
G1 X260.388 Y90.035 E.02053
G1 X260.829 Y89.705 E.02052
G1 X261.321 Y89.456 E.02053
G1 X261.849 Y89.297 E.02053
G1 X262.387 Y89.232 E.0202
G1 X262.941 Y89.262 E.02067
G1 X263.482 Y89.388 E.02071
G1 X263.989 Y89.605 E.02053
G1 X264.45 Y89.907 E.02053
G1 X264.852 Y90.284 E.02053
;WIDTH:0.530528
G1 X265.03 Y90.496 E.01098
;WIDTH:0.561057
G1 X265.207 Y90.708 E.01167
;WIDTH:0.608658
G1 X265.263 Y90.757 E.00342
;WIDTH:0.656259
G1 X265.318 Y90.806 E.00371
;WIDTH:0.70386
G1 X265.374 Y90.855 E.00399
G1 X265.453 Y91.074 E.01254
G1 X264.948 Y91.266 F21000
;WIDTH:0.499999
G1 F3000
G1 X265.057 Y91.523 E.01038
G1 X265.167 Y91.969 E.01713
G1 X265.202 Y92.356 E.01444
G1 X265.161 Y92.861 E.01888
G1 X265.016 Y93.373 E.01981
G1 X264.808 Y93.796 E.01756
G1 X264.529 Y94.176 E.01756
G1 X264.197 Y94.494 E.01713
G1 X263.796 Y94.764 E.01799
G1 X263.364 Y94.953 E.01757
G1 X262.906 Y95.065 E.01756
G1 X262.436 Y95.096 E.01756
G1 X261.967 Y95.045 E.01756
G1 X261.514 Y94.913 E.01756
G1 X261.091 Y94.704 E.01756
G1 X260.711 Y94.425 E.01756
G1 X260.393 Y94.093 E.01713
G1 X260.123 Y93.692 E.01799
G1 X259.933 Y93.26 E.01756
G1 X259.821 Y92.802 E.01756
G1 X259.791 Y92.332 E.01756
G1 X259.842 Y91.863 E.01756
G1 X259.974 Y91.41 E.01756
G1 X260.183 Y90.988 E.01756
G1 X260.462 Y90.607 E.01756
G1 X260.803 Y90.281 E.01756
G1 X261.324 Y89.959 E.02282
G1 X261.626 Y89.83 E.01227
G1 X262.085 Y89.718 E.01756
G1 X262.543 Y89.688 E.01713
G1 X263.024 Y89.738 E.01799
G1 X263.476 Y89.871 E.01757
G1 X263.899 Y90.079 E.01756
G1 X264.28 Y90.358 E.01756
G1 X264.606 Y90.699 E.01756
G1 X264.932 Y91.23 E.02321
G1 X264.527 Y91.449 F21000
;TYPE:Outer wall
G1 F3000
G1 X264.705 Y91.973 E.0206
G1 X264.745 Y92.38 E.01522
G1 X264.707 Y92.802 E.01579
G1 X264.602 Y93.18 E.0146
G1 X264.433 Y93.533 E.0146
G1 X264.206 Y93.853 E.0146
G1 X263.933 Y94.121 E.01424
G1 X263.603 Y94.349 E.01496
G1 X263.246 Y94.512 E.01461
G1 X262.866 Y94.61 E.0146
G1 X262.475 Y94.641 E.0146
G1 X262.085 Y94.603 E.0146
G1 X261.707 Y94.498 E.0146
G1 X261.353 Y94.329 E.0146
G1 X261.034 Y94.102 E.0146
G1 X260.766 Y93.829 E.01424
G1 X260.537 Y93.499 E.01496
G1 X260.375 Y93.142 E.0146
G1 X260.277 Y92.762 E.0146
G1 X260.246 Y92.372 E.0146
G1 X260.284 Y91.981 E.0146
G1 X260.389 Y91.604 E.0146
G1 X260.557 Y91.25 E.0146
G1 X260.785 Y90.931 E.0146
G1 X261.065 Y90.656 E.0146
G1 X261.517 Y90.374 E.01985
G1 X262.085 Y90.18 E.02236
G1 X262.506 Y90.143 E.01572
G1 X262.905 Y90.18 E.01496
G1 X263.283 Y90.285 E.01461
G1 X263.637 Y90.454 E.0146
G1 X263.956 Y90.681 E.0146
G1 X264.231 Y90.961 E.0146
G1 X264.511 Y91.413 E.0198
G1 E-.56 F1800
;WIPE_START
G1 F3000
G1 X264.705 Y91.973 E-.14224
G1 X264.745 Y92.378 E-.09776
;WIPE_END
G1 Z.6 F21000
G1 X124.241 Y200.168 Z.6
G1 Z.2
G1 E.8 F1800
;TYPE:Inner wall
G1 F3000
G1 X102.384 Y200.168 E.8141
G1 X101.998 Y200.1 E.01458
G1 X101.674 Y199.921 E.01378
G1 X101.405 Y199.614 E.01522
G1 X101.261 Y199.241 E.0149
G1 X101.241 Y199.025 E.00807
G1 X101.241 Y107.976 E3.39121
G1 X101.31 Y107.59 E.01461
G1 X101.494 Y107.265 E.01389
G1 X101.777 Y107.013 E.01413
G1 X102.097 Y106.876 E.01295
G1 X102.384 Y106.839 E.01078
G1 X232.427 Y106.84 E4.8436
G1 X232.787 Y106.898 E.01358
G1 X233.148 Y107.096 E.01536
G1 X233.285 Y107.228 E.00709
G1 X233.488 Y107.558 E.01443
G1 X233.569 Y107.982 E.01608
G1 X233.569 Y199.025 E3.391
M73 P1 R70
G1 X233.495 Y199.43 E.01535
G1 X233.312 Y199.748 E.01365
G1 X233.059 Y199.977 E.0127
G1 X232.717 Y200.13 E.01394
G1 X232.427 Y200.168 E.01093
G1 X210.569 Y200.168 E.8141
G1 X210.569 Y208.025 E.29265
G1 X210.507 Y208.397 E.01403
G1 X210.377 Y208.659 E.0109
G1 X210.15 Y208.91 E.01261
G1 X209.822 Y209.097 E.01408
G1 X209.426 Y209.168 E.01495
G1 X125.384 Y209.168 E3.13027
G1 X124.988 Y209.097 E.01495
G1 X124.66 Y208.909 E.01408
G1 X124.433 Y208.659 E.01261
G1 X124.268 Y208.272 E.01566
G1 X124.241 Y208.025 E.00925
G1 X124.241 Y200.208 E.29116
G1 X124.698 Y199.711 F21000
G1 F3000
G1 X102.384 Y199.711 E.83112
G1 X102.099 Y199.649 E.01085
G1 X101.85 Y199.455 E.01175
G1 X101.718 Y199.19 E.01104
G1 X101.698 Y199.025 E.00618
G1 X101.698 Y107.979 E3.39112
G1 X101.762 Y107.693 E.01089
G1 X101.955 Y107.447 E.01167
G1 X102.212 Y107.318 E.01068
G1 X102.384 Y107.296 E.00647
G1 X232.427 Y107.297 E4.8436
G1 X232.722 Y107.363 E.01127
G1 X232.942 Y107.53 E.01027
G1 X233.088 Y107.8 E.01142
G1 X233.112 Y107.982 E.00686
G1 X233.112 Y199.025 E3.391
G1 X233.052 Y199.306 E.0107
G1 X232.889 Y199.531 E.01035
G1 X232.656 Y199.671 E.01012
G1 X232.427 Y199.711 E.00868
G1 X210.112 Y199.711 E.83112
G1 X210.112 Y208.025 E.30968
G1 X210.043 Y208.326 E.0115
G1 X209.861 Y208.556 E.01092
G1 X209.664 Y208.668 E.00845
G1 X209.426 Y208.711 E.00897
G1 X125.384 Y208.711 E3.13027
G1 X125.146 Y208.668 E.00897
G1 X124.873 Y208.483 E.01229
G1 X124.735 Y208.248 E.01016
G1 X124.698 Y208.025 E.00842
G1 X124.698 Y199.751 E.30819
G1 X125.155 Y199.253 F21000
;TYPE:Outer wall
G1 F3000
G1 X102.384 Y199.253 E.84815
G1 X102.228 Y199.193 E.0062
G1 X102.155 Y199.025 E.00682
G1 X102.155 Y107.981 E3.39104
G1 X102.222 Y107.821 E.00647
G1 X102.384 Y107.753 E.00652
G1 X232.427 Y107.754 E4.8436
G1 X232.598 Y107.831 E.00702
G1 X232.655 Y107.982 E.006
G1 X232.655 Y199.029 E3.39114
G1 X232.581 Y199.194 E.00674
G1 X232.427 Y199.254 E.00616
G1 X209.655 Y199.254 E.84815
G1 X209.655 Y208.025 E.3267
G1 X209.597 Y208.178 E.00609
G1 X209.466 Y208.25 E.00556
G1 X209.426 Y208.254 E.00148
G1 X125.384 Y208.253 E3.13027
G1 X125.239 Y208.202 E.00572
G1 X125.155 Y208.025 E.00729
G1 X125.155 Y199.293 E.32521
G1 E-.56 F1800
;WIPE_START
G1 F3000
G1 X124.155 Y199.292 E-.24
;WIPE_END
G1 Z.6 F21000
G1 X146.3 Y84.642 Z.6
G1 Z.2
G1 E.8 F1800
;TYPE:Inner wall
G1 F3000
G1 X146.641 Y84.47 E.01424
;WIDTH:0.521534
G1 X147.165 Y84.3 E.02151
G1 X147.706 Y84.242 E.02122
;WIDTH:0.523159
G1 X148.262 Y84.264 E.02175
;WIDTH:0.544887
G1 X148.468 Y84.289 E.00848
G1 X148.989 Y84.47 E.02259
;WIDTH:0.499999
G1 X149.481 Y84.718 E.02053
G1 X149.922 Y85.048 E.02053
G1 X150.3 Y85.45 E.02053
G1 X150.601 Y85.911 E.02053
G1 X150.818 Y86.418 E.02052
G1 X150.942 Y86.941 E.02002
G1 X150.975 Y87.505 E.02102
G1 X150.91 Y88.052 E.02053
G1 X150.75 Y88.579 E.02052
G1 X150.525 Y89.037 E.019
G1 X150.218 Y89.463 E.01954
G1 X149.85 Y89.828 E.01932
G1 X149.398 Y90.145 E.02056
G1 X148.898 Y90.378 E.02056
G1 X148.376 Y90.518 E.02014
G1 X147.818 Y90.569 E.02088
G1 X147.364 Y90.534 E.01693
G1 X146.828 Y90.408 E.02053
G1 X146.321 Y90.191 E.02053
G1 X145.86 Y89.89 E.02053
G1 X145.458 Y89.512 E.02053
G1 X145.128 Y89.071 E.02053
G1 X144.88 Y88.579 E.02053
G1 X144.723 Y88.06 E.0202
G1 X144.656 Y87.509 E.02067
G1 X144.686 Y86.954 E.02071
G1 X144.812 Y86.418 E.02053
G1 X145.029 Y85.911 E.02053
G1 X145.33 Y85.45 E.02053
G1 X145.708 Y85.048 E.02053
G1 X146.149 Y84.718 E.02053
G1 X146.264 Y84.66 E.0048
G1 X146.452 Y85.075 F21000
G1 F3000
G1 X146.515 Y85.033 E.00281
G1 X146.946 Y84.843 E.01756
G1 X147.404 Y84.731 E.01756
G1 X147.863 Y84.701 E.01713
G1 X148.343 Y84.752 E.01799
G1 X148.796 Y84.884 E.01756
G1 X149.219 Y85.093 E.01756
G1 X149.599 Y85.372 E.01756
G1 X149.925 Y85.712 E.01756
G1 X150.187 Y86.104 E.01756
G1 X150.377 Y86.536 E.01756
G1 X150.486 Y86.983 E.01713
G1 X150.52 Y87.465 E.01799
G1 X150.468 Y87.933 E.01757
G1 X150.336 Y88.386 E.01756
G1 X150.127 Y88.809 E.01756
G1 X149.848 Y89.189 E.01756
G1 X149.508 Y89.515 E.01756
G1 X149.116 Y89.777 E.01756
G1 X148.684 Y89.967 E.01756
G1 X148.237 Y90.076 E.01713
G1 X147.755 Y90.11 E.01799
G1 X147.404 Y90.079 E.01313
G1 X146.889 Y89.949 E.0198
G1 X146.411 Y89.717 E.01977
G1 X146.031 Y89.438 E.01756
G1 X145.705 Y89.098 E.01756
G1 X145.443 Y88.706 E.01756
G1 X145.253 Y88.274 E.01756
G1 X145.144 Y87.827 E.01713
G1 X145.11 Y87.345 E.01799
G1 X145.162 Y86.876 E.01757
G1 X145.294 Y86.424 E.01756
G1 X145.503 Y86.001 E.01756
G1 X145.782 Y85.621 E.01756
G1 X146.122 Y85.295 E.01756
G1 X146.419 Y85.097 E.01327
G1 X146.702 Y85.451 F21000
;TYPE:Outer wall
G1 F3000
G1 X146.708 Y85.447 E.00024
G1 X147.064 Y85.285 E.0146
