; HEADER_BLOCK_START
; generated by OrcaSlicer 1.8.0-beta1 on 2024-03-10 at 18:47:58
; total layer number: 73
; HEADER_BLOCK_END


;
;
; external perimeters extrusion width = 0.40mm
; perimeters extrusion width = 0.45mm
; infill extrusion width = 0.45mm
; solid infill extrusion width = 0.40mm
; top infill extrusion width = 0.40mm
; first layer extrusion width = 0.50mm

; external perimeters extrusion width = 0.40mm
; perimeters extrusion width = 0.45mm
; infill extrusion width = 0.45mm
; solid infill extrusion width = 0.40mm
; top infill extrusion width = 0.40mm
; first layer extrusion width = 0.50mm

; EXECUTABLE_BLOCK_START
EXCLUDE_OBJECT_DEFINE NAME=top.stl_id_0_copy_0 CENTER=150,191 POLYGON=[[110,188.55],[110,157],[110.061,156.146],[110.243,155.31],[110.542,154.508],[110.952,153.756],[111.465,153.071],[112.071,152.465],[112.756,151.952],[113.508,151.542],[114.31,151.243],[115.146,151.061],[116,151],[152.45,151],[184,151],[184.854,151.061],[185.69,151.243],[186.492,151.542],[187.244,151.952],[187.929,152.465],[188.534,153.071],[189.048,153.756],[189.458,154.508],[189.757,155.31],[189.939,156.146],[190,157],[190,193.45],[190,225],[189.939,225.854],[189.757,226.69],[189.458,227.492],[189.048,228.244],[188.534,228.929],[187.929,229.534],[187.244,230.048],[186.492,230.458],[185.69,230.757],[184.854,230.939],[184,231],[147.55,231],[116,231],[115.146,230.939],[114.31,230.757],[113.508,230.458],[112.756,230.048],[112.071,229.534],[111.465,228.929],[110.952,228.244],[110.542,227.492],[110.243,226.69],[110.061,225.854],[110,225],[110,188.55]]
EXCLUDE_OBJECT_DEFINE NAME=bottom.stl_id_1_copy_0 CENTER=150,109 POLYGON=[[110,75],[110.061,74.1461],[110.243,73.3096],[110.542,72.5075],[110.952,71.7562],[111.466,71.0708],[112.071,70.4655],[112.756,69.9525],[113.508,69.5422],[114.31,69.243],[115.146,69.0611],[116,69],[184,69],[184.854,69.0611],[185.69,69.243],[186.492,69.5422],[187.244,69.9525],[187.929,70.4655],[188.534,71.0708],[189.048,71.7562],[189.458,72.5075],[189.757,73.3096],[189.939,74.1461],[190,75],[190,143],[189.939,143.854],[189.757,144.69],[189.458,145.492],[189.048,146.244],[188.534,146.929],[187.929,147.534],[187.244,148.048],[186.492,148.458],[185.69,148.757],[184.854,148.939],[184,149],[116,149],[115.146,148.939],[114.31,148.757],[113.508,148.458],[112.756,148.048],[112.071,147.534],[111.466,146.929],[110.952,146.244],[110.542,145.492],[110.243,144.69],[110.061,143.854],[110,143],[110,75]]
M73 P0 R64
;TYPE:Custom
M190 S70
M109 S220
PRINT_START EXTRUDER=220 BED=70
G90
G21
M83 ; use relative distances for extrusion
; filament start gcode
M106 S0
;LAYER_CHANGE
;Z:0.2
;HEIGHT:0.2
;BEFORE_LAYER_CHANGE
;0.2
G92 E0

G1 E-.8 F1800
;AFTER_LAYER_CHANGE
;0.2
;_SET_FAN_SPEED_CHANGING_LAYER
SET_VELOCITY_LIMIT ACCEL=500 ACCEL_TO_DECEL=250
; printing object top.stl id:0 copy 0
EXCLUDE_OBJECT_START NAME=top.stl_id_0_copy_0
G1 Z.4 F21000
G1 X188.065 Y154.386
G1 Z.4
G1 Z.2
G1 E.8 F1800
;TYPE:Inner wall
;WIDTH:0.499999
G1 F3000
G1 X188.237 Y154.702 E.01336
G1 X188.517 Y155.317 E.02521
G1 X188.711 Y155.976 E.02556
G1 X188.808 Y156.658 E.02567
G1 X188.836 Y157.222 E.02103
G1 X188.836 Y224.958 E2.52291
G1 X188.784 Y225.688 E.02724
G1 X188.637 Y226.362 E.02568
G1 X188.396 Y227.008 E.02568
G1 X188.066 Y227.613 E.02568
G1 X187.653 Y228.164 E.02565
G1 X187.159 Y228.657 E.026
G1 X186.613 Y229.066 E.02539
G1 X186.008 Y229.396 E.02568
G1 X185.362 Y229.637 E.02568
G1 X184.688 Y229.784 E.02568
G1 X183.958 Y229.836 E.02724
G1 X116.042 Y229.836 E2.52964
G1 X115.312 Y229.784 E.02724
G1 X114.638 Y229.637 E.02568
G1 X113.992 Y229.396 E.02568
G1 X113.387 Y229.066 E.02568
G1 X112.836 Y228.653 E.02565
G1 X112.343 Y228.159 E.026
G1 X111.934 Y227.613 E.0254
G1 X111.604 Y227.008 E.02568
G1 X111.363 Y226.362 E.02568
G1 X111.216 Y225.688 E.02568
G1 X111.164 Y224.958 E.02724
G1 X111.164 Y157.042 E2.52964
G1 X111.216 Y156.312 E.02724
G1 X111.363 Y155.638 E.02568
G1 X111.604 Y154.992 E.02568
G1 X111.934 Y154.387 E.02568
G1 X112.347 Y153.836 E.02565
G1 X112.841 Y153.343 E.026
G1 X113.387 Y152.934 E.0254
G1 X113.992 Y152.604 E.02568
G1 X114.638 Y152.363 E.02568
G1 X115.312 Y152.216 E.02568
G1 X116.042 Y152.164 E.02724
G1 X183.967 Y152.165 E2.52996
G1 X184.688 Y152.216 E.02692
G1 X185.362 Y152.363 E.02568
G1 X186.008 Y152.604 E.02568
G1 X186.613 Y152.934 E.02568
G1 X187.165 Y153.348 E.02568
G1 X187.652 Y153.835 E.02568
G1 X188.041 Y154.354 E.02416
G1 X188.451 Y154.139 F21000
G1 F3000
G1 X188.816 Y154.81 E.02843
G1 X189.077 Y155.509 E.02782
G1 X189.237 Y156.247 E.02812
G1 X189.293 Y157.222 E.03638
G1 X189.293 Y224.975 E2.52352
G1 X189.237 Y225.753 E.02906
G1 X189.077 Y226.491 E.02812
G1 X188.813 Y227.198 E.02812
G1 X188.451 Y227.861 E.02812
G1 X187.999 Y228.465 E.0281
G1 X187.458 Y229.004 E.02843
G1 X186.861 Y229.451 E.02782
G1 X186.198 Y229.813 E.02812
G1 X185.491 Y230.077 E.02812
G1 X184.753 Y230.237 E.02812
G1 X183.975 Y230.293 E.02906
G1 X116.025 Y230.293 E2.53086
G1 X115.247 Y230.237 E.02906
G1 X114.509 Y230.077 E.02812
G1 X113.802 Y229.813 E.02812
G1 X113.139 Y229.451 E.02812
G1 X112.535 Y228.999 E.0281
G1 X111.996 Y228.458 E.02843
G1 X111.549 Y227.861 E.02782
G1 X111.187 Y227.198 E.02812
G1 X110.923 Y226.491 E.02812
G1 X110.763 Y225.753 E.02812
G1 X110.707 Y224.975 E.02906
G1 X110.707 Y157.025 E2.53086
G1 X110.763 Y156.247 E.02906
G1 X110.923 Y155.509 E.02812
G1 X111.187 Y154.802 E.02812
G1 X111.549 Y154.139 E.02812
G1 X112.001 Y153.535 E.0281
G1 X112.542 Y152.996 E.02843
G1 X113.139 Y152.549 E.02782
G1 X113.802 Y152.187 E.02812
G1 X114.509 Y151.923 E.02812
G1 X115.247 Y151.763 E.02812
G1 X116.025 Y151.707 E.02906
G1 X183.983 Y151.708 E2.53117
G1 X184.753 Y151.763 E.02874
G1 X185.491 Y151.923 E.02812
G1 X186.198 Y152.187 E.02812
G1 X186.861 Y152.549 E.02812
G1 X187.465 Y153.001 E.02812
G1 X187.999 Y153.535 E.02812
G1 X188.427 Y154.107 E.02661
G1 X188.837 Y153.893 F21000
;TYPE:Outer wall
G1 F3000
G1 X189.233 Y154.619 E.03082
G1 X189.516 Y155.38 E.03024
G1 X189.691 Y156.182 E.03055
G1 X189.75 Y157.222 E.03881
G1 X189.75 Y224.991 E2.52413
G1 X189.691 Y225.818 E.03089
G1 X189.516 Y226.62 E.03055
G1 X189.23 Y227.388 E.03055
G1 X188.837 Y228.108 E.03055
G1 X188.345 Y228.765 E.03055
G1 X187.758 Y229.35 E.03087
G1 X187.108 Y229.837 E.03024
G1 X186.388 Y230.23 E.03055
G1 X185.62 Y230.516 E.03055
G1 X184.818 Y230.691 E.03055
G1 X183.991 Y230.75 E.03089
G1 X116.009 Y230.75 E2.53207
G1 X115.182 Y230.691 E.03089
G1 X114.38 Y230.516 E.03055
G1 X113.612 Y230.23 E.03055
G1 X112.892 Y229.837 E.03055
G1 X112.235 Y229.345 E.03055
G1 X111.65 Y228.758 E.03087
G1 X111.163 Y228.108 E.03024
G1 X110.77 Y227.388 E.03055
G1 X110.484 Y226.62 E.03055
G1 X110.309 Y225.818 E.03055
G1 X110.25 Y224.991 E.03089
G1 X110.25 Y157.009 E2.53207
G1 X110.309 Y156.182 E.03089
G1 X110.484 Y155.38 E.03055
G1 X110.77 Y154.612 E.03055
G1 X111.163 Y153.892 E.03055
G1 X111.655 Y153.235 E.03055
G1 X112.242 Y152.65 E.03087
G1 X112.892 Y152.163 E.03024
G1 X113.612 Y151.77 E.03055
G1 X114.38 Y151.484 E.03055
G1 X115.182 Y151.309 E.03055
G1 X116.009 Y151.25 E.03089
G1 X184 Y151.251 E2.53239
G1 X184.818 Y151.309 E.03057
G1 X185.62 Y151.484 E.03055
G1 X186.388 Y151.77 E.03055
G1 X187.108 Y152.163 E.03055
G1 X187.765 Y152.655 E.03055
G1 X188.345 Y153.235 E.03055
G1 X188.813 Y153.86 E.0291
G1 E-.56 F1800
;WIPE_START
G1 F3000
G1 X189.233 Y154.619 E-.20812
G1 X189.279 Y154.744 E-.03188
;WIPE_END
G1 Z.6 F21000
G1 X184.485 Y225.611 Z.6
G1 Z.2
G1 E.8 F1800
;TYPE:Inner wall
G1 F3000
G1 X184.081 Y225.941 E.01941
G1 X183.69 Y226.145 E.01644
G1 X183.156 Y226.337 E.02114
G1 X182.649 Y226.405 E.01905
G1 X182.351 Y226.405 E.01111
G1 X181.604 Y226.267 E.02828
G1 X180.919 Y225.941 E.02828
G1 X180.341 Y225.448 E.02828
G1 X179.91 Y224.823 E.02828
G1 X179.683 Y224.247 E.02306
G1 X179.595 Y223.649 E.02251
G1 X179.595 Y223.351 E.01111
G1 X179.67 Y222.809 E.02038
G1 X179.91 Y222.177 E.02518
G1 X180.059 Y221.919 E.01111
G1 X180.367 Y221.519 E.01878
G1 X180.919 Y221.059 E.02676
G1 X181.177 Y220.91 E.01111
G1 X181.665 Y220.71 E.01966
G1 X182.351 Y220.595 E.02588
G1 X182.649 Y220.595 E.01111
G1 X183.247 Y220.683 E.02251
G1 X183.823 Y220.91 E.02306
G1 X184.448 Y221.341 E.02828
G1 X184.941 Y221.919 E.02828
G1 X185.267 Y222.604 E.02828
G1 X185.405 Y223.351 E.02828
G1 X185.405 Y223.649 E.01111
G1 X185.337 Y224.156 E.01905
G1 X185.145 Y224.69 E.02114
G1 X184.941 Y225.081 E.01644
G1 X184.611 Y225.507 E.02006
G1 X184.516 Y225.585 E.00459
G1 X184.195 Y225.254 F21000
G1 F3000
G1 X183.803 Y225.578 E.01896
G1 X183.221 Y225.845 E.02385
G1 X182.589 Y225.951 E.02385
G1 X181.952 Y225.891 E.02385
G1 X181.352 Y225.668 E.02385
G1 X180.83 Y225.297 E.02385
G1 X180.422 Y224.803 E.02385
G1 X180.155 Y224.221 E.02385
G1 X180.049 Y223.589 E.02385
G1 X180.109 Y222.952 E.02385
G1 X180.332 Y222.352 E.02385
G1 X180.703 Y221.83 E.02385
G1 X181.197 Y221.422 E.02385
G1 X181.779 Y221.155 E.02385
G1 X182.411 Y221.049 E.02385
G1 X183.048 Y221.109 E.02385
G1 X183.648 Y221.332 E.02385
G1 X184.17 Y221.703 E.02385
G1 X184.578 Y222.197 E.02385
G1 X184.845 Y222.779 E.02385
G1 X184.951 Y223.411 E.02385
G1 X184.891 Y224.048 E.02385
G1 X184.668 Y224.648 E.02385
G1 X184.297 Y225.17 E.02385
G1 X184.226 Y225.228 E.0034
G1 X183.91 Y224.911 F21000
;TYPE:Outer wall
G1 F3000
G1 X183.525 Y225.216 E.01831
G1 X183.046 Y225.422 E.01943
G1 X182.53 Y225.498 E.01943
G1 X182.012 Y225.438 E.01943
G1 X181.527 Y225.245 E.01943
G1 X181.108 Y224.934 E.01943
G1 X180.784 Y224.525 E.01943
G1 X180.578 Y224.046 E.01943
G1 X180.502 Y223.53 E.01943
G1 X180.562 Y223.012 E.01943
G1 X180.755 Y222.527 E.01943
G1 X181.066 Y222.108 E.01943
G1 X181.475 Y221.784 E.01943
G1 X181.954 Y221.578 E.01943
G1 X182.47 Y221.502 E.01943
G1 X182.988 Y221.562 E.01943
G1 X183.473 Y221.755 E.01943
G1 X183.892 Y222.066 E.01943
G1 X184.216 Y222.475 E.01943
G1 X184.422 Y222.954 E.01943
G1 X184.498 Y223.47 E.01943
G1 X184.438 Y223.988 E.01943
G1 X184.245 Y224.473 E.01943
G1 X183.94 Y224.884 E.01906
G1 E-.56 F1800
;WIPE_START
G1 F3000
G1 X183.525 Y225.216 E-.12752
G1 X183.095 Y225.401 E-.11248
;WIPE_END
G1 Z.6 F21000
G1 X116.669 Y155.726 Z.6
G1 Z.2
G1 E.8 F1800
;TYPE:Inner wall
G1 F3000
G1 X116.844 Y155.663 E.00693
G1 X117.351 Y155.595 E.01904
G1 X117.649 Y155.595 E.01111
G1 X118.396 Y155.733 E.02828
G1 X119.081 Y156.059 E.02828
G1 X119.659 Y156.552 E.02828
G1 X120.09 Y157.177 E.02828
G1 X120.317 Y157.753 E.02306
G1 X120.405 Y158.351 E.02251
G1 X120.405 Y158.649 E.01111
G1 X120.33 Y159.191 E.02038
G1 X120.09 Y159.823 E.02518
G1 X119.941 Y160.081 E.01111
G1 X119.633 Y160.481 E.01877
G1 X119.081 Y160.941 E.02676
G1 X118.823 Y161.09 E.01111
G1 X118.335 Y161.29 E.01966
G1 X117.649 Y161.405 E.02588
G1 X117.351 Y161.405 E.01111
G1 X116.753 Y161.317 E.02251
G1 X116.177 Y161.09 E.02306
G1 X115.552 Y160.659 E.02828
G1 X115.059 Y160.081 E.02828
G1 X114.733 Y159.396 E.02828
G1 X114.656 Y159.108 E.01111
G1 X114.586 Y158.5 E.02278
G1 X114.656 Y157.892 E.02278
G1 X114.855 Y157.31 E.02293
G1 X115.059 Y156.919 E.01644
G1 X115.389 Y156.493 E.02006
G1 X115.919 Y156.059 E.02549
G1 X116.31 Y155.855 E.01644
G1 X116.631 Y155.74 E.01273
G1 X116.906 Y156.134 F21000
M73 P0 R63
G1 F3000
G1 X117.411 Y156.049 E.01905
G1 X118.048 Y156.109 E.02385
G1 X118.648 Y156.332 E.02385
G1 X119.17 Y156.703 E.02385
G1 X119.578 Y157.197 E.02385
G1 X119.845 Y157.779 E.02385
G1 X119.951 Y158.411 E.02385
G1 X119.891 Y159.048 E.02385
G1 X119.668 Y159.648 E.02385
G1 X119.297 Y160.17 E.02385
G1 X118.803 Y160.578 E.02385
G1 X118.221 Y160.845 E.02385
G1 X117.589 Y160.951 E.02385
G1 X116.952 Y160.891 E.02385
G1 X116.352 Y160.668 E.02385
G1 X115.83 Y160.297 E.02385
G1 X115.422 Y159.803 E.02385
G1 X115.155 Y159.221 E.02385
G1 X115.049 Y158.589 E.02385
G1 X115.109 Y157.952 E.02385
G1 X115.332 Y157.352 E.02385
G1 X115.732 Y156.795 E.02555
G1 X116.197 Y156.422 E.02218
G1 X116.779 Y156.155 E.02385
G1 X116.867 Y156.14 E.00331
G1 X116.981 Y156.574 F21000
;TYPE:Outer wall
G1 F3000
G1 X117.47 Y156.502 E.0184
G1 X117.988 Y156.562 E.01943
G1 X118.473 Y156.755 E.01943
G1 X118.892 Y157.066 E.01943
G1 X119.216 Y157.475 E.01943
G1 X119.422 Y157.954 E.01943
G1 X119.498 Y158.47 E.01943
G1 X119.438 Y158.988 E.01943
G1 X119.245 Y159.473 E.01943
G1 X118.934 Y159.892 E.01943
G1 X118.525 Y160.216 E.01943
G1 X118.046 Y160.422 E.01943
G1 X117.53 Y160.498 E.01943
G1 X117.012 Y160.438 E.01943
G1 X116.527 Y160.245 E.01943
G1 X116.108 Y159.934 E.01943
G1 X115.784 Y159.525 E.01943
G1 X115.578 Y159.046 E.01943
G1 X115.502 Y158.53 E.01943
G1 X115.562 Y158.012 E.01943
G1 X115.755 Y157.527 E.01943
G1 X116.076 Y157.096 E.02
G1 X116.475 Y156.784 E.01888
G1 X116.943 Y156.582 E.01897
G1 E-.56 F1800
;WIPE_START
G1 F3000
G1 X117.47 Y156.502 E-.12806
G1 X117.933 Y156.556 E-.11194
;WIPE_END
G1 Z.6 F21000
G1 X188.138 Y154.807 Z.6
G1 Z.2
G1 E.8 F1800
;TYPE:Bottom surface
;WIDTH:0.501958
G1 F6300
G1 X186.934 Y153.603 E.06368
G1 X186.427 Y153.223 E.02369
G1 X185.865 Y152.916 E.02396
G1 X185.44 Y152.758 E.01697
G1 X188.242 Y155.56 E.14824
G1 X188.307 Y155.735 E.00699
G1 X188.447 Y156.415 E.02595
G1 X184.585 Y152.553 E.2043
G1 X183.891 Y152.508 E.02602
G1 X188.493 Y157.11 E.24344
G1 X188.493 Y157.759 E.02428
G1 X183.242 Y152.508 E.27778
G1 X182.593 Y152.508 E.02428
G1 X188.493 Y158.408 E.31213
G1 X188.493 Y159.057 E.02428
G1 X181.944 Y152.508 E.34647
G1 X181.294 Y152.508 E.02428
G1 X188.493 Y159.706 E.38081
G1 X188.493 Y160.355 E.02428
G1 X180.645 Y152.508 E.41515
G1 X179.996 Y152.508 E.02428
G1 X188.493 Y161.005 E.44949
G1 X188.493 Y161.654 E.02428
G1 X179.347 Y152.508 E.48383
G1 X178.698 Y152.508 E.02428
G1 X188.493 Y162.303 E.51818
G1 X188.493 Y162.952 E.02428
G1 X178.048 Y152.508 E.55252
G1 X177.399 Y152.508 E.02428
G1 X188.493 Y163.601 E.58686
G1 X188.493 Y164.25 E.02428
G1 X176.75 Y152.508 E.6212
G1 X176.101 Y152.508 E.02428
G1 X188.493 Y164.9 E.65554
G1 X188.493 Y165.549 E.02428
G1 X175.452 Y152.508 E.68988
G1 X174.803 Y152.507 E.02428
G1 X188.493 Y166.198 E.72423
G1 X188.493 Y166.847 E.02428
G1 X174.153 Y152.507 E.75857
G1 X173.504 Y152.507 E.02428
G1 X188.493 Y167.496 E.79291
G1 X188.493 Y168.146 E.02428
G1 X172.855 Y152.507 E.82725
G1 X172.206 Y152.507 E.02428
G1 X188.493 Y168.795 E.86159
G1 X188.493 Y169.444 E.02428
G1 X171.557 Y152.507 E.89593
G1 X170.907 Y152.507 E.02428
G1 X188.493 Y170.093 E.93028
G1 X188.493 Y170.742 E.02428
G1 X170.258 Y152.507 E.96462
G1 X169.609 Y152.507 E.02428
G1 X188.493 Y171.391 E.99896
G1 X188.493 Y172.041 E.02428
G1 X168.96 Y152.507 E1.0333
G1 X168.311 Y152.507 E.02428
G1 X188.493 Y172.69 E1.06764
G1 X188.493 Y173.339 E.02428
G1 X167.661 Y152.507 E1.10198
G1 X167.012 Y152.507 E.02428
G1 X188.493 Y173.988 E1.13633
G1 X188.493 Y174.637 E.02428
G1 X166.363 Y152.507 E1.17067
G1 X165.714 Y152.507 E.02428
G1 X188.493 Y175.287 E1.20501
G1 X188.493 Y175.936 E.02428
G1 X165.065 Y152.507 E1.23935
M73 P1 R63
G1 X164.416 Y152.507 E.02428
G1 X188.493 Y176.585 E1.27369
G1 X188.493 Y177.234 E.02428
G1 X163.766 Y152.507 E1.30803
G1 X163.117 Y152.507 E.02428
G1 X188.493 Y177.883 E1.34238
G1 X188.493 Y178.532 E.02428
G1 X162.468 Y152.507 E1.37672
G1 X161.819 Y152.507 E.02428
G1 X188.493 Y179.182 E1.41106
G1 X188.493 Y179.831 E.02428
G1 X161.17 Y152.507 E1.4454
G1 X160.52 Y152.507 E.02428
G1 X188.493 Y180.48 E1.47974
G1 X188.493 Y181.129 E.02428
G1 X159.871 Y152.507 E1.51408
G1 X159.222 Y152.507 E.02428
G1 X188.493 Y181.778 E1.54843
G1 X188.493 Y182.427 E.02428
G1 X158.573 Y152.507 E1.58277
G1 X157.924 Y152.507 E.02428
G1 X188.493 Y183.077 E1.61711
G1 X188.493 Y183.726 E.02428
G1 X157.275 Y152.507 E1.65145
G1 X156.625 Y152.507 E.02428
G1 X188.493 Y184.375 E1.68579
G1 X188.493 Y185.024 E.02428
G1 X155.976 Y152.507 E1.72013
G1 X155.327 Y152.507 E.02428
G1 X188.493 Y185.673 E1.75448
G1 X188.493 Y186.323 E.02428
G1 X154.678 Y152.507 E1.78882
G1 X154.029 Y152.507 E.02428
G1 X188.493 Y186.972 E1.82316
G1 X188.493 Y187.621 E.02428
G1 X153.379 Y152.507 E1.8575
G1 X152.73 Y152.507 E.02428
G1 X188.493 Y188.27 E1.89184
G1 X188.493 Y188.919 E.02428
G1 X152.081 Y152.507 E1.92618
G1 X151.432 Y152.507 E.02428
G1 X188.493 Y189.568 E1.96053
G1 X188.493 Y190.218 E.02428
G1 X150.783 Y152.507 E1.99487
