; HEADER_BLOCK_START
; generated by OrcaSlicer 1.8.0-beta1 on 2024-02-04 at 18:09:46
; total layer number: 239
; HEADER_BLOCK_END


;
;
; external perimeters extrusion width = 0.40mm
; perimeters extrusion width = 0.45mm
; infill extrusion width = 0.45mm
; solid infill extrusion width = 0.40mm
; top infill extrusion width = 0.40mm
; support material extrusion width = 0.40mm
; first layer extrusion width = 0.50mm

; external perimeters extrusion width = 0.40mm
; perimeters extrusion width = 0.45mm
; infill extrusion width = 0.45mm
; solid infill extrusion width = 0.40mm
; top infill extrusion width = 0.40mm
; support material extrusion width = 0.40mm
; first layer extrusion width = 0.50mm

; external perimeters extrusion width = 0.40mm
; perimeters extrusion width = 0.45mm
; infill extrusion width = 0.45mm
; solid infill extrusion width = 0.40mm
; top infill extrusion width = 0.40mm
; support material extrusion width = 0.40mm
; first layer extrusion width = 0.50mm

; EXECUTABLE_BLOCK_START
EXCLUDE_OBJECT_DEFINE NAME=door_1_v1.stl_id_0_copy_0 CENTER=168.372,155.127 POLYGON=[[43.7449,277.986],[291.232,30.499],[293,32.2667],[45.5126,279.754],[43.7449,277.986]]
EXCLUDE_OBJECT_DEFINE NAME=door_1_v1.stl_id_1_copy_0 CENTER=158.119,144.873 POLYGON=[[33.4918,267.733],[280.979,20.2459],[282.747,22.0137],[35.2596,269.501],[33.4918,267.733]]
EXCLUDE_OBJECT_DEFINE NAME=door_1_v1.stl_id_2_copy_0 CENTER=131.628,149.337 POLYGON=[[7,272.197],[254.487,24.7091],[256.255,26.4769],[8.76777,273.964],[7,272.197]]
M73 P0 R152
;TYPE:Custom
M190 S70
M109 S220
PRINT_START EXTRUDER=220 BED=70
G90
G21
M83 ; use relative distances for extrusion
; filament start gcode
M106 S0
;LAYER_CHANGE
;Z:0.2
;HEIGHT:0.2
;BEFORE_LAYER_CHANGE
;0.2
G92 E0

G1 E-.8 F1800
;AFTER_LAYER_CHANGE
;0.2
;_SET_FAN_SPEED_CHANGING_LAYER
SET_VELOCITY_LIMIT ACCEL=500 ACCEL_TO_DECEL=250
; printing object door_1 v1.stl id:2 copy 0
EXCLUDE_OBJECT_START NAME=door_1_v1.stl_id_2_copy_0
G1 Z.4 F21000
G1 X113.092 Y165.61
G1 Z.4
G1 Z.2
G1 E.8 F1800
;TYPE:Support
;WIDTH:0.5
G1 F3000
G1 X112.487 Y165.61 E.02253
G1 X112.487 Y158.874 E.25087
G1 X119.827 Y158.874 E.2734
G1 X113.14 Y165.561 E.35223
G1 X118.834 Y159.286 F21000
G1 F3000
G1 X112.922 Y165.198 E.31145
G1 X112.898 Y165.198 E.00087
G1 X112.898 Y159.286 E.22022
G1 X118.834 Y159.286 E.22109
G1 X117.608 Y159.793 F21000
G1 F3000
G1 X113.406 Y163.995 E.22134
G1 X113.406 Y159.793 E.15651
G1 X117.608 Y159.793 E.15651
G1 X116.382 Y160.301 F21000
G1 F3000
G1 X113.914 Y162.769 E.13
G1 X113.914 Y160.301 E.09192
G1 X116.382 Y160.301 E.09192
G1 E-.56 F1800
;WIPE_START
G1 F3000
G1 X115.382 Y160.301 E-.24
;WIPE_END
G1 Z.6 F21000
G1 X122.09 Y168.477 Z.6
G1 Z.2
G1 E.8 F1800
G1 F3000
G1 X115.355 Y168.477 E.25087
G1 X115.355 Y167.872 E.02254
G1 X122.09 Y161.137 E.35478
G1 X122.09 Y168.409 E.27085
G1 X121.679 Y162.13 F21000
G1 F3000
G1 X121.679 Y168.066 E.2211
G1 X115.766 Y168.066 E.22023
G1 X115.766 Y168.043 E.00087
G1 X121.679 Y162.13 E.31145
G1 X121.171 Y163.356 F21000
G1 F3000
G1 X121.171 Y167.558 E.15651
G1 X116.969 Y167.558 E.15651
G1 X121.171 Y163.356 E.22134
G1 X120.663 Y164.582 F21000
G1 F3000
G1 X120.663 Y167.05 E.09193
G1 X118.195 Y167.05 E.09193
G1 X120.663 Y164.582 E.13001
G1 E-.56 F1800
;WIPE_START
G1 F3000
G1 X119.956 Y165.289 E-.24
;WIPE_END
G1 Z.6 F21000
G1 X173.316 Y105.386 Z.6
M73 P0 R151
G1 Z.2
G1 E.8 F1800
G1 F3000
G1 X172.711 Y105.386 E.02253
G1 X172.711 Y98.65 E.25087
G1 X180.051 Y98.65 E.2734
G1 X173.364 Y105.337 E.35223
G1 X173.122 Y104.974 F21000
G1 F3000
G1 X173.122 Y99.062 E.22023
G1 X179.058 Y99.062 E.22109
G1 X173.146 Y104.974 E.31145
G1 X173.122 Y104.974 E.00087
G1 X173.63 Y103.771 F21000
G1 F3000
G1 X173.63 Y99.569 E.15651
G1 X177.832 Y99.569 E.15651
G1 X173.63 Y103.771 E.22134
G1 X174.138 Y102.545 F21000
G1 F3000
G1 X174.138 Y100.077 E.09192
G1 X176.606 Y100.077 E.09192
G1 X174.138 Y102.545 E.13
G1 E-.56 F1800
;WIPE_START
G1 F3000
G1 X174.845 Y101.838 E-.24
;WIPE_END
G1 Z.6 F21000
G1 X182.314 Y108.253 Z.6
G1 Z.2
G1 E.8 F1800
G1 F3000
G1 X175.579 Y108.253 E.25087
G1 X175.579 Y107.648 E.02254
G1 X182.314 Y100.913 E.35478
G1 X182.314 Y108.185 E.27085
G1 X175.99 Y107.842 F21000
G1 F3000
G1 X175.99 Y107.819 E.00087
G1 X181.903 Y101.906 E.31145
G1 X181.903 Y107.842 E.2211
G1 X175.99 Y107.842 E.22022
G1 X177.193 Y107.334 F21000
G1 F3000
G1 X181.395 Y103.132 E.22134
G1 X181.395 Y107.334 E.15651
G1 X177.193 Y107.334 E.15651
G1 X178.419 Y106.826 F21000
G1 F3000
G1 X180.887 Y104.358 E.13001
G1 X180.887 Y106.826 E.09193
G1 X178.419 Y106.826 E.09193
G1 E-.56 F1800
;WIPE_START
G1 F3000
G1 X179.419 Y106.826 E-.24
;WIPE_END
G1 Z.6 F21000
G1 X231.067 Y59.501 Z.6
G1 Z.2
G1 E.8 F1800
G1 F3000
G1 X223.726 Y59.501 E.27341
G1 X230.462 Y52.765 E.35478
G1 X231.067 Y52.765 E.02254
G1 X231.067 Y59.432 E.24832
G1 X224.72 Y59.089 F21000
G1 F3000
G1 X230.632 Y53.177 E.31145
G1 X230.656 Y53.177 E.00087
G1 X230.656 Y59.089 E.22023
G1 X224.72 Y59.089 E.2211
G1 X225.946 Y58.581 F21000
G1 F3000
G1 X230.148 Y54.379 E.22134
G1 X230.148 Y58.581 E.15651
G1 X225.946 Y58.581 E.15651
G1 X227.172 Y58.074 F21000
G1 F3000
G1 X229.64 Y55.605 E.13001
G1 X229.64 Y58.074 E.09193
G1 X227.172 Y58.074 E.09193
G1 E-.56 F1800
;WIPE_START
G1 F3000
G1 X228.172 Y58.074 E-.24
;WIPE_END
G1 Z.6 F21000
G1 X228.199 Y50.502 Z.6
G1 Z.2
G1 E.8 F1800
G1 F3000
G1 X221.464 Y57.238 E.35478
G1 X221.464 Y49.897 E.2734
G1 X228.199 Y49.897 E.25087
G1 X228.199 Y50.434 E.01998
G1 X221.875 Y56.245 F21000
G1 F3000
G1 X221.875 Y50.309 E.22109
G1 X227.788 Y50.309 E.22022
G1 X227.788 Y50.332 E.00087
G1 X221.875 Y56.245 E.31145
G1 X222.383 Y55.019 F21000
G1 F3000
G1 X222.383 Y50.817 E.15651
G1 X226.585 Y50.817 E.15651
G1 X222.383 Y55.019 E.22134
G1 X222.891 Y53.793 F21000
G1 F3000
G1 X222.891 Y51.324 E.09192
G1 X225.359 Y51.324 E.09192
G1 X222.891 Y53.793 E.13
G1 E-.56 F1800
;WIPE_START
G1 F3000
G1 X223.598 Y53.085 E-.24
;WIPE_END
G1 Z.6 F21000
G1 X44.659 Y234.042 Z.6
G1 Z.2
G1 E.8 F1800
G1 F3000
G1 X35.661 Y243.04 E.47397
G1 X35.056 Y243.04 E.02253
G1 X35.056 Y236.305 E.25087
G1 X37.924 Y236.305 E.10682
G1 X37.924 Y233.437 E.10682
G1 X44.659 Y233.437 E.25087
G1 X44.659 Y233.974 E.01998
G1 X44.248 Y233.849 F21000
G1 F3000
G1 X44.248 Y233.872 E.00087
G1 X35.491 Y242.629 E.46128
G1 X35.467 Y242.629 E.00087
G1 X35.467 Y236.716 E.22022
G1 X38.335 Y236.716 E.10682
G1 X38.335 Y233.849 E.10682
G1 X44.248 Y233.849 E.22023
G1 X43.045 Y234.356 F21000
G1 F3000
G1 X35.975 Y241.426 E.37239
G1 X35.975 Y237.224 E.15651
G1 X38.843 Y237.224 E.10682
G1 X38.843 Y234.356 E.10682
G1 X43.045 Y234.356 E.15651
G1 X38.951 Y237.732 F21000
G1 F3000
G1 X36.483 Y240.2 E.13
G1 X36.483 Y237.732 E.09192
G1 X38.951 Y237.732 E.09192
G1 X39.351 Y237.332 F21000
G1 F3000
G1 X39.351 Y234.864 E.09192
G1 X41.819 Y234.864 E.09192
G1 X39.351 Y237.332 E.13
G1 E-.56 F1800
;WIPE_START
G1 F3000
G1 X40.058 Y236.625 E-.24
;WIPE_END
G1 Z.6 F21000
G1 X47.527 Y243.04 Z.6
G1 Z.2
G1 E.8 F1800
G1 F3000
G1 X44.659 Y243.04 E.10682
G1 X44.659 Y245.908 E.10682
G1 X37.924 Y245.908 E.25087
G1 X37.924 Y245.303 E.02254
G1 X46.922 Y236.305 E.47397
G1 X47.527 Y236.305 E.02254
G1 X47.527 Y242.972 E.24832
G1 X47.116 Y236.716 F21000
G1 F3000
G1 X47.116 Y242.629 E.22022
G1 X44.248 Y242.629 E.10682
G1 X44.248 Y245.497 E.10682
G1 X38.335 Y245.497 E.22023
G1 X38.335 Y245.474 E.00087
G1 X47.092 Y236.716 E.46127
G1 X47.116 Y236.716 E.00087
G1 X46.608 Y237.919 F21000
G1 F3000
G1 X46.608 Y242.121 E.15651
G1 X43.74 Y242.121 E.10682
G1 X43.74 Y244.989 E.10682
G1 X39.538 Y244.989 E.15651
G1 X46.608 Y237.919 E.3724
G1 X43.232 Y242.013 F21000
G1 F3000
G1 X43.232 Y244.481 E.09193
G1 X40.764 Y244.481 E.09193
G1 X43.232 Y242.013 E.13001
G1 X43.632 Y241.613 F21000
G1 F3000
G1 X46.1 Y239.145 E.13001
G1 X46.1 Y241.613 E.09193
G1 X43.632 Y241.613 E.09193
G1 E-.56 F1800
;WIPE_START
G1 F3000
G1 X44.632 Y241.613 E-.24
;WIPE_END
G1 Z.6 F21000
G1 X63.432 Y234.633 Z.6
G1 Z.2
G1 E.8 F1800
;TYPE:Brim
G1 F3000
G1 X63.432 Y233.726 E.0338
G1 X64.34 Y233.726 E.0338
G1 X63.46 Y234.605 E.04631
G1 E-.56 F1800
;WIPE_START
G1 F3000
G1 X63.432 Y233.726 E-.21111
G1 X63.552 Y233.726 E-.02889
;WIPE_END
G1 E0 F1800
G1 Z.6 F21000
G1 X66.3 Y231.766 Z.6
G1 Z.2
G1 E.8 F1800
G1 F3000
G1 X66.3 Y230.858 E.0338
G1 X67.207 Y230.858 E.0338
G1 X66.328 Y231.737 E.04631
G1 E-.56 F1800
;WIPE_START
G1 F3000
G1 X66.3 Y230.858 E-.21111
G1 X66.42 Y230.858 E-.02889
;WIPE_END
G1 E0 F1800
G1 Z.6 F21000
G1 X140.863 Y157.203 Z.6
G1 Z.2
G1 E.8 F1800
G1 F3000
G1 X140.863 Y156.295 E.0338
G1 X141.77 Y156.295 E.0338
G1 X140.891 Y157.174 E.04631
G1 E-.56 F1800
;WIPE_START
G1 F3000
G1 X140.863 Y156.295 E-.21111
G1 X140.983 Y156.295 E-.02889
;WIPE_END
G1 E0 F1800
G1 Z.6 F21000
G1 X201.087 Y96.979 Z.6
G1 Z.2
G1 E.8 F1800
G1 F3000
G1 X201.087 Y96.071 E.0338
G1 X201.994 Y96.071 E.0338
G1 X201.115 Y96.95 E.04631
G1 E-.56 F1800
;WIPE_START
G1 F3000
G1 X201.087 Y96.071 E-.21111
G1 X201.207 Y96.071 E-.02889
;WIPE_END
G1 E0 F1800
G1 Z.6 F21000
G1 X249.84 Y48.226 Z.6
G1 Z.2
G1 E.8 F1800
G1 F3000
G1 X249.84 Y47.318 E.0338
G1 X250.747 Y47.318 E.0338
G1 X249.868 Y48.198 E.04631
G1 E-.56 F1800
;WIPE_START
G1 F3000
G1 X249.84 Y47.318 E-.21111
G1 X249.96 Y47.318 E-.02889
;WIPE_END
G1 E0 F1800
G1 Z.6 F21000
G1 X247.498 Y48.198 Z.6
G1 Z.2
G1 E.8 F1800
G1 F3000
G1 X247.498 Y52.927 E.17617
G1 X247.528 Y53.04 E.00432
G1 X247.63 Y53.13 E.00509
G1 X206.899 Y93.861 E2.14545
G1 X206.837 Y93.778 E.00386
G1 X206.696 Y93.73 E.00555
G1 X199.108 Y93.73 E.28262
G1 X198.946 Y93.797 E.00651
G1 X198.813 Y93.931 E.00705
G1 X198.746 Y94.092 E.00651
G1 X198.746 Y101.017 E.25792
G1 X198.813 Y101.179 E.00651
G1 X198.946 Y101.312 E.00705
G1 X199.108 Y101.379 E.00651
G1 X199.381 Y101.379 E.01017
G1 X146.675 Y154.085 E2.77622
G1 X146.613 Y154.002 E.00386
G1 X146.472 Y153.954 E.00555
G1 X138.884 Y153.954 E.28262
G1 X138.722 Y154.021 E.00651
G1 X138.589 Y154.155 E.00705
G1 X138.522 Y154.316 E.00651
G1 X138.522 Y161.241 E.25792
G1 X138.589 Y161.403 E.00651
G1 X138.722 Y161.537 E.00705
G1 X138.884 Y161.603 E.00651
G1 X139.157 Y161.603 E.01017
G1 X71.608 Y229.152 E3.55807
G1 X71.608 Y228.879 E.01017
G1 X71.541 Y228.718 E.00651
G1 X71.407 Y228.584 E.00705
G1 X71.246 Y228.517 E.00651
G1 X64.321 Y228.517 E.25792
G1 X64.159 Y228.584 E.00651
G1 X64.026 Y228.718 E.00705
G1 X63.959 Y228.879 E.00651
G1 X63.959 Y231.385 E.09332
G1 X61.453 Y231.385 E.09332
G1 X61.292 Y231.452 E.00651
G1 X61.158 Y231.586 E.00705
G1 X61.091 Y231.747 E.00651
G1 X61.091 Y238.672 E.25792
G1 X61.158 Y238.833 E.00651
G1 X61.292 Y238.967 E.00705
G1 X61.453 Y239.034 E.00651
G1 X61.726 Y239.034 E.01017
G1 X33.26 Y267.501 E1.49946
G1 X33.194 Y267.6 E.00442
G1 X33.175 Y267.774 E.00651
G1 X33.201 Y267.867 E.00361
G1 X33.26 Y267.966 E.00426
G1 X33.618 Y268.324 E.01886
G1 X18.377 Y283.566 E.80282
G1 X17.525 Y284.347 E.04306
G1 X16.614 Y285.051 E.04288
G1 X15.646 Y285.674 E.04288
G1 X14.628 Y286.212 E.04288
G1 X13.568 Y286.662 E.04289
G1 X12.565 Y286.993 E.03934
G1 X11.353 Y287.291 E.0465
G1 X10.215 Y287.465 E.04286
G1 X9.067 Y287.542 E.04288
G1 X7.916 Y287.52 E.04288
G1 X6.771 Y287.4 E.04288
G1 X5.64 Y287.183 E.04288
G1 X4.532 Y286.87 E.04288
G1 X3.455 Y286.464 E.04288
G1 X2.416 Y285.968 E.04288
G1 X1.424 Y285.384 E.04288
G1 X.486 Y284.72 E.0428
G1 X.229 Y284.494 E.01276
G1 X.229 Y259.779 E.92054
G1 X244.878 Y15.108 E12.88726
G1 X245.73 Y14.326 E.04306
G1 X246.641 Y13.623 E.04288
G1 X247.609 Y12.999 E.04288
G1 X248.627 Y12.461 E.04288
G1 X249.687 Y12.012 E.04288
G1 X250.781 Y11.654 E.04288
G1 X251.902 Y11.391 E.04288
G1 X253.04 Y11.225 E.04284
G1 X254.418 Y11.155 E.0514
G1 X255.709 Y11.204 E.04811
G1 X256.85 Y11.351 E.04286
G1 X257.975 Y11.595 E.04288
G1 X259.075 Y11.934 E.04288
G1 X260.142 Y12.366 E.04288
G1 X261.169 Y12.887 E.04288
G1 X262.147 Y13.493 E.04288
G1 X263.07 Y14.181 E.04284
G1 X264.097 Y15.108 E.05154
G1 X265.857 Y16.868 E.09272
G1 X266.639 Y17.72 E.04306
G1 X267.342 Y18.631 E.04288
G1 X267.965 Y19.599 E.04288
G1 X268.503 Y20.617 E.04288
G1 X268.953 Y21.677 E.04288
G1 X269.311 Y22.772 E.04291
G1 X269.582 Y23.891 E.04291
G1 X269.756 Y25.029 E.04288
G1 X269.832 Y26.178 E.04288
G1 X269.811 Y27.329 E.04288
G1 X269.691 Y28.474 E.04288
G1 X269.474 Y29.605 E.04288
G1 X269.161 Y30.712 E.04288
G1 X268.755 Y31.79 E.04288
G1 X268.557 Y32.203 E.01706
G1 X255.148 Y45.612 E.70633
G1 X255.148 Y45.339 E.01017
G1 X255.081 Y45.178 E.00651
G1 X254.947 Y45.044 E.00705
G1 X254.786 Y44.977 E.00651
G1 X247.861 Y44.977 E.25792
G1 X247.699 Y45.044 E.00651
G1 X247.565 Y45.178 E.00705
G1 X247.498 Y45.339 E.00651
G1 X247.498 Y48.158 E.10496
G1 X247.045 Y48.158 F21000
G1 F3000
G1 X247.051 Y53.006 E.18055
G1 X247.011 Y53.103 E.00392
G1 X206.869 Y93.245 E2.11447
G1 X206.749 Y93.284 E.00468
G1 X199.122 Y93.273 E.2841
G1 X198.921 Y93.313 E.00763
G1 X198.784 Y93.369 E.00551
G1 X198.614 Y93.483 E.00763
G1 X198.499 Y93.598 E.00605
G1 X198.385 Y93.768 E.00763
G1 X198.329 Y93.905 E.00551
G1 X198.289 Y94.106 E.00763
G1 X198.289 Y101.004 E.25691
G1 X198.329 Y101.204 E.00763
G1 X198.385 Y101.341 E.00551
G1 X198.478 Y101.48 E.00622
G1 X198.496 Y101.593 E.00426
G1 X198.461 Y101.653 E.0026
G1 X146.645 Y153.469 E2.72937
G1 X146.525 Y153.508 E.00468
G1 X138.898 Y153.497 E.2841
G1 X138.697 Y153.537 E.00763
G1 X138.56 Y153.593 E.00551
G1 X138.39 Y153.707 E.00763
G1 X138.275 Y153.822 E.00605
G1 X138.161 Y153.992 E.00763
G1 X138.105 Y154.129 E.00551
G1 X138.065 Y154.33 E.00763
G1 X138.065 Y161.228 E.25691
G1 X138.105 Y161.428 E.00763
G1 X138.161 Y161.565 E.00551
G1 X138.254 Y161.704 E.00622
G1 X138.272 Y161.817 E.00426
G1 X138.237 Y161.877 E.0026
G1 X71.882 Y228.232 E3.49519
G1 X71.775 Y228.272 E.00426
G1 X71.433 Y228.1 E.01424
G1 X71.232 Y228.06 E.00763
G1 X64.335 Y228.06 E.25691
G1 X64.134 Y228.1 E.00763
G1 X63.997 Y228.156 E.00551
G1 X63.827 Y228.27 E.00763
G1 X63.712 Y228.385 E.00605
G1 X63.598 Y228.555 E.00763
G1 X63.541 Y228.692 E.00551
G1 X63.502 Y228.893 E.00763
G1 X63.502 Y230.791 E.07068
G1 X63.454 Y230.894 E.00426
G1 X63.364 Y230.928 E.00355
G1 X61.467 Y230.928 E.07068
G1 X61.266 Y230.968 E.00763
G1 X61.129 Y231.024 E.00551
G1 X60.959 Y231.138 E.00763
G1 X60.844 Y231.253 E.00605
G1 X60.73 Y231.423 E.00763
G1 X60.674 Y231.56 E.00551
G1 X60.634 Y231.761 E.00763
G1 X60.634 Y238.658 E.25691
G1 X60.674 Y238.859 E.00763
G1 X60.73 Y238.996 E.00551
G1 X60.823 Y239.135 E.00622
G1 X60.841 Y239.248 E.00426
G1 X60.806 Y239.308 E.0026
G1 X32.944 Y267.17 E1.46762
G1 X32.82 Y267.34 E.00782
G1 X32.738 Y267.565 E.00892
G1 X32.722 Y267.709 E.00541
G1 X32.76 Y267.985 E.01037
G1 X32.9 Y268.241 E.01087
G1 X32.917 Y268.354 E.00426
G1 X32.882 Y268.413 E.00253
G1 X18.058 Y283.238 E.78085
G1 X17.235 Y283.994 E.04164
G1 X16.355 Y284.674 E.04142
G1 X15.41 Y285.282 E.04186
G1 X14.426 Y285.801 E.04142
G1 X13.412 Y286.232 E.04104
G1 X12.444 Y286.552 E.03798
G1 X11.27 Y286.841 E.04505
G1 X10.171 Y287.009 E.04139
G1 X9.062 Y287.084 E.04142
G1 X7.95 Y287.063 E.04142
G1 X6.843 Y286.948 E.04142
G1 X5.74 Y286.736 E.04186
G1 X4.67 Y286.434 E.04142
G1 X3.629 Y286.041 E.04142
G1 X2.626 Y285.561 E.04142
G1 X1.667 Y284.997 E.04144
G1 X.743 Y284.336 E.0423
G1 X.686 Y284.224 E.00467
G1 X.686 Y260.025 E.90134
G1 X.726 Y259.928 E.00391
G1 X245.193 Y15.44 E12.87762
M73 P0 R150
G1 X246.02 Y14.68 E.04186
G1 X246.91 Y13.993 E.04186
G1 X247.845 Y13.392 E.04142
G1 X248.818 Y12.877 E.04099
G1 X249.853 Y12.438 E.04186
G1 X250.91 Y12.093 E.04142
G1 X251.981 Y11.842 E.04099
G1 X253.078 Y11.682 E.04129
G1 X254.415 Y11.613 E.04985
G1 X255.665 Y11.66 E.04658
G1 X256.766 Y11.801 E.04138
G1 X257.853 Y12.036 E.04142
G1 X258.927 Y12.367 E.04186
G1 X259.948 Y12.78 E.04099
G1 X260.939 Y13.283 E.04142
G1 X261.894 Y13.875 E.04186
G1 X262.784 Y14.539 E.04134
G1 X263.779 Y15.437 E.04994
G1 X265.529 Y17.187 E.09216
G1 X266.292 Y18.019 E.04208
G1 X266.971 Y18.9 E.04142
G1 X267.567 Y19.825 E.04099
G1 X268.092 Y20.819 E.04186
G1 X268.526 Y21.843 E.04142
G1 X268.869 Y22.892 E.0411
G1 X269.134 Y23.986 E.04193
G1 X269.3 Y25.074 E.04099
G1 X269.375 Y26.183 E.04142
G1 X269.353 Y27.307 E.04186
G1 X269.239 Y28.401 E.04099
G1 X269.03 Y29.493 E.04142
G1 X268.724 Y30.575 E.04186
